; generated by SuperSlicer 2.4 on 2023-04-03 at 20:02:26 UTC


;
;

;
;
; 

; external perimeters extrusion width = 0.52mm
; perimeters extrusion width = 0.46mm
; infill extrusion width = 0.60mm
; solid infill extrusion width = 0.48mm
; top infill extrusion width = 0.52mm
; first layer extrusion width = 0.70mm

; object:{"name":"3DBenchy","id":"3DBenchy.stl id:0 copy 0","object_center":[90.000000,90.000000,0.000000],"boundingbox_center":[90.000000,90.000000,24.000000],"boundingbox_size":[60.000999,31.004000,48.000000]}
; plater:{"center":[90.000000,90.000000,0.000000],"boundingbox_center":[90.000000,90.000000,24.000000],"boundingbox_size":[60.000999,31.004000,48.000000]}

;TYPE:Custom
; custom gcode: start_gcode
print_start EXTRUDER=260 BED=110 CHAMBER_TARGET=0
G28
Z_TILT_ADJUST
G21 ; set units to millimeters
G90 ; use absolute coordinates
M82 ; use absolute distances for extrusion
G92 E0
; custom gcode end: start_gcode
; custom gcode: start_filament_gcode
; Filament gcode
; custom gcode end: start_filament_gcode
;_TOOLCHANGE 0
;LAYER_CHANGE
;Z:0.375
;HEIGHT:0.375
G1 Z0.375 F12000
; custom gcode: layer_gcode
M117 Layer 0
; custom gcode end: layer_gcode

G1 E-0.4 F2400
G1 X59.94 Y78.01 F12000
G1 E0 F2400
;TYPE:Skirt
;WIDTH:0.65
G1 F1800
G1 X59.139 Y78.769 E0.09017
G1 X58.345 Y79.746 E0.19299
G1 X57.557 Y81.1 E0.32098
G1 X57.094 Y82.285 E0.42489
G1 X56.813 Y83.458 E0.52341
G1 X56.666 Y84.972 E0.64769
G1 X56.693 Y95.622 E1.51765
G1 X56.852 Y96.77 E1.61235
G1 X57.171 Y97.951 E1.71231
G1 X57.657 Y99.105 E1.81458
G1 X58.555 Y100.534 E1.95244
G1 X59.613 Y101.703 E2.08129
G1 X60.466 Y102.398 E2.17115
G1 X61.533 Y103.059 E2.27368
G1 X62.874 Y103.634 E2.39288
G1 X64.496 Y104.017 E2.52904
G1 X89.937 Y105.583 E4.61117
G1 X92.298 Y105.471 E4.80431
G1 X94.113 Y105.212 E4.95404
G1 X95.559 Y104.896 E5.07498
G1 X97.908 Y104.163 E5.27598
G1 X99.728 Y103.389 E5.43754
G1 X101.608 Y102.378 E5.61187
G1 X104.362 Y100.428 E5.88753
G1 X106.423 Y98.488 E6.11879
G1 X107.89 Y96.754 E6.30436
G1 X109.181 Y94.868 E6.491
G1 X110.123 Y92.958 E6.66503
G1 X110.595 Y90.911 E6.83657
G1 X110.571 Y88.882 E7.00238
G1 X110.139 Y87.078 E7.15392
G1 X109.431 Y85.559 E7.29082
G1 X107.801 Y83.133 E7.52958
G1 X105.911 Y80.984 E7.76331
G1 X103.646 Y79.005 E8.00908
G1 X101.112 Y77.334 E8.25706
G1 X98.508 Y76.071 E8.49348
G1 X96.076 Y75.243 E8.70334
G1 X93.113 Y74.626 E8.95056
G1 X90.304 Y74.419 E9.1806
G1 X64.562 Y75.972 E11.28733
G1 X62.377 Y76.555 E11.47202
G1 X61.193 Y77.13 E11.57954
G1 X60.002 Y77.967 E11.69853
G1 X60.397 Y78.385 F12000
G1 F1800
G1 X59.399 Y79.329 E11.81073
G1 X58.682 Y80.261 E11.90677
G1 X58.068 Y81.35 E12.00893
G1 X57.635 Y82.462 E12.10642
G1 X57.376 Y83.545 E12.19739
G1 X57.236 Y84.972 E12.31453
G1 X57.261 Y95.586 E13.18153
G1 X57.412 Y96.665 E13.27056
G1 X57.713 Y97.774 E13.36441
G1 X58.169 Y98.856 E13.46036
G1 X59.014 Y100.198 E13.5899
G1 X60.005 Y101.29 E13.71034
G1 X60.792 Y101.931 E13.7933
G1 X61.793 Y102.552 E13.88947
G1 X63.063 Y103.097 E14.00238
G1 X64.591 Y103.456 E14.13063
G1 X89.927 Y105.014 E16.20424
G1 X91.333 Y104.977 E16.31911
G1 X93.564 Y104.73 E16.50245
G1 X96.787 Y103.95 E16.77332
G1 X98.149 Y103.459 E16.89157
G1 X100.321 Y102.452 E17.08717
G1 X102.12 Y101.383 E17.25809
G1 X103.722 Y100.215 E17.42007
G1 X105.51 Y98.613 E17.6162
G1 X107.244 Y96.659 E17.82958
G1 X108.689 Y94.58 E18.03644
G1 X109.584 Y92.775 E18.20102
G1 X110.028 Y90.861 E18.36149
G1 X110.007 Y88.965 E18.51642
G1 X109.606 Y87.277 E18.65817
G1 X108.945 Y85.855 E18.78627
G1 X107.359 Y83.491 E19.0188
G1 X105.517 Y81.396 E19.24666
G1 X103.311 Y79.465 E19.48617
G1 X100.843 Y77.836 E19.72777
G1 X98.304 Y76.603 E19.95833
G1 X95.909 Y75.787 E20.165
G1 X93.024 Y75.188 E20.40566
G1 X90.285 Y74.988 E20.63002
G1 X64.652 Y76.535 E22.7278
G1 X62.58 Y77.087 E22.90297
G1 X61.487 Y77.618 E23.00224
G1 X60.485 Y78.301 E23.10124
G1 X60.451 Y78.333 E23.10509
G1 X60.842 Y78.746 F12000
G1 F1800
G1 X59.82 Y79.712 E23.21996
G1 X59.152 Y80.583 E23.30961
G1 X58.58 Y81.6 E23.40497
G1 X58.176 Y82.64 E23.49605
G1 X57.938 Y83.633 E23.57946
G1 X57.805 Y84.973 E23.68946
G1 X57.83 Y95.55 E24.55352
G1 X57.971 Y96.56 E24.63687
G1 X58.254 Y97.597 E24.7246
G1 X58.681 Y98.607 E24.81423
G1 X59.474 Y99.861 E24.93545
G1 X60.397 Y100.876 E25.04748
G1 X62.052 Y102.045 E25.21301
G1 X63.251 Y102.56 E25.31963
G1 X64.686 Y102.894 E25.43999
G1 X89.918 Y104.444 E27.50506
G1 X91.288 Y104.409 E27.61697
G1 X93.484 Y104.166 E27.7975
G1 X96.599 Y103.412 E28.05932
G1 X97.926 Y102.935 E28.17445
G1 X100.064 Y101.943 E28.36702
G1 X101.812 Y100.904 E28.53319
G1 X103.373 Y99.765 E28.69105
G1 X105.101 Y98.217 E28.8805
G1 X106.801 Y96.301 E29.08978
G1 X108.198 Y94.292 E29.28966
G1 X109.045 Y92.592 E29.44479
G1 X109.46 Y90.811 E29.59419
G1 X109.444 Y89.048 E29.73824
G1 X109.072 Y87.476 E29.8702
G1 X108.458 Y86.151 E29.9895
G1 X106.916 Y83.849 E30.21579
G1 X105.123 Y81.807 E30.43779
G1 X102.976 Y79.925 E30.67105
G1 X100.574 Y78.338 E30.90626
G1 X98.1 Y77.135 E31.13097
G1 X95.742 Y76.332 E31.33444
G1 X92.936 Y75.751 E31.56854
G1 X90.266 Y75.557 E31.78723
G1 X65.348 Y77.03 E33.82627
G1 X64.369 Y77.156 E33.90692
G1 X63.126 Y77.489 E34.01204
G1 X61.78 Y78.106 E34.13299
G1 X60.903 Y78.703 E34.21964
G92 E0
G1 E-0.4 F2400
; printing object 3DBenchy.stl id:0 copy 0
G1 X87.081 Y88.498 F12000
G1 E0 F2400
;TYPE:Internal perimeter
;WIDTH:0.7
G1 F1800
G1 X86.741 Y87.634 E0.08253
G1 X86.376 Y87.011 E0.14668
G1 X85.941 Y86.503 E0.20609
G1 X85.378 Y86.054 E0.27005
G1 X84.74 Y85.742 E0.33315
G1 X84.053 Y85.563 E0.39621
G1 X83.442 Y85.483 E0.451
G1 X81.671 Y85.443 E0.60842
G1 X81.105 Y85.503 E0.65903
G1 X80.389 Y85.779 E0.72716
G1 X80.112 Y86.049 E0.76158
G1 X79.815 Y85.82 E0.79493
G1 X79.362 Y85.576 E0.8407
G1 X78.973 Y85.437 E0.87736
G1 X78.488 Y85.333 E0.9214
G1 X78.063 Y85.287 E0.95943
G1 X77.498 Y85.286 E1.00959
G1 X77.14 Y85.325 E1.04158
G1 X76.541 Y85.445 E1.0959
G1 X76.046 Y85.64 E1.14318
G1 X75.845 Y85.752 E1.16366
G1 X75.347 Y85.529 E1.21209
G1 X74.905 Y85.456 E1.25188
G1 X71.528 Y85.467 E1.55203
G1 X70.755 Y85.415 E1.62082
G1 X70.171 Y85.521 E1.67357
G1 X69.618 Y85.814 E1.72921
G1 X69.209 Y85.592 E1.77052
G1 X68.678 Y85.407 E1.82053
G1 X68.108 Y85.307 E1.87193
G1 X67.576 Y85.281 E1.91927
G1 X66.853 Y85.341 E1.98372
G1 X66.472 Y85.423 E2.0184
G1 X65.679 Y85.695 E2.09287
G1 X65.679 Y84.921 E2.16166
G1 X65.908 Y84.884 E2.18224
G1 X89.23 Y83.452 E4.25858
G1 X90.047 Y83.428 E4.33118
G1 X90.725 Y83.452 E4.39153
G1 X90.999 Y83.461 E4.4159
G1 X91.756 Y83.536 E4.48343
G1 X92.497 Y83.653 E4.5501
G1 X93.491 Y83.877 E4.64069
G1 X94.495 Y84.185 E4.73396
G1 X95.235 Y84.469 E4.80443
G1 X95.972 Y84.805 E4.87641
G1 X96.804 Y85.25 E4.96022
G1 X97.621 Y85.766 E5.04613
G1 X98.297 Y86.258 E5.1204
G1 X99.056 Y86.894 E5.20839
G1 X97.859 Y86.892 E5.3147
G1 X97.489 Y86.918 E5.34771
G1 X97.002 Y87.023 E5.39199
G1 X96.809 Y87.118 E5.41114
G1 X96.148 Y86.881 E5.47347
G1 X95.401 Y86.924 E5.53997
G1 X94.782 Y87.225 E5.60114
G1 X94.574 Y87.423 E5.62669
G1 X94.091 Y87.107 E5.67797
G1 X93.568 Y86.931 E5.72698
G1 X92.935 Y86.877 E5.78343
G1 X92.084 Y87.095 E5.86153
G1 X91.853 Y86.948 E5.88589
G1 X90.907 Y86.87 E5.97027
G1 X90.172 Y87.186 E6.04135
G1 X89.982 Y87.067 E6.06134
G1 X89.433 Y86.897 E6.11242
G1 X88.857 Y86.89 E6.1636
G1 X88.112 Y87.123 E6.23294
G1 X87.429 Y87.691 E6.31186
G1 X87.111 Y88.429 E6.38328
G1 X87.939 Y88.072 F12000
G1 F1800
G1 X87.692 Y88.646 E6.43879
G1 X87.723 Y89.206 E6.48866
G1 X87.86 Y89.614 E6.52688
G1 X88.451 Y90.68 E6.63518
G1 X88.15 Y90.943 E6.67074
G1 X87.806 Y90.687 E6.70888
G1 X87.494 Y90.529 E6.73991
G1 X87.136 Y90.423 E6.77314
G1 X86.575 Y90.387 E6.82305
G1 X86.591 Y89.98 E6.85929
G1 X86.568 Y89.399 E6.91093
G1 X86.459 Y88.711 E6.97282
G1 X86.362 Y88.362 E7.00504
G1 X86.182 Y87.906 E7.04864
G1 X85.869 Y87.372 E7.1036
G1 X85.508 Y86.951 E7.1529
G1 X85.045 Y86.581 E7.20558
G1 X84.524 Y86.326 E7.2571
G1 X83.934 Y86.173 E7.31123
G1 X83.395 Y86.102 E7.35961
G1 X81.697 Y86.063 E7.51054
G1 X81.251 Y86.11 E7.55034
G1 X80.731 Y86.311 E7.59989
G1 X80.096 Y86.93 E7.67868
G1 X79.735 Y86.541 E7.7259
G1 X79.476 Y86.341 E7.75489
G1 X79.109 Y86.143 E7.79195
G1 X78.803 Y86.034 E7.82082
G1 X78.39 Y85.945 E7.85839
G1 X78.029 Y85.907 E7.89066
G1 X77.531 Y85.905 E7.93488
G1 X77.235 Y85.938 E7.96133
G1 X76.717 Y86.042 E8.00832
G1 X76.311 Y86.201 E8.04707
G1 X76.035 Y86.355 E8.07516
G1 X75.801 Y86.532 E8.10119
G1 X75.533 Y86.291 E8.13319
G1 X75.167 Y86.127 E8.16887
G1 X74.855 Y86.075 E8.19694
G1 X71.508 Y86.086 E8.49436
G1 X70.79 Y86.039 E8.55828
G1 X70.376 Y86.114 E8.59571
G1 X69.998 Y86.314 E8.63373
G1 X69.692 Y86.637 E8.67326
G1 X69.342 Y86.369 E8.71245
G1 X68.958 Y86.16 E8.7513
G1 X68.521 Y86.009 E8.79238
G1 X68.039 Y85.924 E8.83591
G1 X67.587 Y85.901 E8.87614
G1 X66.944 Y85.955 E8.9334
G1 X66.638 Y86.021 E8.96129
G1 X66.21 Y86.168 E9.00142
G1 X65.906 Y86.314 E9.03142
G1 X65.528 Y86.557 E9.07137
G1 X65.059 Y86.947 E9.12556
G1 X65.059 Y85.05 E9.2941
G1 X65.095 Y84.824 E9.31447
G1 X65.127 Y84.726 E9.32358
G1 X65.176 Y84.625 E9.33358
G1 X65.23 Y84.546 E9.34212
G1 X65.297 Y84.472 E9.35096
G1 X65.373 Y84.41 E9.35966
G1 X65.443 Y84.369 E9.36686
G1 X65.612 Y84.304 E9.38298
G1 X65.84 Y84.268 E9.40346
G1 X89.202 Y82.833 E11.48336
G1 X90.048 Y82.809 E11.55858
G1 X90.747 Y82.832 E11.62068
G1 X91.041 Y82.842 E11.64683
G1 X91.834 Y82.921 E11.71771
G1 X92.613 Y83.044 E11.78778
G1 X93.651 Y83.278 E11.88227
G1 X94.697 Y83.599 E11.9795
G1 X95.475 Y83.897 E12.05355
G1 X96.247 Y84.249 E12.129
G1 X97.116 Y84.715 E12.21654
G1 X97.969 Y85.253 E12.30623
G1 X98.678 Y85.77 E12.3842
G1 X99.437 Y86.406 E12.47217
G1 X100.082 Y87.024 E12.55154
G1 X100.536 Y87.516 E12.61107
G1 X97.881 Y87.511 E12.84705
G1 X97.577 Y87.533 E12.87413
G1 X97.207 Y87.613 E12.90771
G1 X96.734 Y87.846 E12.95459
G1 X96.506 Y87.668 E12.98023
G1 X96.058 Y87.507 E13.02261
G1 X95.56 Y87.535 E13.06685
G1 X95.139 Y87.74 E13.10846
G1 X94.835 Y88.029 E13.14574
G1 X94.584 Y88.396 E13.18523
G1 X94.19 Y87.912 E13.24066
G1 X93.818 Y87.669 E13.28017
G1 X93.441 Y87.542 E13.31552
G1 X92.987 Y87.503 E13.35601
G1 X92.775 Y87.557 E13.37543
G1 X92.434 Y87.645 E13.40672
G1 X92.158 Y87.878 E13.43886
G1 X91.649 Y87.552 E13.49251
G1 X91.01 Y87.5 E13.54948
G1 X90.485 Y87.726 E13.60024
G1 X90.177 Y87.982 E13.63582
G1 X90 Y87.81 E13.65774
G1 X89.721 Y87.635 E13.68708
G1 X89.335 Y87.515 E13.72293
G1 X88.948 Y87.511 E13.75738
G1 X88.413 Y87.678 E13.80712
G1 X87.997 Y88.024 E13.85528
G92 E0
G1 E-0.4 F2400
G1 X74.827 Y90.002 F12000
G1 E0 F2400
G1 F1800
G1 X75.24 Y89.931 E0.03722
G1 X75.44 Y90.504 E0.09112
G1 X74.829 Y90.887 E0.15525
G1 X74.827 Y90.077 E0.22723
G92 E0
G1 E-0.4 F2400
G1 X84.863 Y94.114 F12000
G1 E0 F2400
G1 F1800
G1 X84.976 Y94.246 E0.01543
G1 X85.471 Y94.617 E0.07041
G1 X85.926 Y94.819 E0.11469
G1 X86.368 Y94.928 E0.15515
G1 X86.823 Y94.959 E0.19562
G1 X87.278 Y94.909 E0.2363
G1 X87.755 Y94.769 E0.28047
G1 X88.236 Y94.501 E0.32943
G1 X88.44 Y94.613 E0.35012
G1 X89.366 Y94.703 E0.43284
G1 X90.111 Y94.361 E0.50567
G1 X90.287 Y94.493 E0.52515
G1 X90.741 Y94.631 E0.56739
G1 X90.687 Y94.898 E0.59159
G1 X90.714 Y95.351 E0.63192
G1 X90.815 Y95.769 E0.67013
G1 X91.172 Y96.519 E0.74395
G1 X90.708 Y96.556 E0.78533
G1 X89.834 Y96.571 E0.86303
G1 X89.204 Y96.546 E0.91899
G1 X65.915 Y95.116 E2.99242
G1 X65.704 Y95.081 E3.01141
G1 X65.675 Y94.836 E3.0333
G1 X65.675 Y94.213 E3.08868
G1 X66.235 Y94.434 E3.14216
G1 X66.649 Y94.548 E3.18031
G1 X67.057 Y94.617 E3.2171
G1 X67.638 Y94.648 E3.26882
G1 X68.2 Y94.611 E3.31884
G1 X68.729 Y94.508 E3.36675
G1 X69.225 Y94.331 E3.41352
G1 X69.586 Y94.142 E3.44968
G1 X70.008 Y93.84 E3.49581
G1 X70.409 Y93.424 E3.54722
G1 X70.649 Y93.03 E3.58817
G1 X71.129 Y93.846 E3.67228
G1 X71.802 Y94.336 E3.74628
G1 X72.633 Y94.523 E3.82196
G1 X73.422 Y94.417 E3.8927
G1 X74.046 Y94.077 E3.95583
G1 X74.498 Y93.566 E4.01645
G1 X74.752 Y92.981 E4.07311
G1 X75.075 Y93.575 E4.13321
G1 X75.524 Y94.012 E4.18886
G1 X75.989 Y94.294 E4.23721
G1 X76.486 Y94.483 E4.2845
G1 X76.971 Y94.592 E4.32865
G1 X77.359 Y94.637 E4.36335
G1 X77.916 Y94.645 E4.4129
G1 X78.484 Y94.589 E4.46362
G1 X79.162 Y94.405 E4.52603
G1 X79.817 Y94.057 E4.59187
G1 X80.045 Y93.862 E4.61863
G1 X80.55 Y94.271 E4.67644
G1 X81.077 Y94.469 E4.72639
G1 X81.596 Y94.512 E4.77267
G1 X82.09 Y94.466 E4.81681
G1 X82.879 Y94.473 E4.88688
G1 X83.517 Y94.441 E4.9437
G1 X84.242 Y94.324 E5.0089
G1 X84.792 Y94.138 E5.0605
G92 E0
G1 E-0.4 F2400
G1 X70.138 Y89.534 F12000
G1 E0 F2400
G1 F1800
G1 X70.696 Y89.634 E0.05039
G1 X70.704 Y90.959 E0.1681
G1 X70.108 Y90.336 E0.2447
G1 X69.467 Y90.047 E0.30714
G1 X70.079 Y89.58 E0.37549
G92 E0
G1 E-0.4 F2400
G1 X74.206 Y88.97 F12000
G1 E0 F2400
G1 F1800
G1 X74.519 Y88.975 E0.02784
G1 X74.967 Y88.928 E0.06785
G1 X75.379 Y88.8 E0.1062
G1 X75.562 Y88.66 E0.12664
G1 X76.044 Y89.039 E0.18116
G1 X75.914 Y89.56 E0.22883
G1 X75.922 Y90.005 E0.26838
G1 X76.093 Y90.493 E0.31439
G1 X76.304 Y90.693 E0.34026
G1 X75.614 Y91.126 E0.41271
G1 X75.286 Y91.67 E0.46909
G1 X75.223 Y92.264 E0.52219
G1 X75.325 Y92.738 E0.56531
G1 X75.574 Y93.196 E0.61163
G1 X75.905 Y93.519 E0.65269
G1 X76.261 Y93.735 E0.68973
G1 X76.665 Y93.888 E0.72806
G1 X77.075 Y93.98 E0.76541
G1 X77.399 Y94.018 E0.79442
G1 X77.891 Y94.025 E0.8381
G1 X78.372 Y93.978 E0.88105
G1 X78.933 Y93.825 E0.93271
G1 X79.466 Y93.542 E0.98633
G1 X79.923 Y93.151 E1.03984
G1 X80.15 Y92.842 E1.07389
G1 X80.521 Y93.45 E1.1371
G1 X80.863 Y93.727 E1.17622
G1 X81.214 Y93.859 E1.20955
G1 X81.592 Y93.89 E1.24328
G1 X82.064 Y93.846 E1.28541
G1 X82.866 Y93.854 E1.35665
G1 X83.452 Y93.824 E1.4088
G1 X84.092 Y93.72 E1.46644
G1 X84.646 Y93.534 E1.51834
G1 X85.044 Y93.31 E1.55891
G1 X85.161 Y93.51 E1.57955
G1 X85.402 Y93.791 E1.61243
G1 X85.787 Y94.079 E1.65515
G1 X86.128 Y94.231 E1.68831
G1 X86.464 Y94.314 E1.7191
G1 X86.81 Y94.337 E1.74993
G1 X87.156 Y94.3 E1.78085
G1 X87.513 Y94.194 E1.81394
G1 X87.933 Y93.96 E1.85663
G1 X88.164 Y93.754 E1.88416
G1 X88.627 Y94.009 E1.93113
G1 X89.26 Y94.07 E1.98765
G1 X89.813 Y93.816 E2.04175
G1 X90.073 Y93.558 E2.0743
G1 X90.571 Y93.932 E2.1296
G1 X91.022 Y94.069 E2.17146
G1 X91.706 Y94.052 E2.23229
G1 X91.401 Y94.498 E2.28032
G1 X91.31 Y94.943 E2.32061
G1 X91.329 Y95.259 E2.34879
G1 X91.402 Y95.56 E2.37634
G1 X91.591 Y95.957 E2.41541
G1 X91.956 Y96.336 E2.46216
G1 X92.31 Y96.513 E2.49729
G1 X92.535 Y96.558 E2.51767
G1 X92.522 Y96.976 E2.55479
G1 X91.597 Y97.107 E2.63781
G1 X90.738 Y97.176 E2.71444
G1 X89.827 Y97.19 E2.79542
G1 X89.173 Y97.165 E2.85352
G1 X65.844 Y95.733 E4.93048
G1 X65.597 Y95.691 E4.95278
G1 X65.397 Y95.605 E4.97208
G1 X65.332 Y95.559 E4.97917
G1 X65.276 Y95.506 E4.98596
G1 X65.167 Y95.356 E5.00247
G1 X65.127 Y95.275 E5.01054
G1 X65.09 Y95.162 E5.02109
G1 X65.066 Y95.034 E5.03271
G1 X65.056 Y94.872 E5.04706
G1 X65.056 Y92.977 E5.21549
G1 X65.593 Y93.421 E5.27738
G1 X66.109 Y93.718 E5.33026
G1 X66.432 Y93.846 E5.36117
G1 X66.783 Y93.943 E5.39354
G1 X67.125 Y94 E5.42435
G1 X67.635 Y94.027 E5.46968
G1 X68.12 Y93.995 E5.51293
G1 X68.565 Y93.909 E5.55322
G1 X68.976 Y93.762 E5.59198
G1 X69.26 Y93.614 E5.62045
G1 X69.601 Y93.37 E5.65771
G1 X69.916 Y93.043 E5.69802
G1 X70.21 Y92.561 E5.74824
G1 X70.38 Y91.968 E5.803
G1 X70.173 Y91.299 E5.86527
G1 X69.744 Y90.852 E5.92035
G1 X69.216 Y90.613 E5.97179
G1 X68.756 Y90.56 E6.01289
G1 X68.341 Y90.63 E6.0503
G1 X68.045 Y90.764 E6.07926
G1 X67.802 Y90.946 E6.10618
G1 X67.683 Y91.086 E6.12252
G1 X67.502 Y91.086 E6.13858
G1 X67.428 Y91.071 E6.1453
G1 X67.312 Y91.02 E6.15649
G1 X67.252 Y90.973 E6.16336
G1 X67.19 Y90.891 E6.1725
G1 X67.139 Y90.78 E6.18332
G1 X67.085 Y90.589 E6.20099
G1 X67.048 Y90.329 E6.22433
G1 X67.032 Y89.927 E6.26006
G1 X67.052 Y89.565 E6.29229
G1 X67.091 Y89.317 E6.31462
G1 X67.142 Y89.142 E6.33077
G1 X67.19 Y89.041 E6.34072
G1 X67.274 Y88.927 E6.35325
G1 X67.359 Y88.879 E6.36198
G1 X67.427 Y88.857 E6.36829
G1 X67.534 Y88.845 E6.37788
G1 X68.206 Y89.225 E6.44652
G1 X68.603 Y89.351 E6.48352
G1 X69.047 Y89.374 E6.52303
G1 X69.515 Y89.231 E6.5665
G1 X69.879 Y88.953 E6.60718
G1 X70.026 Y88.761 E6.62868
G1 X70.348 Y88.943 E6.66155
G1 X70.791 Y89.021 E6.70153
