; generated by SuperSlicer 2.4 on 2023-04-03 at 21:11:48 UTC


;
;

;
;
; 

; external perimeters extrusion width = 0.52mm
; perimeters extrusion width = 0.46mm
; infill extrusion width = 0.60mm
; solid infill extrusion width = 0.48mm
; top infill extrusion width = 0.52mm
; first layer extrusion width = 0.70mm

; object:{"name":"[a]_extrusion_thermistor_mount","id":"[a]_extrusion_thermistor_mount.stl id:0 copy 0","object_center":[90.000000,90.000000,0.000000],"boundingbox_center":[90.000000,90.000000,9.000000],"boundingbox_size":[16.783005,18.000000,18.000000]}
; plater:{"center":[90.000000,90.000000,0.000000],"boundingbox_center":[90.000000,90.000000,9.000000],"boundingbox_size":[16.783005,18.000000,18.000000]}

;TYPE:Custom
; custom gcode: start_gcode
G28
Z_TILT_ADJUST
print_start EXTRUDER=260 BED=110 CHAMBER_TARGET=0
G21 ; set units to millimeters
G90 ; use absolute coordinates
M82 ; use absolute distances for extrusion
G92 E0
; custom gcode end: start_gcode
; custom gcode: start_filament_gcode
; Filament gcode
; custom gcode end: start_filament_gcode
;_TOOLCHANGE 0
;LAYER_CHANGE
;Z:0.375
;HEIGHT:0.375
G1 Z0.375 F12000
; custom gcode: layer_gcode
M117 Layer 0
; custom gcode end: layer_gcode

G1 E-0.4 F2400
G1 X77.831 Y81.861 F12000
G1 E0 F2400
;TYPE:Skirt
;WIDTH:0.65
G1 F1800
G1 X76.351 Y83.731 E0.19483
G1 X75.696 Y84.911 E0.30505
G1 X75.21 Y86.099 E0.40989
G1 X74.856 Y87.366 E0.51738
G1 X74.641 Y88.814 E0.63694
G1 X74.597 Y90.233 E0.75293
G1 X74.726 Y91.95 E0.89354
G1 X75.014 Y93.273 E1.0042
G1 X75.434 Y94.496 E1.10981
G1 X76.023 Y95.724 E1.22108
G1 X76.704 Y96.796 E1.3248
G1 X77.621 Y97.913 E1.44284
G1 X78.653 Y98.905 E1.55986
G1 X79.817 Y99.782 E1.6789
G1 X81.626 Y100.805 E1.84865
G1 X91.487 Y105.334 E2.73504
G1 X94.585 Y106.011 E2.99413
G1 X97.979 Y106.011 E3.27138
G1 X99.861 Y105.769 E3.42635
G1 X102.078 Y104.777 E3.62476
G1 X103.856 Y103.123 E3.82316
G1 X105.006 Y100.984 E4.02157
G1 X105.403 Y98.587 E4.21998
G1 X105.403 Y81.413 E5.62299
G1 X105.16 Y79.531 E5.77796
G1 X104.169 Y77.314 E5.97637
G1 X102.515 Y75.535 E6.17477
G1 X100.375 Y74.386 E6.37318
G1 X97.979 Y73.989 E6.57159
G1 X94.585 Y73.989 E6.84884
G1 X91.487 Y74.666 E7.10793
G1 X81.626 Y79.195 E7.99432
G1 X79.9 Y80.162 E8.15596
G1 X78.727 Y81.035 E8.2754
G1 X77.886 Y81.81 E8.36883
G1 X78.272 Y82.228 F12000
G1 F1800
G1 X78.231 Y82.266 E8.37339
G1 X76.838 Y84.026 E8.55677
G1 X76.215 Y85.147 E8.66153
G1 X75.752 Y86.274 E8.76104
G1 X75.415 Y87.475 E8.86299
G1 X75.21 Y88.847 E8.97628
G1 X75.167 Y90.233 E9.08957
G1 X75.288 Y91.858 E9.22265
G1 X75.566 Y93.131 E9.32908
G1 X75.965 Y94.291 E9.42928
G1 X76.516 Y95.439 E9.53339
G1 X77.172 Y96.471 E9.63325
G1 X78.048 Y97.537 E9.74593
G1 X79.032 Y98.48 E9.85724
G1 X80.145 Y99.317 E9.971
G1 X81.864 Y100.287 E10.13228
G1 X91.724 Y104.816 E11.01867
G1 X94.585 Y105.442 E11.25789
G1 X97.979 Y105.442 E11.53514
G1 X99.358 Y105.302 E11.64837
G1 X101.53 Y104.45 E11.83896
G1 X103.291 Y102.919 E12.02955
G1 X104.436 Y100.887 E12.22014
G1 X104.833 Y98.587 E12.41074
G1 X104.833 Y81.413 E13.81375
G1 X104.693 Y80.033 E13.92699
G1 X103.842 Y77.861 E14.11758
G1 X102.311 Y76.101 E14.30817
G1 X100.278 Y74.955 E14.49876
G1 X97.979 Y74.558 E14.68935
G1 X94.585 Y74.558 E14.9666
G1 X91.724 Y75.184 E15.20581
G1 X81.864 Y79.712 E16.09221
G1 X80.201 Y80.645 E16.24792
G1 X79.082 Y81.48 E16.36202
G1 X78.327 Y82.177 E16.44592
G1 X78.747 Y82.571 F12000
G1 F1800
G1 X78.141 Y83.216 E16.51818
G1 X77.325 Y84.321 E16.63041
G1 X76.733 Y85.383 E16.7297
G1 X76.294 Y86.449 E16.82389
G1 X75.974 Y87.585 E16.92029
G1 X75.778 Y88.88 E17.02732
G1 X75.736 Y90.233 E17.13792
G1 X75.85 Y91.766 E17.26346
G1 X76.117 Y92.988 E17.36565
G1 X76.496 Y94.085 E17.46045
G1 X77.01 Y95.155 E17.5574
G1 X77.64 Y96.147 E17.6534
G1 X78.476 Y97.16 E17.76073
G1 X79.41 Y98.054 E17.86631
G1 X80.472 Y98.851 E17.9748
G1 X82.101 Y99.77 E18.1276
G1 X91.962 Y104.299 E19.014
G1 X94.585 Y104.872 E19.23333
G1 X97.979 Y104.872 E19.51058
G1 X100.987 Y104.106 E19.76414
G1 X102.727 Y102.706 E19.94658
G1 X103.867 Y100.785 E20.12902
G1 X104.264 Y98.587 E20.31146
G1 X104.264 Y81.413 E21.71447
G1 X103.497 Y78.405 E21.96802
G1 X102.097 Y76.665 E22.15046
G1 X100.177 Y75.525 E22.3329
G1 X97.979 Y75.128 E22.51534
G1 X94.585 Y75.128 E22.79259
G1 X91.962 Y75.701 E23.01193
G1 X81.026 Y80.802 E23.99768
G1 X79.914 Y81.545 E24.10695
G1 X78.935 Y82.371 E24.21156
G1 X78.798 Y82.517 E24.22789
M104 S260 ; set temperature
G92 E0
G1 E-0.4 F2400
; printing object [a]_extrusion_thermistor_mount.stl id:0 copy 0
G1 X87.354 Y86.676 F12000
G1 E0 F2400
;TYPE:Internal perimeter
;WIDTH:0.7
G1 F1800
G1 X88.944 Y86.196 E0.14757
G1 X89.63 Y85.965 E0.21195
G1 X90.244 Y85.736 E0.27012
G1 X91.339 Y85.258 E0.37629
G1 X91.872 Y84.987 E0.42948
G1 X92.782 Y84.469 E0.52245
G1 X95.054 Y83.002 E0.76281
G1 X96.39 Y83.002 E0.88156
G1 X96.39 Y96.998 E2.12534
G1 X95.052 Y96.998 E2.2442
G1 X92.641 Y95.446 E2.49904
G1 X91.856 Y95.004 E2.57908
G1 X90.859 Y94.521 E2.67753
G1 X90.218 Y94.254 E2.73926
G1 X88.958 Y93.809 E2.85797
G1 X87.378 Y93.324 E3.00482
G1 X88.098 Y92.832 E3.08231
G1 X88.4 Y92.572 E3.11769
G1 X88.729 Y92.198 E3.16196
G1 X88.996 Y91.793 E3.20505
G1 X89.168 Y91.448 E3.23934
G1 X89.332 Y90.997 E3.28198
G1 X89.435 Y90.507 E3.32643
G1 X89.47 Y90.011 E3.37063
G1 X89.444 Y89.614 E3.40605
G1 X89.339 Y89.041 E3.45773
G1 X89.168 Y88.569 E3.50241
G1 X88.996 Y88.224 E3.53669
G1 X88.729 Y87.819 E3.57979
G1 X88.4 Y87.445 E3.62406
G1 X88.098 Y87.184 E3.65944
G1 X87.416 Y86.718 E3.73288
G92 E0
G1 E-0.4 F2400
G1 X85.655 Y87.014 F12000
G1 E0 F2400
G1 F1800
G1 X85.587 Y86.627 E0.03491
G1 X85.841 Y86.519 E0.05941
G1 X86.645 Y86.243 E0.13501
G1 X88.755 Y85.605 E0.33087
G1 X89.423 Y85.381 E0.3935
G1 X90.011 Y85.161 E0.44927
G1 X91.074 Y84.697 E0.55235
G1 X91.579 Y84.442 E0.6026
G1 X92.46 Y83.939 E0.69272
G1 X94.871 Y82.382 E0.94779
G1 X97.009 Y82.382 E1.13782
G1 X97.009 Y97.618 E2.4917
G1 X94.87 Y97.618 E2.6818
G1 X92.321 Y95.977 E2.95121
G1 X91.569 Y95.553 E3.02792
G1 X90.605 Y95.086 E3.12309
G1 X89.996 Y94.833 E3.18175
G1 X88.764 Y94.397 E3.29781
G1 X86.207 Y93.613 E3.5355
G1 X85.637 Y93.396 E3.58965
G1 X85.699 Y93 E3.62528
G1 X86.241 Y92.969 E3.67352
G1 X86.637 Y92.89 E3.70942
G1 X86.934 Y92.793 E3.73726
G1 X87.312 Y92.619 E3.77422
G1 X87.72 Y92.341 E3.81807
G1 X87.963 Y92.131 E3.84657
G1 X88.235 Y91.821 E3.88323
G1 X88.458 Y91.484 E3.91917
G1 X88.598 Y91.203 E3.94701
G1 X88.735 Y90.826 E3.98267
G1 X88.82 Y90.421 E4.01944
G1 X88.849 Y90.01 E4.05605
G1 X88.828 Y89.69 E4.08458
G1 X88.739 Y89.204 E4.12847
G1 X88.598 Y88.814 E4.16537
G1 X88.458 Y88.533 E4.19321
G1 X88.235 Y88.196 E4.22915
G1 X87.963 Y87.886 E4.2658
G1 X87.72 Y87.676 E4.2943
G1 X87.312 Y87.398 E4.33816
G1 X86.934 Y87.224 E4.37512
G1 X86.637 Y87.127 E4.40296
G1 X86.24 Y87.048 E4.43886
G1 X85.729 Y87.019 E4.48434
G92 E0
G1 E-0.4 F2400
G1 X82.392 Y89.431 F12000
G1 E0 F2400
;TYPE:External perimeter
G1 F1800
G1 X82.401 Y89.29 E0.01252
G1 X82.481 Y88.879 E0.0498
G1 X82.601 Y88.507 E0.0845
G1 X82.764 Y88.149 E0.1195
G1 X82.989 Y87.777 E0.15806
G1 X83.311 Y87.375 E0.20388
G1 X83.586 Y87.102 E0.23832
G1 X84.033 Y86.746 E0.28909
G1 X84.527 Y86.438 E0.34084
G1 X84.874 Y86.258 E0.37553
G1 X85.618 Y85.941 E0.44743
G1 X86.455 Y85.653 E0.52605
G1 X88.567 Y85.015 E0.72209
G1 X89.216 Y84.797 E0.78296
G1 X89.779 Y84.587 E0.83634
G1 X90.81 Y84.137 E0.93633
G1 X91.285 Y83.896 E0.98364
G1 X92.138 Y83.41 E1.0709
G1 X94.688 Y81.762 E1.34067
G1 X97.629 Y81.763 E1.60199
G1 X97.629 Y98.237 E3.06597
G1 X94.688 Y98.238 E3.32731
G1 X92.001 Y96.508 E3.61129
G1 X91.281 Y96.102 E3.68467
G1 X90.351 Y95.651 E3.77657
G1 X89.773 Y95.411 E3.83216
G1 X88.57 Y94.986 E3.94556
G1 X86.006 Y94.199 E4.18391
G1 X85.24 Y93.908 E4.25672
G1 X84.881 Y93.745 E4.29172
G1 X84.273 Y93.412 E4.3533
G1 X83.802 Y93.081 E4.40448
G1 X83.444 Y92.763 E4.44708
G1 X83.081 Y92.35 E4.49587
G1 X82.905 Y92.096 E4.52338
G1 X82.678 Y91.677 E4.56568
G1 X82.536 Y91.309 E4.60077
G1 X82.432 Y90.909 E4.63749
G1 X82.393 Y90.586 E4.66642
G1 X83.574 Y90.586 E4.77134
G1 X83.648 Y90.824 E4.79348
G1 X83.779 Y91.119 E4.82221
G1 X83.952 Y91.397 E4.85129
G1 X84.162 Y91.647 E4.88028
G1 X84.342 Y91.811 E4.90194
G1 X84.672 Y92.048 E4.93809
G1 X84.966 Y92.192 E4.96714
G1 X85.192 Y92.273 E4.98853
G1 X85.509 Y92.345 E5.01736
G1 X85.835 Y92.372 E5.04645
G1 X86.162 Y92.353 E5.07553
G1 X86.479 Y92.29 E5.1043
G1 X86.708 Y92.215 E5.12569
G1 X87.006 Y92.078 E5.15484
G1 X87.342 Y91.849 E5.19093
G1 X87.526 Y91.69 E5.21255
G1 X87.742 Y91.444 E5.2416
G1 X87.92 Y91.174 E5.27038
G1 X88.027 Y90.958 E5.29177
G1 X88.137 Y90.655 E5.32044
G1 X88.205 Y90.335 E5.34953
G1 X88.228 Y90.009 E5.37856
G1 X88.212 Y89.766 E5.4002
G1 X88.139 Y89.366 E5.4363
G1 X88.027 Y89.058 E5.46542
G1 X87.92 Y88.843 E5.48681
G1 X87.742 Y88.572 E5.51559
G1 X87.526 Y88.327 E5.54464
G1 X87.342 Y88.168 E5.56626
G1 X87.006 Y87.939 E5.60235
G1 X86.708 Y87.802 E5.6315
G1 X86.479 Y87.727 E5.65289
G1 X86.162 Y87.664 E5.68166
G1 X85.835 Y87.645 E5.71072
G1 X85.593 Y87.665 E5.73234
G1 X85.194 Y87.742 E5.76841
G1 X84.887 Y87.858 E5.79758
G1 X84.673 Y87.969 E5.81897
G1 X84.405 Y88.15 E5.84772
G1 X84.163 Y88.369 E5.87679
G1 X84.006 Y88.555 E5.89841
G1 X83.781 Y88.893 E5.93446
G1 X83.648 Y89.193 E5.96366
G1 X83.574 Y89.431 E5.98579
G1 X82.467 Y89.431 E6.08411
;WIPE_START
G1 X82.659 Y89.008 F12000
;WIPE_END
G1 X82.996 Y89.147
;TYPE:Gap fill
;WIDTH:0.581363
G1 F1800
G1 X83.028 Y89.067 E6.09029
G1 X83.06 Y88.993 E6.09607
;WIDTH:0.618205
G1 X83.102 Y88.906 E6.10353
;WIDTH:0.712605
G1 X83.144 Y88.819 E6.1123
;WIDTH:0.749471
G1 X83.178 Y88.731 E6.12135
G1 X83.203 Y88.675 E6.12715
G1 X83.227 Y88.62 E6.13295
G1 X83.253 Y88.57 E6.13837
G1 X83.288 Y88.507 E6.14531
;WIDTH:0.802762
G1 X83.323 Y88.444 E6.15279
G1 X83.404 Y88.316 E6.16841
G1 X83.485 Y88.189 E6.18403
G1 X83.515 Y88.145 E6.1896
G1 X83.599 Y88.043 E6.20327
G1 X83.682 Y87.941 E6.21694
G1 X83.715 Y87.903 E6.22211
G1 X83.757 Y87.859 E6.22845
;WIDTH:0.837875
G1 X83.799 Y87.814 E6.2351
G1 X83.888 Y87.73 E6.2484
G1 X83.977 Y87.646 E6.2617
G1 X84.029 Y87.601 E6.26919
;WIDTH:0.874607
G1 X84.307 Y87.397 E6.30842
G1 X84.39 Y87.341 E6.31978
;WIDTH:0.913836
G1 X84.434 Y87.313 E6.32608
G1 X84.507 Y87.271 E6.33619
G1 X84.581 Y87.229 E6.3463
G1 X84.624 Y87.206 E6.35208
;WIDTH:0.949306
G1 X84.89 Y87.074 E6.38916
G1 X84.964 Y87.041 E6.39929
;WIDTH:0.905319
G1 X85.027 Y87.013 E6.40738
G1 X85.082 Y86.989 E6.41451
;WIDTH:0.948936
G1 X85.138 Y86.965 E6.42202
;WIDTH:0.993541
G1 X85.222 Y86.932 E6.43398
G1 X85.273 Y86.908 E6.44131
G1 X85.342 Y86.881 E6.45104
G92 E0
G1 E-0.4 F2400
G1 X82.996 Y90.87 F12000
G1 E0 F2400
;WIDTH:0.562153
G1 F1800
G1 X83.031 Y90.949 E0.00591
G1 X83.037 Y90.963 E0.00699
G1 X83.077 Y91.05 E0.01361
;WIDTH:0.614034
G1 X83.116 Y91.137 E0.02094
;WIDTH:0.672465
G1 X83.146 Y91.195 E0.02648
;WIDTH:0.730896
G1 X83.186 Y91.291 E0.03615
;WIDTH:0.771416
G1 X83.225 Y91.387 E0.04642
G1 X83.245 Y91.429 E0.051
G1 X83.337 Y91.587 E0.06919
G1 X83.43 Y91.746 E0.08739
G1 X83.456 Y91.786 E0.09215
G1 X83.521 Y91.871 E0.10272
;WIDTH:0.820684
G1 X83.586 Y91.956 E0.11404
G1 X83.635 Y92.013 E0.12211
G1 X83.685 Y92.071 E0.13017
G1 X83.717 Y92.105 E0.13516
G1 X83.812 Y92.203 E0.14968
G1 X83.908 Y92.301 E0.1642
G1 X83.946 Y92.333 E0.16955
G1 X84.083 Y92.443 E0.18818
;WIDTH:0.861255
G1 X84.221 Y92.553 E0.20784
G1 X84.3 Y92.609 E0.21869
G1 X84.354 Y92.644 E0.22594
G1 X84.499 Y92.73 E0.24487
;WIDTH:0.920452
G1 X84.645 Y92.816 E0.26522
G1 X84.713 Y92.85 E0.27441
G1 X84.838 Y92.906 E0.29096
;WIDTH:0.963466
G1 X84.964 Y92.963 E0.30836
;WIDTH:0.912271
G1 X85.017 Y92.985 E0.31526
;WIDTH:0.848912
G1 X85.087 Y93.014 E0.3236
;WIDTH:0.887898
G1 X85.157 Y93.043 E0.33237
G1 X85.274 Y93.087 E0.34683
;WIDTH:0.930536
G1 X85.39 Y93.132 E0.36205
G92 E0
G1 E-0.4 F2400
G1 X95.013 Y83.249 F12000
G1 E0 F2400
;TYPE:Solid infill
;WIDTH:0.687488
G1 F1800
G1 X95.938 Y84.173 E0.1141
G1 X95.938 Y85.049 E0.19056
G1 X94.674 Y83.785 E0.34658
G1 X94.141 Y84.129 E0.40188
G1 X95.938 Y85.926 E0.6236
G1 X95.938 Y86.802 E0.70006
G1 X93.609 Y84.473 E0.98747
G1 X93.077 Y84.817 E1.04278
G1 X95.938 Y87.678 E1.39589
G1 X95.938 Y88.554 E1.47235
G1 X92.514 Y85.131 E1.89487
G1 X91.948 Y85.44 E1.95121
G1 X95.938 Y89.43 E2.44364
G1 X95.938 Y90.306 E2.5201
G1 X91.367 Y85.736 E3.08421
G1 X90.747 Y85.992 E3.14275
G1 X95.938 Y91.182 E3.78336
G1 X95.938 Y92.059 E3.85982
G1 X90.128 Y86.248 E4.57693
G1 X89.784 Y86.39 E4.60934
G1 X89.486 Y86.483 E4.63658
G1 X95.938 Y92.935 E5.43282
G1 X95.938 Y93.811 E5.50928
G1 X88.819 Y86.692 E6.38791
G1 X88.379 Y86.829 E6.42812
G1 X88.719 Y87.123 E6.46727
G1 X89.089 Y87.543 E6.51621
G1 X89.396 Y88.01 E6.56494
G1 X89.495 Y88.244 E6.58713
G1 X95.938 Y94.687 E7.38233
G1 X95.938 Y95.563 E7.45879
G1 X89.885 Y89.51 E8.20588
G1 X89.893 Y89.558 E8.21013
G1 X89.923 Y90.012 E8.24986
G1 X89.896 Y90.398 E8.28362
G1 X95.938 Y96.439 E9.02925
G1 X95.938 Y96.546 E9.03859
G1 X95.185 Y96.546 E9.10425
G1 X95.138 Y96.516 E9.10914
G1 X89.762 Y91.14 E9.77267
G1 X89.502 Y91.756 E9.83104
G1 X92.715 Y94.969 E10.22753
G1 X92.066 Y94.603 E10.2925
G1 X91.038 Y94.105 E10.39225
G1 X90.937 Y94.067 E10.40162
G1 X89.19 Y92.32 E10.61723
G1 X89.089 Y92.473 E10.63324
G1 X88.798 Y92.804 E10.6717
G1 X89.991 Y93.997 E10.81896
M106 S127.5
;LAYER_CHANGE
;Z:0.575
;HEIGHT:0.2
; stop printing object [a]_extrusion_thermistor_mount.stl id:0 copy 0
G1 Z0.575 F12000
; custom gcode: layer_gcode
M117 Layer 1
; custom gcode end: layer_gcode

M140 S110 ; set bed temperature
G92 E0
G1 E-0.4 F2400
; printing object [a]_extrusion_thermistor_mount.stl id:0 copy 0
G1 X84.039 Y92.221 F12000
G1 E0 F2400
;TYPE:Internal perimeter
;WIDTH:0.46
G1 F7500
G1 X84.504 Y92.52 E0.01764
G1 X84.903 Y92.698 E0.03161
G1 X85.396 Y92.828 E0.04787
G1 X85.838 Y92.866 E0.06202
G1 X86.28 Y92.836 E0.07613
G1 X86.775 Y92.717 E0.0924
G1 X87.179 Y92.545 E0.1064
G1 X87.546 Y92.319 E0.12015
G1 X87.818 Y92.089 E0.13151
G1 X88.151 Y91.725 E0.14725
G1 X88.394 Y91.339 E0.1618
G1 X88.59 Y90.869 E0.17806
G1 X88.693 Y90.424 E0.19261
G1 X88.717 Y89.931 E0.20836
G1 X88.689 Y89.576 E0.21973
G1 X88.59 Y89.148 E0.23374
G1 X88.394 Y88.678 E0.25001
G1 X88.151 Y88.292 E0.26456
G1 X87.817 Y87.928 E0.2803
G1 X87.546 Y87.698 E0.29166
G1 X87.171 Y87.467 E0.30569
G1 X86.699 Y87.275 E0.32196
G1 X86.254 Y87.177 E0.33651
G1 X85.761 Y87.157 E0.35223
G1 X85.407 Y87.188 E0.36358
G1 X84.979 Y87.291 E0.37764
G1 X84.51 Y87.493 E0.3939
G1 X84.127 Y87.739 E0.40845
G1 X83.839 Y88.008 E0.42099
G1 X83.611 Y87.781 E0.43125
G1 X83.785 Y87.592 E0.43943
G1 X84.12 Y87.295 E0.45373
G1 X84.304 Y87.157 E0.46106
G1 X84.774 Y86.864 E0.47872
G1 X85.082 Y86.704 E0.48979
G1 X85.796 Y86.399 E0.51458
G1 X86.607 Y86.121 E0.54194
G1 X88.716 Y85.484 E0.61222
G1 X89.38 Y85.26 E0.63457
G1 X89.965 Y85.042 E0.65451
G1 X91.026 Y84.579 E0.69144
G1 X91.992 Y84.067 E0.72632
G1 X92.559 Y83.728 E0.74738
G1 X94.834 Y82.254 E0.83387
G1 X97.137 Y82.254 E0.90738
G1 X97.137 Y97.746 E1.40165
G1 X94.832 Y97.746 E1.47521
G1 X92.256 Y96.087 E1.57295
G1 X91.508 Y95.666 E1.60035
G1 X90.554 Y95.203 E1.63418
G1 X89.947 Y94.951 E1.65516
G1 X88.726 Y94.519 E1.69646
G1 X86.165 Y93.734 E1.78194
G1 X85.427 Y93.453 E1.80714
G1 X85.104 Y93.307 E1.81844
G1 X84.534 Y92.994 E1.83919
G1 X84.108 Y92.694 E1.85581
G1 X83.852 Y92.467 E1.86673
G1 X83.993 Y92.281 E1.87419
G92 E0
G1 E-0.4 F2400
G1 X82.52 Y90.948 F12000
G1 E0 F2400
G1 F7500
G1 X83.628 Y90.948 E0.03534
G1 X83.683 Y91.1 E0.04051
G1 X83.885 Y91.434 E0.05294
G1 X84.169 Y91.757 E0.06668
G1 X84.394 Y91.954 E0.07622
G1 X84.702 Y92.152 E0.08792
G1 X85.042 Y92.304 E0.09979
G1 X85.468 Y92.415 E0.11382
G1 X85.842 Y92.447 E0.12581
G1 X86.216 Y92.422 E0.13778
G1 X86.644 Y92.319 E0.15181
G1 X86.987 Y92.174 E0.16371
G1 X87.3 Y91.98 E0.17545
G1 X87.528 Y91.788 E0.18497
G1 X87.818 Y91.471 E0.19866
G1 X88.022 Y91.146 E0.21091
G1 X88.192 Y90.74 E0.22494
G1 X88.278 Y90.367 E0.23718
G1 X88.299 Y89.937 E0.25089
G1 X88.276 Y89.64 E0.26041
G1 X88.192 Y89.276 E0.27232
G1 X88.022 Y88.871 E0.28635
G1 X87.818 Y88.546 E0.29859
G1 X87.528 Y88.229 E0.31229
G1 X87.3 Y88.036 E0.32181
G1 X86.982 Y87.84 E0.33373
