; generated by SuperSlicer 2.4 on 2023-04-03 at 18:00:13 UTC


;
;

;
;
; 

; external perimeters extrusion width = 0.52mm
; perimeters extrusion width = 0.46mm
; infill extrusion width = 0.60mm
; solid infill extrusion width = 0.48mm
; top infill extrusion width = 0.52mm
; first layer extrusion width = 0.70mm

; object:{"name":"EM_Cube-Unlabeled","id":"EM_Cube-Unlabeled.stl id:0 copy 0","object_center":[90.000000,90.000000,0.000000],"boundingbox_center":[90.000000,90.000000,1.500000],"boundingbox_size":[30.000000,30.000000,3.000000]}
; plater:{"center":[90.000000,90.000000,0.000000],"boundingbox_center":[90.000000,90.000000,1.500000],"boundingbox_size":[30.000000,30.000000,3.000000]}

;TYPE:Custom
; custom gcode: start_gcode
print_start EXTRUDER=260 BED=110 CHAMBER_TARGET=0
G21 ; set units to millimeters
G90 ; use absolute coordinates
M82 ; use absolute distances for extrusion
G92 E0
; custom gcode end: start_gcode
; custom gcode: start_filament_gcode
; Filament gcode
; custom gcode end: start_filament_gcode
;_TOOLCHANGE 0
;LAYER_CHANGE
;Z:0.375
;HEIGHT:0.375
G1 Z0.375 F12000
; custom gcode: layer_gcode
M117 Layer 0
; custom gcode end: layer_gcode

G1 E-0.4 F2400
G1 X69.123 Y70.464 F12000
G1 E0 F2400
;TYPE:Skirt
;WIDTH:0.65
G1 F1800
G1 X67.973 Y72.604 E0.18762
G1 X67.576 Y75 E0.37525
G1 X67.576 Y105 E2.69274
G1 X67.819 Y106.882 E2.83929
G1 X68.81 Y109.099 E3.02691
G1 X70.464 Y110.877 E3.21453
G1 X72.604 Y112.027 E3.40216
G1 X75 Y112.424 E3.58978
G1 X105 Y112.424 E5.90727
G1 X106.882 Y112.181 E6.05382
G1 X109.099 Y111.19 E6.24144
G1 X110.877 Y109.536 E6.42907
G1 X112.027 Y107.396 E6.61669
G1 X112.424 Y105 E6.80431
G1 X112.424 Y75 E9.1218
G1 X112.181 Y73.118 E9.26835
G1 X111.19 Y70.901 E9.45597
G1 X109.536 Y69.123 E9.6436
G1 X107.396 Y67.973 E9.83122
G1 X105 Y67.576 E10.01885
G1 X75 Y67.576 E12.33634
G1 X73.118 Y67.819 E12.48288
G1 X70.901 Y68.81 E12.67051
G1 X69.178 Y70.413 E12.85234
G1 X69.674 Y70.693 F12000
G1 F1800
G1 X68.543 Y72.701 E13.03038
G1 X68.146 Y75 E13.21062
G1 X68.146 Y105 E15.52811
G1 X68.286 Y106.379 E15.63519
G1 X69.137 Y108.551 E15.81542
G1 X70.668 Y110.312 E15.99566
G1 X72.701 Y111.457 E16.17589
G1 X75 Y111.854 E16.35612
G1 X105 Y111.854 E18.67361
G1 X106.379 Y111.714 E18.7807
G1 X108.551 Y110.863 E18.96093
G1 X110.312 Y109.332 E19.14116
G1 X111.457 Y107.299 E19.32139
G1 X111.854 Y105 E19.50163
G1 X111.854 Y75 E21.81912
G1 X111.714 Y73.621 E21.9262
G1 X110.863 Y71.449 E22.10643
G1 X109.332 Y69.688 E22.28666
G1 X107.299 Y68.543 E22.4669
G1 X105 Y68.146 E22.64713
G1 X75 Y68.146 E24.96462
G1 X73.621 Y68.286 E25.0717
G1 X71.449 Y69.137 E25.25194
G1 X69.723 Y70.638 E25.42856
G1 X70.222 Y70.934 F12000
G1 F1800
G1 X69.112 Y72.802 E25.59644
G1 X68.715 Y75 E25.76897
G1 X68.715 Y105 E28.08646
G1 X69.482 Y108.008 E28.32623
G1 X70.882 Y109.748 E28.49876
G1 X72.802 Y110.888 E28.67128
G1 X75 Y111.285 E28.84381
G1 X105 Y111.285 E31.1613
G1 X108.008 Y110.518 E31.40107
G1 X109.748 Y109.118 E31.57359
G1 X110.888 Y107.198 E31.74612
G1 X111.285 Y105 E31.91864
G1 X111.285 Y75 E34.23614
G1 X110.518 Y71.992 E34.47591
G1 X109.118 Y70.252 E34.64843
G1 X107.198 Y69.112 E34.82096
G1 X105 Y68.715 E34.99348
G1 X75 Y68.715 E37.31097
G1 X71.992 Y69.482 E37.55074
G1 X70.264 Y70.873 E37.72212
M104 S260 ; set temperature
G92 E0
G1 E-0.4 F2400
; printing object EM_Cube-Unlabeled.stl id:0 copy 0
G1 X76.589 Y76.589 F12000
G1 E0 F2400
;TYPE:Internal perimeter
;WIDTH:0.7
G1 F1800
G1 X103.411 Y76.589 E2.25389
G1 X103.411 Y103.411 E4.50778
G1 X76.589 Y103.411 E6.76167
G1 X76.589 Y76.664 E9.00925
G1 X75.97 Y75.97 F12000
G1 F1800
G1 X104.03 Y75.97 E11.36726
G1 X104.03 Y104.03 E13.72527
G1 X75.97 Y104.03 E16.08328
G1 X75.97 Y76.045 E18.43498
G1 X75.35 Y75.35 F12000
;TYPE:External perimeter
G1 F1800
G1 X104.65 Y75.35 E20.89711
G1 X104.65 Y104.65 E23.35924
G1 X75.35 Y104.65 E25.82137
G1 X75.35 Y75.425 E28.27719
;WIPE_START
G1 X75.783 Y75.6 F12000
;WIPE_END
G92 E0
G1 E-0.4 F2400
G1 X101.973 Y76.775 F12000
G1 E0 F2400
;TYPE:Solid infill
;WIDTH:0.694176
G1 F1800
G1 X102.959 Y77.761 E0.11619
G1 X102.959 Y78.637 E0.1892
G1 X101.363 Y77.041 E0.37725
G1 X100.487 Y77.041 E0.45026
G1 X102.959 Y79.513 E0.74157
G1 X102.959 Y80.389 E0.81458
G1 X99.611 Y77.041 E1.20914
G1 X98.735 Y77.041 E1.28215
G1 X102.959 Y81.265 E1.77996
G1 X102.959 Y82.142 E1.85297
G1 X97.858 Y77.041 E2.45403
G1 X96.982 Y77.041 E2.52704
G1 X102.959 Y83.018 E3.23136
G1 X102.959 Y83.894 E3.30437
G1 X96.106 Y77.041 E4.11193
G1 X95.23 Y77.041 E4.18495
G1 X102.959 Y84.77 E5.09577
G1 X102.959 Y85.646 E5.16878
G1 X94.354 Y77.041 E6.18285
G1 X93.478 Y77.041 E6.25586
G1 X102.959 Y86.522 E7.37319
G1 X102.959 Y87.398 E7.4462
G1 X92.602 Y77.041 E8.66678
G1 X91.726 Y77.041 E8.73979
G1 X102.959 Y88.274 E10.06363
G1 X102.959 Y89.151 E10.13664
G1 X90.849 Y77.041 E11.56372
G1 X89.973 Y77.041 E11.63673
G1 X102.959 Y90.027 E13.16707
G1 X102.959 Y90.903 E13.24008
G1 X89.097 Y77.041 E14.87368
G1 X88.221 Y77.041 E14.94669
G1 X102.959 Y91.779 E16.68353
G1 X102.959 Y92.655 E16.75654
G1 X87.345 Y77.041 E18.59664
G1 X86.469 Y77.041 E18.66965
G1 X102.959 Y93.531 E20.613
G1 X102.959 Y94.407 E20.68601
G1 X85.593 Y77.041 E22.73262
G1 X84.716 Y77.041 E22.80563
G1 X102.959 Y95.284 E24.95549
G1 X102.959 Y96.16 E25.0285
G1 X83.84 Y77.041 E27.28161
G1 X82.964 Y77.041 E27.35462
G1 X102.959 Y97.036 E29.71098
G1 X102.959 Y97.912 E29.78399
G1 X82.088 Y77.041 E32.24361
G1 X81.212 Y77.041 E32.31662
G1 X102.959 Y98.788 E34.87949
G1 X102.959 Y99.664 E34.9525
G1 X80.336 Y77.041 E37.61862
G1 X79.46 Y77.041 E37.69163
G1 X102.959 Y100.54 E40.46101
G1 X102.959 Y101.417 E40.53402
G1 X78.583 Y77.041 E43.40665
G1 X77.707 Y77.041 E43.47966
G1 X102.959 Y102.293 E46.45554
G1 X102.959 Y102.959 E46.51104
G1 X102.749 Y102.959 E46.52855
G1 X77.041 Y77.251 E49.55815
G1 X77.041 Y78.128 E49.63116
G1 X101.872 Y102.959 E52.55752
G1 X100.996 Y102.959 E52.63053
G1 X77.041 Y79.004 E55.45363
G1 X77.041 Y79.88 E55.52664
G1 X100.12 Y102.959 E58.24648
G1 X99.244 Y102.959 E58.3195
G1 X77.041 Y80.756 E60.93609
G1 X77.041 Y81.632 E61.0091
G1 X98.368 Y102.959 E63.52244
G1 X97.492 Y102.959 E63.59545
G1 X77.041 Y82.508 E66.00554
G1 X77.041 Y83.384 E66.07855
G1 X96.616 Y102.959 E68.38538
G1 X95.739 Y102.959 E68.4584
G1 X77.041 Y84.261 E70.66198
G1 X77.041 Y85.137 E70.73499
G1 X94.863 Y102.959 E72.83532
G1 X93.987 Y102.959 E72.90833
G1 X77.041 Y86.013 E74.9054
G1 X77.041 Y86.889 E74.97841
G1 X93.111 Y102.959 E76.87224
G1 X92.235 Y102.959 E76.94525
G1 X77.041 Y87.765 E78.73582
G1 X77.041 Y88.641 E78.80883
G1 X91.359 Y102.959 E80.49614
G1 X90.483 Y102.959 E80.56916
G1 X77.041 Y89.517 E82.15322
G1 X77.041 Y90.394 E82.22623
G1 X89.606 Y102.959 E83.70704
G1 X88.73 Y102.959 E83.78005
G1 X77.041 Y91.27 E85.15761
G1 X77.041 Y92.146 E85.23062
G1 X87.854 Y102.959 E86.50493
G1 X86.978 Y102.959 E86.57794
G1 X77.041 Y93.022 E87.74899
G1 X77.041 Y93.898 E87.822
G1 X86.102 Y102.959 E88.8898
G1 X85.226 Y102.959 E88.96281
G1 X77.041 Y94.774 E89.92735
G1 X77.041 Y95.65 E90.00037
G1 X84.35 Y102.959 E90.86166
G1 X83.474 Y102.959 E90.93467
G1 X77.041 Y96.526 E91.69271
G1 X77.041 Y97.403 E91.76572
G1 X82.597 Y102.959 E92.42051
G1 X81.721 Y102.959 E92.49352
G1 X77.041 Y98.279 E93.04505
G1 X77.041 Y99.155 E93.11806
G1 X80.845 Y102.959 E93.56634
G1 X79.969 Y102.959 E93.63935
G1 X77.041 Y100.031 E93.98438
G1 X77.041 Y100.907 E94.05739
G1 X79.093 Y102.959 E94.29917
G1 X78.217 Y102.959 E94.37218
G1 X77.041 Y101.783 E94.5107
G1 X77.041 Y102.659 E94.58371
G1 X77.607 Y103.225 E94.65038
M106 S127.5
;LAYER_CHANGE
;Z:0.575
;HEIGHT:0.2
; stop printing object EM_Cube-Unlabeled.stl id:0 copy 0
G1 Z0.575 F12000
; custom gcode: layer_gcode
M117 Layer 1
; custom gcode end: layer_gcode

M140 S110 ; set bed temperature
G92 E0
G1 E-0.4 F2400
; printing object EM_Cube-Unlabeled.stl id:0 copy 0
G1 X76.129 Y103.871 F12000
G1 E0 F2400
;TYPE:Internal perimeter
;WIDTH:0.46
G1 F7200
G1 X76.129 Y76.129 E0.83702
G1 X103.871 Y76.129 E1.67404
G1 X103.871 Y103.871 E2.51106
G1 X76.204 Y103.871 E3.34581
G1 X75.712 Y104.288 F12000
G1 F7200
G1 X75.712 Y75.712 E4.208
G1 X104.288 Y75.712 E5.07019
G1 X104.288 Y104.288 E5.93237
G1 X75.787 Y104.288 E6.7923
G1 X75.262 Y104.738 F12000
;TYPE:External perimeter
;WIDTH:0.525
G1 F3600
G1 X75.262 Y75.262 E7.82021
G1 X104.738 Y75.262 E8.84812
G1 X104.738 Y104.738 E9.87603
G1 X75.337 Y104.738 E10.90133
;WIPE_START
G1 X75.512 Y104.304 F12000
;WIPE_END
G92 E0
G1 E-0.4 F2400
G1 X102.864 Y103.747 F12000
G1 E0 F2400
;TYPE:Solid infill
;WIDTH:0.479654
G1 F3600
G1 X103.559 Y103.052 E0.03108
G1 X103.559 Y102.434 E0.05061
G1 X102.434 Y103.559 E0.10092
G1 X101.815 Y103.559 E0.12045
G1 X103.559 Y101.815 E0.19837
G1 X103.559 Y101.197 E0.2179
G1 X101.197 Y103.559 E0.32344
G1 X100.579 Y103.559 E0.34297
G1 X103.559 Y100.579 E0.47614
G1 X103.559 Y99.961 E0.49567
G1 X99.961 Y103.559 E0.65645
G1 X99.343 Y103.559 E0.67598
G1 X103.559 Y99.343 E0.86438
G1 X103.559 Y98.725 E0.88391
G1 X98.725 Y103.559 E1.09994
G1 X98.107 Y103.559 E1.11947
G1 X103.559 Y98.107 E1.36311
G1 X103.559 Y97.489 E1.38264
G1 X97.489 Y103.559 E1.6539
G1 X96.87 Y103.559 E1.67343
G1 X103.559 Y96.87 E1.97231
G1 X103.559 Y96.252 E1.99184
G1 X96.252 Y103.559 E2.31834
G1 X95.634 Y103.559 E2.33788
G1 X103.559 Y95.634 E2.692
G1 X103.559 Y95.016 E2.71153
G1 X95.016 Y103.559 E3.09327
G1 X94.398 Y103.559 E3.1128
G1 X103.559 Y94.398 E3.52216
G1 X103.559 Y93.78 E3.54169
G1 X93.78 Y103.559 E3.97867
G1 X93.162 Y103.559 E3.9982
G1 X103.559 Y93.162 E4.4628
G1 X103.559 Y92.544 E4.48233
G1 X92.544 Y103.559 E4.97455
G1 X91.925 Y103.559 E4.99408
G1 X103.559 Y91.925 E5.51392
G1 X103.559 Y91.307 E5.53345
G1 X91.307 Y103.559 E6.08091
G1 X90.689 Y103.559 E6.10044
G1 X103.559 Y90.689 E6.67553
G1 X103.559 Y90.071 E6.69506
G1 X90.071 Y103.559 E7.29776
G1 X89.453 Y103.559 E7.31729
G1 X103.559 Y89.453 E7.94761
G1 X103.559 Y88.835 E7.96714
G1 X88.835 Y103.559 E8.62508
G1 X88.217 Y103.559 E8.64461
G1 X103.559 Y88.217 E9.33016
G1 X103.559 Y87.599 E9.34969
G1 X87.599 Y103.559 E10.06287
G1 X86.98 Y103.559 E10.0824
G1 X103.559 Y86.98 E10.8232
G1 X103.559 Y86.362 E10.84273
G1 X86.362 Y103.559 E11.61115
G1 X85.744 Y103.559 E11.63068
G1 X103.559 Y85.744 E12.42672
G1 X103.559 Y85.126 E12.44625
G1 X85.126 Y103.559 E13.26991
G1 X84.508 Y103.559 E13.28944
G1 X103.559 Y84.508 E14.14072
G1 X103.559 Y83.89 E14.16025
G1 X83.89 Y103.559 E15.03915
G1 X83.272 Y103.559 E15.05868
G1 X103.559 Y83.272 E15.96519
G1 X103.559 Y82.654 E15.98473
G1 X82.654 Y103.559 E16.91886
G1 X82.035 Y103.559 E16.93839
G1 X103.559 Y82.035 E17.90015
G1 X103.559 Y81.417 E17.91968
G1 X81.417 Y103.559 E18.90906
G1 X80.799 Y103.559 E18.92859
G1 X103.559 Y80.799 E19.94559
G1 X103.559 Y80.181 E19.96512
G1 X80.181 Y103.559 E21.00973
G1 X79.563 Y103.559 E21.02926
G1 X103.559 Y79.563 E22.1015
G1 X103.559 Y78.945 E22.12103
G1 X78.945 Y103.559 E23.22089
G1 X78.327 Y103.559 E23.24042
G1 X103.559 Y78.327 E24.36789
G1 X103.559 Y77.709 E24.38742
G1 X77.709 Y103.559 E25.54252
G1 X77.09 Y103.559 E25.56205
G1 X103.559 Y77.09 E26.74477
G1 X103.559 Y76.472 E26.7643
G1 X76.472 Y103.559 E27.97463
G1 X76.441 Y103.559 E27.97563
G1 X76.441 Y102.973 E27.99416
G1 X102.973 Y76.441 E29.17971
G1 X102.355 Y76.441 E29.19924
G1 X76.441 Y102.355 E30.35716
G1 X76.441 Y101.737 E30.37669
G1 X101.737 Y76.441 E31.50699
G1 X101.118 Y76.441 E31.52652
G1 X76.441 Y101.118 E32.62921
G1 X76.441 Y100.5 E32.64874
G1 X100.5 Y76.441 E33.7238
G1 X99.882 Y76.441 E33.74333
G1 X76.441 Y99.882 E34.79078
G1 X76.441 Y99.264 E34.81031
G1 X99.264 Y76.441 E35.83013
G1 X98.646 Y76.441 E35.84966
G1 X76.441 Y98.646 E36.84187
G1 X76.441 Y98.028 E36.8614
G1 X98.028 Y76.441 E37.82598
G1 X97.41 Y76.441 E37.84551
G1 X76.441 Y97.41 E38.78248
G1 X76.441 Y96.792 E38.80201
G1 X96.792 Y76.441 E39.71136
G1 X96.173 Y76.441 E39.73089
G1 X76.441 Y96.173 E40.61261
G1 X76.441 Y95.555 E40.63214
G1 X95.555 Y76.441 E41.48625
G1 X94.937 Y76.441 E41.50578
G1 X76.441 Y94.937 E42.33226
G1 X76.441 Y94.319 E42.35179
G1 X94.319 Y76.441 E43.15066
G1 X93.701 Y76.441 E43.17019
G1 X76.441 Y93.701 E43.94144
G1 X76.441 Y93.083 E43.96097
G1 X93.083 Y76.441 E44.7046
G1 X92.465 Y76.441 E44.72413
G1 X76.441 Y92.465 E45.44013
G1 X76.441 Y91.847 E45.45966
G1 X91.847 Y76.441 E46.14805
G1 X91.228 Y76.441 E46.16758
G1 X76.441 Y91.228 E46.82835
G1 X76.441 Y90.61 E46.84788
G1 X90.61 Y76.441 E47.48102
G1 X89.992 Y76.441 E47.50055
G1 X76.441 Y89.992 E48.10608
G1 X76.441 Y89.374 E48.12561
G1 X89.374 Y76.441 E48.70352
G1 X88.756 Y76.441 E48.72305
G1 X76.441 Y88.756 E49.27334
G1 X76.441 Y88.138 E49.29287
G1 X88.138 Y76.441 E49.81554
G1 X87.52 Y76.441 E49.83507
G1 X76.441 Y87.52 E50.33012
G1 X76.441 Y86.902 E50.34965
G1 X86.902 Y76.441 E50.81707
G1 X86.283 Y76.441 E50.83661
G1 X76.441 Y86.283 E51.27641
G1 X76.441 Y85.665 E51.29594
G1 X85.665 Y76.441 E51.70813
G1 X85.047 Y76.441 E51.72766
G1 X76.441 Y85.047 E52.11223
G1 X76.441 Y84.429 E52.13176
G1 X84.429 Y76.441 E52.48871
G1 X83.811 Y76.441 E52.50824
G1 X76.441 Y83.811 E52.83757
G1 X76.441 Y83.193 E52.8571
G1 X83.193 Y76.441 E53.15881
G1 X82.575 Y76.441 E53.17834
G1 X76.441 Y82.575 E53.45243
G1 X76.441 Y81.957 E53.47196
G1 X81.957 Y76.441 E53.71843
G1 X81.339 Y76.441 E53.73796
G1 X76.441 Y81.339 E53.95681
G1 X76.441 Y80.72 E53.97634
G1 X80.72 Y76.441 E54.16757
G1 X80.102 Y76.441 E54.1871
G1 X76.441 Y80.102 E54.35071
G1 X76.441 Y79.484 E54.37024
G1 X79.484 Y76.441 E54.50624
G1 X78.866 Y76.441 E54.52577
G1 X76.441 Y78.866 E54.63414
G1 X76.441 Y78.248 E54.65367
G1 X78.248 Y76.441 E54.73442
G1 X77.63 Y76.441 E54.75395
G1 X76.441 Y77.63 E54.80708
G1 X76.441 Y77.012 E54.82661
G1 X77.2 Y76.253 E54.86052
M106 S255
;LAYER_CHANGE
;Z:0.775
;HEIGHT:0.2
; stop printing object EM_Cube-Unlabeled.stl id:0 copy 0
G1 Z0.775 F12000
; custom gcode: layer_gcode
M117 Layer 2
; custom gcode end: layer_gcode

G92 E0
G1 E-0.4 F2400
; printing object EM_Cube-Unlabeled.stl id:0 copy 0
G1 X76.129 Y76.129 F12000
G1 E0 F2400
;TYPE:Internal perimeter
;WIDTH:0.46
G1 F7200
G1 X103.871 Y76.129 E0.83702
G1 X103.871 Y103.871 E1.67404
G1 X76.129 Y103.871 E2.51106
G1 X76.129 Y76.204 E3.34581
G1 X75.712 Y75.712 F12000
G1 F7200
G1 X104.288 Y75.712 E4.208
G1 X104.288 Y104.288 E5.07019
G1 X75.712 Y104.288 E5.93237
G1 X75.712 Y75.787 E6.7923
G1 X75.262 Y75.262 F12000
;TYPE:External perimeter
;WIDTH:0.525
G1 F3600
G1 X104.738 Y75.262 E7.82021
G1 X104.738 Y104.738 E8.84812
G1 X75.262 Y104.738 E9.87603
G1 X75.262 Y75.337 E10.90133
;WIPE_START
G1 X75.696 Y75.512 F12000
;WIPE_END
G92 E0
G1 E-0.4 F2400
G1 X76.253 Y102.8 F12000
G1 E0 F2400
;TYPE:Solid infill
;WIDTH:0.479654
G1 F3600
G1 X77.012 Y103.559 E0.03391
G1 X77.63 Y103.559 E0.05344
G1 X76.441 Y102.37 E0.10657
G1 X76.441 Y101.752 E0.1261
G1 X78.248 Y103.559 E0.20685
G1 X78.866 Y103.559 E0.22638
G1 X76.441 Y101.134 E0.33475
G1 X76.441 Y100.516 E0.35428
G1 X79.484 Y103.559 E0.49028
G1 X80.102 Y103.559 E0.50981
G1 X76.441 Y99.898 E0.67342
G1 X76.441 Y99.28 E0.69295
G1 X80.72 Y103.559 E0.88418
G1 X81.339 Y103.559 E0.90371
G1 X76.441 Y98.661 E1.12256
G1 X76.441 Y98.043 E1.14209
G1 X81.957 Y103.559 E1.38856
G1 X82.575 Y103.559 E1.40809
G1 X76.441 Y97.425 E1.68218
G1 X76.441 Y96.807 E1.70171
G1 X83.193 Y103.559 E2.00342
G1 X83.811 Y103.559 E2.02295
G1 X76.441 Y96.189 E2.35228
G1 X76.441 Y95.571 E2.37181
G1 X84.429 Y103.559 E2.72876
G1 X85.047 Y103.559 E2.74829
G1 X76.441 Y94.953 E3.13286
G1 X76.441 Y94.335 E3.15239
G1 X85.665 Y103.559 E3.56458
G1 X86.283 Y103.559 E3.58411
G1 X76.441 Y93.717 E4.02391
G1 X76.441 Y93.098 E4.04344
G1 X86.902 Y103.559 E4.51087
G1 X87.52 Y103.559 E4.5304
G1 X76.441 Y92.48 E5.02545
G1 X76.441 Y91.862 E5.04498
G1 X88.138 Y103.559 E5.56765
G1 X88.756 Y103.559 E5.58718
G1 X76.441 Y91.244 E6.13747
G1 X76.441 Y90.626 E6.157
G1 X89.374 Y103.559 E6.73491
G1 X89.992 Y103.559 E6.75444
G1 X76.441 Y90.008 E7.35996
G1 X76.441 Y89.39 E7.37949
G1 X90.61 Y103.559 E8.01264
G1 X91.228 Y103.559 E8.03217
G1 X76.441 Y88.772 E8.69294
G1 X76.441 Y88.153 E8.71247
G1 X91.847 Y103.559 E9.40086
G1 X92.465 Y103.559 E9.42039
G1 X76.441 Y87.535 E10.13639
G1 X76.441 Y86.917 E10.15592
G1 X93.083 Y103.559 E10.89955
