; generated by SuperSlicer 2.4 on 2023-03-31 at 21:14:38 UTC


;
;

;
;
; 

; external perimeters extrusion width = 0.52mm
; perimeters extrusion width = 0.56mm
; infill extrusion width = 0.56mm
; solid infill extrusion width = 0.56mm
; top infill extrusion width = 0.52mm
; first layer extrusion width = 0.70mm

; object:{"name":"EM_Cube-Unlabeled","id":"EM_Cube-Unlabeled.stl id:0 copy 0","object_center":[90.000000,90.000000,0.000000],"boundingbox_center":[90.000000,90.000000,1.500000],"boundingbox_size":[30.000000,30.000000,3.000000]}
; plater:{"center":[90.000000,90.000000,0.000000],"boundingbox_center":[90.000000,90.000000,1.500000],"boundingbox_size":[30.000000,30.000000,3.000000]}

;TYPE:Custom
; custom gcode: start_gcode
print_start EXTRUDER=260 BED=110 CHAMBER_TARGET=0
G21 ; set units to millimeters
G90 ; use absolute coordinates
M82 ; use absolute distances for extrusion
G92 E0
; custom gcode end: start_gcode
; custom gcode: start_filament_gcode
; Filament gcode
; custom gcode end: start_filament_gcode
;_TOOLCHANGE 0
;LAYER_CHANGE
;Z:0.375
;HEIGHT:0.375
G1 Z0.375 F12000
; custom gcode: layer_gcode
M117 Layer 0
; custom gcode end: layer_gcode

G1 E-0.4 F2400
G1 X69.123 Y70.464 F12000
G1 E0 F2400
;TYPE:Skirt
;WIDTH:0.65
G1 F1800
G1 X67.973 Y72.604 E0.19625
G1 X67.576 Y75 E0.3925
G1 X67.576 Y105 E2.81654
G1 X67.819 Y106.882 E2.96983
G1 X68.81 Y109.099 E3.16608
G1 X70.464 Y110.877 E3.36233
G1 X72.604 Y112.027 E3.55858
G1 X75 Y112.424 E3.75483
G1 X105 Y112.424 E6.17887
G1 X106.882 Y112.181 E6.33215
G1 X109.099 Y111.19 E6.5284
G1 X110.877 Y109.536 E6.72465
G1 X112.027 Y107.396 E6.9209
G1 X112.424 Y105 E7.11715
G1 X112.424 Y75 E9.5412
G1 X112.181 Y73.118 E9.69448
G1 X111.19 Y70.901 E9.89073
G1 X109.536 Y69.123 E10.08698
G1 X107.396 Y67.973 E10.28323
G1 X105 Y67.576 E10.47948
G1 X75 Y67.576 E12.90352
G1 X73.118 Y67.819 E13.05681
G1 X70.901 Y68.81 E13.25306
G1 X69.178 Y70.413 E13.44325
G1 X69.674 Y70.693 F12000
G1 F1800
G1 X68.543 Y72.701 E13.62948
G1 X68.146 Y75 E13.818
G1 X68.146 Y105 E16.24204
G1 X68.286 Y106.379 E16.35405
G1 X69.137 Y108.551 E16.54257
G1 X70.668 Y110.312 E16.73109
G1 X72.701 Y111.457 E16.91961
G1 X75 Y111.854 E17.10813
G1 X105 Y111.854 E19.53217
G1 X106.379 Y111.714 E19.64418
G1 X108.551 Y110.863 E19.83269
G1 X110.312 Y109.332 E20.02121
G1 X111.457 Y107.299 E20.20973
G1 X111.854 Y105 E20.39825
G1 X111.854 Y75 E22.82229
G1 X111.714 Y73.621 E22.9343
G1 X110.863 Y71.449 E23.12282
G1 X109.332 Y69.688 E23.31134
G1 X107.299 Y68.543 E23.49986
G1 X105 Y68.146 E23.68838
G1 X75 Y68.146 E26.11242
G1 X73.621 Y68.286 E26.22443
G1 X71.449 Y69.137 E26.41294
G1 X69.723 Y70.638 E26.59769
G1 X70.222 Y70.934 F12000
G1 F1800
G1 X69.112 Y72.802 E26.77329
G1 X68.715 Y75 E26.95375
G1 X68.715 Y105 E29.37779
G1 X69.482 Y108.008 E29.62859
G1 X70.882 Y109.748 E29.80905
G1 X72.802 Y110.888 E29.9895
G1 X75 Y111.285 E30.16996
G1 X105 Y111.285 E32.594
G1 X108.008 Y110.518 E32.8448
G1 X109.748 Y109.118 E33.02525
G1 X110.888 Y107.198 E33.20571
G1 X111.285 Y105 E33.38617
G1 X111.285 Y75 E35.81021
G1 X110.518 Y71.992 E36.06101
G1 X109.118 Y70.252 E36.24146
G1 X107.198 Y69.112 E36.42192
G1 X105 Y68.715 E36.60238
G1 X75 Y68.715 E39.02642
G1 X71.992 Y69.482 E39.27722
G1 X70.264 Y70.873 E39.45647
M104 S260 ; set temperature
G92 E0
G1 E-0.4 F2400
; printing object EM_Cube-Unlabeled.stl id:0 copy 0
G1 X76.589 Y76.589 F12000
G1 E0 F2400
;TYPE:Internal perimeter
;WIDTH:0.7
G1 F4800
G1 X103.411 Y76.589 E2.35752
G1 X103.411 Y103.411 E4.71503
G1 X76.589 Y103.411 E7.07255
G1 X76.589 Y76.664 E9.42347
G1 X75.97 Y75.97 F12000
G1 F4800
G1 X104.03 Y75.97 E11.88989
G1 X104.03 Y104.03 E14.35632
G1 X75.97 Y104.03 E16.82274
G1 X75.97 Y76.045 E19.28257
G1 X75.35 Y75.35 F12000
;TYPE:External perimeter
G1 F4500
G1 X104.65 Y75.35 E21.8579
G1 X104.65 Y104.65 E24.43323
G1 X75.35 Y104.65 E27.00856
G1 X75.35 Y75.425 E29.57729
;WIPE_START
G1 X75.783 Y75.6 F12000
;WIPE_END
G92 E0
G1 E-0.4 F2400
G1 X101.973 Y76.775 F12000
G1 E0 F2400
;TYPE:Solid infill
;WIDTH:0.694176
G1 F4500
G1 X102.959 Y77.761 E0.12153
G1 X102.959 Y78.637 E0.1979
G1 X101.363 Y77.041 E0.3946
G1 X100.487 Y77.041 E0.47097
G1 X102.959 Y79.513 E0.77566
G1 X102.959 Y80.389 E0.85203
G1 X99.611 Y77.041 E1.26473
G1 X98.735 Y77.041 E1.3411
G1 X102.959 Y81.265 E1.86179
G1 X102.959 Y82.142 E1.93816
G1 X97.858 Y77.041 E2.56686
G1 X96.982 Y77.041 E2.64323
G1 X102.959 Y83.018 E3.37992
G1 X102.959 Y83.894 E3.45629
G1 X96.106 Y77.041 E4.30099
G1 X95.23 Y77.041 E4.37736
G1 X102.959 Y84.77 E5.33005
G1 X102.959 Y85.646 E5.40642
G1 X94.354 Y77.041 E6.46712
G1 X93.478 Y77.041 E6.54349
G1 X102.959 Y86.522 E7.71219
G1 X102.959 Y87.398 E7.78855
G1 X92.602 Y77.041 E9.06525
G1 X91.726 Y77.041 E9.14162
G1 X102.959 Y88.274 E10.52632
G1 X102.959 Y89.151 E10.60269
G1 X90.849 Y77.041 E12.09539
G1 X89.973 Y77.041 E12.17176
G1 X102.959 Y90.027 E13.77246
G1 X102.959 Y90.903 E13.84882
G1 X89.097 Y77.041 E15.55752
G1 X88.221 Y77.041 E15.63389
G1 X102.959 Y91.779 E17.45059
G1 X102.959 Y92.655 E17.52696
G1 X87.345 Y77.041 E19.45166
G1 X86.469 Y77.041 E19.52803
G1 X102.959 Y93.531 E21.56073
G1 X102.959 Y94.407 E21.6371
G1 X85.593 Y77.041 E23.7778
G1 X84.716 Y77.041 E23.85416
G1 X102.959 Y95.284 E26.10286
G1 X102.959 Y96.16 E26.17923
G1 X83.84 Y77.041 E28.53593
G1 X82.964 Y77.041 E28.6123
G1 X102.959 Y97.036 E31.077
G1 X102.959 Y97.912 E31.15337
G1 X82.088 Y77.041 E33.72607
G1 X81.212 Y77.041 E33.80244
G1 X102.959 Y98.788 E36.48314
G1 X102.959 Y99.664 E36.55951
G1 X80.336 Y77.041 E39.34821
G1 X79.46 Y77.041 E39.42458
G1 X102.959 Y100.54 E42.32128
G1 X102.959 Y101.417 E42.39765
G1 X78.583 Y77.041 E45.40235
G1 X77.707 Y77.041 E45.47872
G1 X102.959 Y102.293 E48.59142
G1 X102.959 Y102.959 E48.64948
G1 X102.749 Y102.959 E48.66779
G1 X77.041 Y77.251 E51.83669
G1 X77.041 Y78.128 E51.91306
G1 X101.872 Y102.959 E54.97395
G1 X100.996 Y102.959 E55.05032
G1 X77.041 Y79.004 E58.00322
G1 X77.041 Y79.88 E58.07959
G1 X100.12 Y102.959 E60.92448
G1 X99.244 Y102.959 E61.00085
G1 X77.041 Y80.756 E63.73775
G1 X77.041 Y81.632 E63.81412
G1 X98.368 Y102.959 E66.44301
G1 X97.492 Y102.959 E66.51938
G1 X77.041 Y82.508 E69.04028
G1 X77.041 Y83.384 E69.11664
G1 X96.616 Y102.959 E71.52954
G1 X95.739 Y102.959 E71.60591
G1 X77.041 Y84.261 E73.9108
G1 X77.041 Y85.137 E73.98717
G1 X94.863 Y102.959 E76.18407
G1 X93.987 Y102.959 E76.26043
G1 X77.041 Y86.013 E78.34933
G1 X77.041 Y86.889 E78.4257
G1 X93.111 Y102.959 E80.40659
G1 X92.235 Y102.959 E80.48296
G1 X77.041 Y87.765 E82.35585
G1 X77.041 Y88.641 E82.43222
G1 X91.359 Y102.959 E84.19712
G1 X90.483 Y102.959 E84.27348
G1 X77.041 Y89.517 E85.93038
G1 X77.041 Y90.394 E86.00675
G1 X89.606 Y102.959 E87.55564
G1 X88.73 Y102.959 E87.63201
G1 X77.041 Y91.27 E89.0729
G1 X77.041 Y92.146 E89.14927
G1 X87.854 Y102.959 E90.48216
G1 X86.978 Y102.959 E90.55853
G1 X77.041 Y93.022 E91.78342
G1 X77.041 Y93.898 E91.85979
G1 X86.102 Y102.959 E92.97668
G1 X85.226 Y102.959 E93.05305
G1 X77.041 Y94.774 E94.06195
G1 X77.041 Y95.65 E94.13831
G1 X84.35 Y102.959 E95.03921
G1 X83.474 Y102.959 E95.11557
G1 X77.041 Y96.526 E95.90847
G1 X77.041 Y97.403 E95.98483
G1 X82.597 Y102.959 E96.66973
G1 X81.721 Y102.959 E96.74609
G1 X77.041 Y98.279 E97.32298
G1 X77.041 Y99.155 E97.39935
G1 X80.845 Y102.959 E97.86824
G1 X79.969 Y102.959 E97.94461
G1 X77.041 Y100.031 E98.3055
G1 X77.041 Y100.907 E98.38187
G1 X79.093 Y102.959 E98.63476
G1 X78.217 Y102.959 E98.71113
G1 X77.041 Y101.783 E98.85602
G1 X77.041 Y102.659 E98.93239
G1 X77.607 Y103.225 E99.00212
M106 S68.85
;LAYER_CHANGE
;Z:0.575
;HEIGHT:0.2
; stop printing object EM_Cube-Unlabeled.stl id:0 copy 0
G1 Z0.575 F12000
; custom gcode: layer_gcode
M117 Layer 1
; custom gcode end: layer_gcode

M140 S110 ; set bed temperature
G92 E0
G1 E-0.4 F2400
; printing object EM_Cube-Unlabeled.stl id:0 copy 0
G1 X76.272 Y103.728 F12000
G1 E0 F2400
;TYPE:Internal perimeter
;WIDTH:0.555
G1 F9000
G1 X76.272 Y76.272 E1.06388
G1 X103.728 Y76.272 E2.12775
G1 X103.728 Y103.728 E3.19163
G1 X76.347 Y103.728 E4.2526
G1 X75.76 Y104.24 F12000
G1 F9000
G1 X75.76 Y75.76 E5.35616
G1 X104.24 Y75.76 E6.45972
G1 X104.24 Y104.24 E7.56328
G1 X75.835 Y104.24 E8.66393
G1 X75.262 Y104.738 F12000
;TYPE:External perimeter
;WIDTH:0.525
G1 F4500
G1 X75.262 Y75.262 E9.7391
G1 X104.738 Y75.262 E10.81428
G1 X104.738 Y104.738 E11.88945
G1 X75.337 Y104.738 E12.96188
;WIPE_START
G1 X75.512 Y104.304 F12000
;WIPE_END
G92 E0
G1 E-0.4 F2400
G1 X102.54 Y103.575 F12000
G1 E0 F2400
;TYPE:Solid infill
;WIDTH:0.552869
G1 F4500
G1 X103.355 Y102.76 E0.04449
G1 X103.355 Y102.036 E0.07244
G1 X102.036 Y103.355 E0.14444
G1 X101.311 Y103.355 E0.17239
G1 X103.355 Y101.311 E0.28392
G1 X103.355 Y100.587 E0.31187
G1 X100.587 Y103.355 E0.46293
G1 X99.863 Y103.355 E0.49088
G1 X103.355 Y99.863 E0.68147
G1 X103.355 Y99.139 E0.70942
G1 X99.139 Y103.355 E0.93955
G1 X98.415 Y103.355 E0.9675
G1 X103.355 Y98.415 E1.23715
G1 X103.355 Y97.69 E1.2651
G1 X97.69 Y103.355 E1.57429
G1 X96.966 Y103.355 E1.60224
G1 X103.355 Y96.966 E1.95096
G1 X103.355 Y96.242 E1.97891
G1 X96.242 Y103.355 E2.36715
G1 X95.518 Y103.355 E2.39511
G1 X103.355 Y95.518 E2.82288
G1 X103.355 Y94.794 E2.85084
G1 X94.794 Y103.355 E3.31815
G1 X94.07 Y103.355 E3.3461
G1 X103.355 Y94.07 E3.85294
G1 X103.355 Y93.345 E3.88089
G1 X93.345 Y103.355 E4.42726
G1 X92.621 Y103.355 E4.45521
G1 X103.355 Y92.621 E5.04112
G1 X103.355 Y91.897 E5.06907
G1 X91.897 Y103.355 E5.6945
G1 X91.173 Y103.355 E5.72245
G1 X103.355 Y91.173 E6.38742
G1 X103.355 Y90.449 E6.41537
G1 X90.449 Y103.355 E7.11987
G1 X89.724 Y103.355 E7.14782
G1 X103.355 Y89.724 E7.89185
G1 X103.355 Y89 E7.9198
G1 X89 Y103.355 E8.70336
G1 X88.276 Y103.355 E8.73131
G1 X103.355 Y88.276 E9.5544
G1 X103.355 Y87.552 E9.58235
G1 X87.552 Y103.355 E10.44497
G1 X86.828 Y103.355 E10.47292
G1 X103.355 Y86.828 E11.37507
G1 X103.355 Y86.103 E11.40303
G1 X86.103 Y103.355 E12.34471
G1 X85.379 Y103.355 E12.37266
G1 X103.355 Y85.379 E13.35387
G1 X103.355 Y84.655 E13.38183
G1 X84.655 Y103.355 E14.40257
G1 X83.931 Y103.355 E14.43052
G1 X103.355 Y83.931 E15.4908
G1 X103.355 Y83.207 E15.51875
G1 X83.207 Y103.355 E16.61856
G1 X82.482 Y103.355 E16.64651
G1 X103.355 Y82.482 E17.78585
G1 X103.355 Y81.758 E17.8138
G1 X81.758 Y103.355 E18.99267
G1 X81.034 Y103.355 E19.02062
G1 X103.355 Y81.034 E20.23902
G1 X103.355 Y80.31 E20.26698
G1 X80.31 Y103.355 E21.52491
G1 X79.586 Y103.355 E21.55286
G1 X103.355 Y79.586 E22.85032
G1 X103.355 Y78.862 E22.87828
G1 X78.862 Y103.355 E24.21527
G1 X78.137 Y103.355 E24.24322
G1 X103.355 Y78.137 E25.61975
G1 X103.355 Y77.413 E25.6477
G1 X77.413 Y103.355 E27.06375
G1 X76.689 Y103.355 E27.09171
G1 X103.355 Y76.689 E28.54729
G1 X103.355 Y76.645 E28.54897
G1 X102.674 Y76.645 E28.57525
G1 X76.645 Y102.674 E29.99605
G1 X76.645 Y101.95 E30.02401
G1 X101.95 Y76.645 E31.40528
G1 X101.226 Y76.645 E31.43324
G1 X76.645 Y101.226 E32.77498
G1 X76.645 Y100.501 E32.80293
G1 X100.501 Y76.645 E34.10515
G1 X99.777 Y76.645 E34.1331
G1 X76.645 Y99.777 E35.39579
G1 X76.645 Y99.053 E35.42374
G1 X99.053 Y76.645 E36.64689
G1 X98.329 Y76.645 E36.67484
G1 X76.645 Y98.329 E37.85846
G1 X76.645 Y97.605 E37.88642
G1 X97.605 Y76.645 E39.03051
G1 X96.88 Y76.645 E39.05846
G1 X76.645 Y96.88 E40.16302
G1 X76.645 Y96.156 E40.19097
G1 X96.156 Y76.645 E41.256
G1 X95.432 Y76.645 E41.28395
G1 X76.645 Y95.432 E42.30945
G1 X76.645 Y94.708 E42.3374
G1 X94.708 Y76.645 E43.32337
G1 X93.984 Y76.645 E43.35132
G1 X76.645 Y93.984 E44.29775
G1 X76.645 Y93.259 E44.3257
G1 X93.259 Y76.645 E45.23261
G1 X92.535 Y76.645 E45.26056
G1 X76.645 Y92.535 E46.12793
G1 X76.645 Y91.811 E46.15589
G1 X91.811 Y76.645 E46.98373
G1 X91.087 Y76.645 E47.01168
G1 X76.645 Y91.087 E47.79999
G1 X76.645 Y90.363 E47.82794
G1 X90.363 Y76.645 E48.57672
G1 X89.638 Y76.645 E48.60467
G1 X76.645 Y89.638 E49.31392
G1 X76.645 Y88.914 E49.34187
G1 X88.914 Y76.645 E50.01159
G1 X88.19 Y76.645 E50.03954
G1 X76.645 Y88.19 E50.66973
G1 X76.645 Y87.466 E50.69768
G1 X87.466 Y76.645 E51.28833
G1 X86.742 Y76.645 E51.31629
G1 X76.645 Y86.742 E51.86741
G1 X76.645 Y86.018 E51.89536
G1 X86.018 Y76.645 E52.40695
G1 X85.293 Y76.645 E52.43491
G1 X76.645 Y85.293 E52.90697
G1 X76.645 Y84.569 E52.93492
G1 X84.569 Y76.645 E53.36745
G1 X83.845 Y76.645 E53.3954
G1 X76.645 Y83.845 E53.7884
G1 X76.645 Y83.121 E53.81635
G1 X83.121 Y76.645 E54.16982
G1 X82.397 Y76.645 E54.19777
G1 X76.645 Y82.397 E54.51171
G1 X76.645 Y81.672 E54.53966
G1 X81.672 Y76.645 E54.81407
G1 X80.948 Y76.645 E54.84202
G1 X76.645 Y80.948 E55.07689
G1 X76.645 Y80.224 E55.10485
G1 X80.224 Y76.645 E55.30019
G1 X79.5 Y76.645 E55.32814
G1 X76.645 Y79.5 E55.48395
G1 X76.645 Y78.776 E55.5119
G1 X78.776 Y76.645 E55.62818
G1 X78.051 Y76.645 E55.65614
G1 X76.645 Y78.051 E55.73289
G1 X76.645 Y77.327 E55.76084
G1 X77.547 Y76.425 E55.81008
M106 S147.9
;LAYER_CHANGE
;Z:0.775
;HEIGHT:0.2
; stop printing object EM_Cube-Unlabeled.stl id:0 copy 0
G1 Z0.775 F12000
; custom gcode: layer_gcode
M117 Layer 2
; custom gcode end: layer_gcode

G92 E0
G1 E-0.4 F2400
; printing object EM_Cube-Unlabeled.stl id:0 copy 0
G1 X76.272 Y76.272 F12000
G1 E0 F2400
;TYPE:Internal perimeter
;WIDTH:0.555
G1 F9000
G1 X103.728 Y76.272 E1.06388
G1 X103.728 Y103.728 E2.12775
G1 X76.272 Y103.728 E3.19163
G1 X76.272 Y76.347 E4.2526
G1 X75.76 Y75.76 F12000
G1 F9000
G1 X104.24 Y75.76 E5.35616
G1 X104.24 Y104.24 E6.45972
G1 X75.76 Y104.24 E7.56328
G1 X75.76 Y75.835 E8.66393
G1 X75.262 Y75.262 F12000
;TYPE:External perimeter
;WIDTH:0.525
G1 F4500
G1 X104.738 Y75.262 E9.7391
G1 X104.738 Y104.738 E10.81428
G1 X75.262 Y104.738 E11.88945
G1 X75.262 Y75.337 E12.96188
;WIPE_START
G1 X75.696 Y75.512 F12000
;WIPE_END
G92 E0
G1 E-0.4 F2400
G1 X76.425 Y102.453 F12000
G1 E0 F2400
;TYPE:Solid infill
;WIDTH:0.552869
G1 F4500
G1 X77.327 Y103.355 E0.04924
G1 X78.051 Y103.355 E0.07719
G1 X76.645 Y101.949 E0.15394
G1 X76.645 Y101.224 E0.18189
G1 X78.776 Y103.355 E0.29817
G1 X79.5 Y103.355 E0.32613
G1 X76.645 Y100.5 E0.48194
G1 X76.645 Y99.776 E0.50989
G1 X80.224 Y103.355 E0.70523
G1 X80.948 Y103.355 E0.73319
G1 X76.645 Y99.052 E0.96806
G1 X76.645 Y98.328 E0.99601
G1 X81.672 Y103.355 E1.27042
G1 X82.397 Y103.355 E1.29837
G1 X76.645 Y97.603 E1.61231
G1 X76.645 Y96.879 E1.64026
G1 X83.121 Y103.355 E1.99373
G1 X83.845 Y103.355 E2.02168
G1 X76.645 Y96.155 E2.41468
G1 X76.645 Y95.431 E2.44263
G1 X84.569 Y103.355 E2.87516
G1 X85.293 Y103.355 E2.90311
G1 X76.645 Y94.707 E3.37517
G1 X76.645 Y93.982 E3.40312
G1 X86.018 Y103.355 E3.91472
G1 X86.742 Y103.355 E3.94267
G1 X76.645 Y93.258 E4.49379
G1 X76.645 Y92.534 E4.52174
G1 X87.466 Y103.355 E5.1124
G1 X88.19 Y103.355 E5.14035
G1 X76.645 Y91.81 E5.77054
G1 X76.645 Y91.086 E5.79849
G1 X88.914 Y103.355 E6.46821
G1 X89.638 Y103.355 E6.49616
G1 X76.645 Y90.362 E7.20541
G1 X76.645 Y89.637 E7.23336
G1 X90.363 Y103.355 E7.98214
G1 X91.087 Y103.355 E8.01009
G1 X76.645 Y88.913 E8.7984
G1 X76.645 Y88.189 E8.82635
G1 X91.811 Y103.355 E9.65419
G1 X92.535 Y103.355 E9.68214
G1 X76.645 Y87.465 E10.54952
G1 X76.645 Y86.741 E10.57747
G1 X93.259 Y103.355 E11.48437
G1 X93.984 Y103.355 E11.51233
G1 X76.645 Y86.016 E12.45876
G1 X76.645 Y85.292 E12.48671
G1 X94.708 Y103.355 E13.47268
G1 X95.432 Y103.355 E13.50063
G1 X76.645 Y84.568 E14.52613
G1 X76.645 Y83.844 E14.55408
G1 X96.156 Y103.355 E15.61911
G1 X96.88 Y103.355 E15.64706
G1 X76.645 Y83.12 E16.75162
G1 X76.645 Y82.395 E16.77957
G1 X97.605 Y103.355 E17.92366
G1 X98.329 Y103.355 E17.95161
G1 X76.645 Y81.671 E19.13523
G1 X76.645 Y80.947 E19.16319
G1 X99.053 Y103.355 E20.38634
G1 X99.777 Y103.355 E20.41429
G1 X76.645 Y80.223 E21.67698
G1 X76.645 Y79.499 E21.70493
G1 X100.501 Y103.355 E23.00714
G1 X101.226 Y103.355 E23.0351
G1 X76.645 Y78.774 E24.37684
G1 X76.645 Y78.05 E24.40479
G1 X101.95 Y103.355 E25.78607
G1 X102.674 Y103.355 E25.81402
G1 X76.645 Y77.326 E27.23483
G1 X76.645 Y76.645 E27.2611
G1 X76.689 Y76.645 E27.26278
G1 X103.355 Y103.311 E28.71837
G1 X103.355 Y102.587 E28.74632
G1 X77.413 Y76.645 E30.16238
G1 X78.137 Y76.645 E30.19033
G1 X103.355 Y101.863 E31.56686
G1 X103.355 Y101.138 E31.59481
G1 X78.862 Y76.645 E32.9318
G1 X79.586 Y76.645 E32.95975
