; generated by SuperSlicer 2.4 on 2023-03-31 at 23:20:53 UTC


;
;

;
;
; 

; external perimeters extrusion width = 0.52mm
; perimeters extrusion width = 0.56mm
; infill extrusion width = 0.56mm
; solid infill extrusion width = 0.56mm
; top infill extrusion width = 0.52mm
; first layer extrusion width = 0.70mm

; object:{"name":"EM_Cube-Unlabeled","id":"EM_Cube-Unlabeled.stl id:0 copy 0","object_center":[90.000000,90.000000,0.000000],"boundingbox_center":[90.000000,90.000000,1.500000],"boundingbox_size":[30.000000,30.000000,3.000000]}
; plater:{"center":[90.000000,90.000000,0.000000],"boundingbox_center":[90.000000,90.000000,1.500000],"boundingbox_size":[30.000000,30.000000,3.000000]}

;TYPE:Custom
; custom gcode: start_gcode
print_start EXTRUDER=260 BED=110 CHAMBER_TARGET=0
G21 ; set units to millimeters
G90 ; use absolute coordinates
M82 ; use absolute distances for extrusion
G92 E0
; custom gcode end: start_gcode
; custom gcode: start_filament_gcode
; Filament gcode
; custom gcode end: start_filament_gcode
;_TOOLCHANGE 0
;LAYER_CHANGE
;Z:0.375
;HEIGHT:0.375
G1 Z0.375 F12000
; custom gcode: layer_gcode
M117 Layer 0
; custom gcode end: layer_gcode

G1 E-0.4 F2400
G1 X69.123 Y70.464 F12000
G1 E0 F2400
;TYPE:Skirt
;WIDTH:0.65
G1 F1800
G1 X67.973 Y72.604 E0.19194
G1 X67.576 Y75 E0.38387
G1 X67.576 Y105 E2.75464
G1 X67.819 Y106.882 E2.90456
G1 X68.81 Y109.099 E3.09649
G1 X70.464 Y110.877 E3.28843
G1 X72.604 Y112.027 E3.48037
G1 X75 Y112.424 E3.6723
G1 X105 Y112.424 E6.04307
G1 X106.882 Y112.181 E6.19299
G1 X109.099 Y111.19 E6.38492
G1 X110.877 Y109.536 E6.57686
G1 X112.027 Y107.396 E6.7688
G1 X112.424 Y105 E6.96073
G1 X112.424 Y75 E9.3315
G1 X112.181 Y73.118 E9.48142
G1 X111.19 Y70.901 E9.67335
G1 X109.536 Y69.123 E9.86529
G1 X107.396 Y67.973 E10.05723
G1 X105 Y67.576 E10.24916
G1 X75 Y67.576 E12.61993
G1 X73.118 Y67.819 E12.76985
G1 X70.901 Y68.81 E12.96178
G1 X69.178 Y70.413 E13.14779
G1 X69.674 Y70.693 F12000
G1 F1800
G1 X68.543 Y72.701 E13.32993
G1 X68.146 Y75 E13.51431
G1 X68.146 Y105 E15.88508
G1 X68.286 Y106.379 E15.99462
G1 X69.137 Y108.551 E16.179
G1 X70.668 Y110.312 E16.36337
G1 X72.701 Y111.457 E16.54775
G1 X75 Y111.854 E16.73212
G1 X105 Y111.854 E19.10289
G1 X106.379 Y111.714 E19.21244
G1 X108.551 Y110.863 E19.39681
G1 X110.312 Y109.332 E19.58119
G1 X111.457 Y107.299 E19.76556
G1 X111.854 Y105 E19.94994
G1 X111.854 Y75 E22.3207
G1 X111.714 Y73.621 E22.43025
G1 X110.863 Y71.449 E22.61463
G1 X109.332 Y69.688 E22.799
G1 X107.299 Y68.543 E22.98338
G1 X105 Y68.146 E23.16775
G1 X75 Y68.146 E25.53852
G1 X73.621 Y68.286 E25.64806
G1 X71.449 Y69.137 E25.83244
G1 X69.723 Y70.638 E26.01312
G1 X70.222 Y70.934 F12000
G1 F1800
G1 X69.112 Y72.802 E26.18487
G1 X68.715 Y75 E26.36136
G1 X68.715 Y105 E28.73213
G1 X69.482 Y108.008 E28.97741
G1 X70.882 Y109.748 E29.1539
G1 X72.802 Y110.888 E29.33039
G1 X75 Y111.285 E29.50688
G1 X105 Y111.285 E31.87765
G1 X108.008 Y110.518 E32.12293
G1 X109.748 Y109.118 E32.29942
G1 X110.888 Y107.198 E32.47592
G1 X111.285 Y105 E32.65241
G1 X111.285 Y75 E35.02317
G1 X110.518 Y71.992 E35.26846
G1 X109.118 Y70.252 E35.44495
G1 X107.198 Y69.112 E35.62144
G1 X105 Y68.715 E35.79793
G1 X75 Y68.715 E38.1687
G1 X71.992 Y69.482 E38.41398
G1 X70.264 Y70.873 E38.58929
M104 S260 ; set temperature
G92 E0
G1 E-0.4 F2400
; printing object EM_Cube-Unlabeled.stl id:0 copy 0
G1 X76.589 Y76.589 F12000
G1 E0 F2400
;TYPE:Internal perimeter
;WIDTH:0.7
G1 F4800
G1 X103.411 Y76.589 E2.3057
G1 X103.411 Y103.411 E4.6114
G1 X76.589 Y103.411 E6.91711
G1 X76.589 Y76.664 E9.21636
G1 X75.97 Y75.97 F12000
G1 F4800
G1 X104.03 Y75.97 E11.62858
G1 X104.03 Y104.03 E14.04079
G1 X75.97 Y104.03 E16.45301
G1 X75.97 Y76.045 E18.85878
G1 X75.35 Y75.35 F12000
;TYPE:External perimeter
G1 F4500
G1 X104.65 Y75.35 E21.3775
G1 X104.65 Y104.65 E23.89623
G1 X75.35 Y104.65 E26.41496
G1 X75.35 Y75.425 E28.92724
;WIPE_START
G1 X75.783 Y75.6 F12000
;WIPE_END
G92 E0
G1 E-0.4 F2400
G1 X101.973 Y76.775 F12000
G1 E0 F2400
;TYPE:Solid infill
;WIDTH:0.694176
G1 F4500
G1 X102.959 Y77.761 E0.11886
G1 X102.959 Y78.637 E0.19355
G1 X101.363 Y77.041 E0.38593
G1 X100.487 Y77.041 E0.46062
G1 X102.959 Y79.513 E0.75862
G1 X102.959 Y80.389 E0.8333
G1 X99.611 Y77.041 E1.23693
G1 X98.735 Y77.041 E1.31162
G1 X102.959 Y81.265 E1.82087
G1 X102.959 Y82.142 E1.89556
G1 X97.858 Y77.041 E2.51044
G1 X96.982 Y77.041 E2.58513
G1 X102.959 Y83.018 E3.30564
G1 X102.959 Y83.894 E3.38033
G1 X96.106 Y77.041 E4.20646
G1 X95.23 Y77.041 E4.28115
G1 X102.959 Y84.77 E5.21291
G1 X102.959 Y85.646 E5.2876
G1 X94.354 Y77.041 E6.32499
G1 X93.478 Y77.041 E6.39968
G1 X102.959 Y86.522 E7.54269
G1 X102.959 Y87.398 E7.61738
G1 X92.602 Y77.041 E8.86602
G1 X91.726 Y77.041 E8.94071
G1 X102.959 Y88.274 E10.29497
G1 X102.959 Y89.151 E10.36966
G1 X90.849 Y77.041 E11.82956
G1 X89.973 Y77.041 E11.90424
G1 X102.959 Y90.027 E13.46976
G1 X102.959 Y90.903 E13.54445
G1 X89.097 Y77.041 E15.2156
G1 X88.221 Y77.041 E15.29029
G1 X102.959 Y91.779 E17.06706
G1 X102.959 Y92.655 E17.14175
G1 X87.345 Y77.041 E19.02415
G1 X86.469 Y77.041 E19.09884
G1 X102.959 Y93.531 E21.08687
G1 X102.959 Y94.407 E21.16155
G1 X85.593 Y77.041 E23.25521
G1 X84.716 Y77.041 E23.3299
G1 X102.959 Y95.284 E25.52918
G1 X102.959 Y96.16 E25.60386
G1 X83.84 Y77.041 E27.90877
G1 X82.964 Y77.041 E27.98346
G1 X102.959 Y97.036 E30.39399
G1 X102.959 Y97.912 E30.46868
G1 X82.088 Y77.041 E32.98484
G1 X81.212 Y77.041 E33.05953
G1 X102.959 Y98.788 E35.68132
G1 X102.959 Y99.664 E35.756
G1 X80.336 Y77.041 E38.48342
G1 X79.46 Y77.041 E38.55811
G1 X102.959 Y100.54 E41.39114
G1 X102.959 Y101.417 E41.46583
G1 X78.583 Y77.041 E44.4045
G1 X77.707 Y77.041 E44.47919
G1 X102.959 Y102.293 E47.52348
G1 X102.959 Y102.959 E47.58026
G1 X102.749 Y102.959 E47.59817
G1 X77.041 Y77.251 E50.69742
G1 X77.041 Y78.128 E50.77211
G1 X101.872 Y102.959 E53.76574
G1 X100.996 Y102.959 E53.84043
G1 X77.041 Y79.004 E56.72842
G1 X77.041 Y79.88 E56.80311
G1 X100.12 Y102.959 E59.58548
G1 X99.244 Y102.959 E59.66017
G1 X77.041 Y80.756 E62.33692
G1 X77.041 Y81.632 E62.41161
G1 X98.368 Y102.959 E64.98273
G1 X97.492 Y102.959 E65.05742
G1 X77.041 Y82.508 E67.52291
G1 X77.041 Y83.384 E67.5976
G1 X96.616 Y102.959 E69.95746
G1 X95.739 Y102.959 E70.03215
G1 X77.041 Y84.261 E72.28639
G1 X77.041 Y85.137 E72.36108
G1 X94.863 Y102.959 E74.50969
G1 X93.987 Y102.959 E74.58438
G1 X77.041 Y86.013 E76.62737
G1 X77.041 Y86.889 E76.70206
G1 X93.111 Y102.959 E78.63941
G1 X92.235 Y102.959 E78.7141
G1 X77.041 Y87.765 E80.54584
G1 X77.041 Y88.641 E80.62053
G1 X91.359 Y102.959 E82.34663
G1 X90.483 Y102.959 E82.42132
G1 X77.041 Y89.517 E84.0418
G1 X77.041 Y90.394 E84.11649
G1 X89.606 Y102.959 E85.63134
G1 X88.73 Y102.959 E85.70603
G1 X77.041 Y91.27 E87.11526
G1 X77.041 Y92.146 E87.18995
G1 X87.854 Y102.959 E88.49354
G1 X86.978 Y102.959 E88.56823
G1 X77.041 Y93.022 E89.76621
G1 X77.041 Y93.898 E89.8409
G1 X86.102 Y102.959 E90.93324
G1 X85.226 Y102.959 E91.00793
G1 X77.041 Y94.774 E91.99465
G1 X77.041 Y95.65 E92.06934
G1 X84.35 Y102.959 E92.95043
G1 X83.474 Y102.959 E93.02512
G1 X77.041 Y96.526 E93.80059
G1 X77.041 Y97.403 E93.87528
G1 X82.597 Y102.959 E94.54512
G1 X81.721 Y102.959 E94.61981
G1 X77.041 Y98.279 E95.18402
G1 X77.041 Y99.155 E95.25871
G1 X80.845 Y102.959 E95.71729
G1 X79.969 Y102.959 E95.79198
G1 X77.041 Y100.031 E96.14494
G1 X77.041 Y100.907 E96.21963
G1 X79.093 Y102.959 E96.46696
G1 X78.217 Y102.959 E96.54165
G1 X77.041 Y101.783 E96.68336
G1 X77.041 Y102.659 E96.75805
G1 X77.607 Y103.225 E96.82625
M106 S68.85
;LAYER_CHANGE
;Z:0.575
;HEIGHT:0.2
; stop printing object EM_Cube-Unlabeled.stl id:0 copy 0
G1 Z0.575 F12000
; custom gcode: layer_gcode
M117 Layer 1
; custom gcode end: layer_gcode

M140 S110 ; set bed temperature
G92 E0
G1 E-0.4 F2400
; printing object EM_Cube-Unlabeled.stl id:0 copy 0
G1 X76.272 Y103.728 F12000
G1 E0 F2400
;TYPE:Internal perimeter
;WIDTH:0.555
G1 F9000
G1 X76.272 Y76.272 E1.04049
G1 X103.728 Y76.272 E2.08099
G1 X103.728 Y103.728 E3.12148
G1 X76.347 Y103.728 E4.15913
G1 X75.76 Y104.24 F12000
G1 F9000
G1 X75.76 Y75.76 E5.23844
G1 X104.24 Y75.76 E6.31775
G1 X104.24 Y104.24 E7.39705
G1 X75.835 Y104.24 E8.47351
G1 X75.262 Y104.738 F12000
;TYPE:External perimeter
;WIDTH:0.525
G1 F4500
G1 X75.262 Y75.262 E9.52506
G1 X104.738 Y75.262 E10.5766
G1 X104.738 Y104.738 E11.62814
G1 X75.337 Y104.738 E12.67701
;WIPE_START
G1 X75.512 Y104.304 F12000
;WIPE_END
G92 E0
G1 E-0.4 F2400
G1 X102.54 Y103.575 F12000
G1 E0 F2400
;TYPE:Solid infill
;WIDTH:0.552869
G1 F4500
G1 X103.355 Y102.76 E0.04351
G1 X103.355 Y102.036 E0.07085
G1 X102.036 Y103.355 E0.14126
G1 X101.311 Y103.355 E0.1686
G1 X103.355 Y101.311 E0.27768
G1 X103.355 Y100.587 E0.30501
G1 X100.587 Y103.355 E0.45275
G1 X99.863 Y103.355 E0.48009
G1 X103.355 Y99.863 E0.66649
G1 X103.355 Y99.139 E0.69383
G1 X99.139 Y103.355 E0.9189
G1 X98.415 Y103.355 E0.94624
G1 X103.355 Y98.415 E1.20996
G1 X103.355 Y97.69 E1.2373
G1 X97.69 Y103.355 E1.53969
G1 X96.966 Y103.355 E1.56703
G1 X103.355 Y96.966 E1.90808
G1 X103.355 Y96.242 E1.93542
G1 X96.242 Y103.355 E2.31513
G1 X95.518 Y103.355 E2.34247
G1 X103.355 Y95.518 E2.76084
G1 X103.355 Y94.794 E2.78818
G1 X94.794 Y103.355 E3.24522
G1 X94.07 Y103.355 E3.27256
G1 X103.355 Y94.07 E3.76826
G1 X103.355 Y93.345 E3.7956
G1 X93.345 Y103.355 E4.32996
G1 X92.621 Y103.355 E4.3573
G1 X103.355 Y92.621 E4.93032
G1 X103.355 Y91.897 E4.95766
G1 X91.897 Y103.355 E5.56935
G1 X91.173 Y103.355 E5.59669
G1 X103.355 Y91.173 E6.24704
G1 X103.355 Y90.449 E6.27437
G1 X90.449 Y103.355 E6.96339
G1 X89.724 Y103.355 E6.99072
G1 X103.355 Y89.724 E7.7184
G1 X103.355 Y89 E7.74574
G1 X89 Y103.355 E8.51207
G1 X88.276 Y103.355 E8.53941
G1 X103.355 Y88.276 E9.34441
G1 X103.355 Y87.552 E9.37175
G1 X87.552 Y103.355 E10.21541
G1 X86.828 Y103.355 E10.24275
G1 X103.355 Y86.828 E11.12507
G1 X103.355 Y86.103 E11.15241
G1 X86.103 Y103.355 E12.0734
G1 X85.379 Y103.355 E12.10073
G1 X103.355 Y85.379 E13.06038
G1 X103.355 Y84.655 E13.08772
G1 X84.655 Y103.355 E14.08603
G1 X83.931 Y103.355 E14.11337
G1 X103.355 Y83.931 E15.15034
G1 X103.355 Y83.207 E15.17768
G1 X83.207 Y103.355 E16.25332
G1 X82.482 Y103.355 E16.28065
G1 X103.355 Y82.482 E17.39495
G1 X103.355 Y81.758 E17.42229
G1 X81.758 Y103.355 E18.57525
G1 X81.034 Y103.355 E18.60259
G1 X103.355 Y81.034 E19.79421
G1 X103.355 Y80.31 E19.82155
G1 X80.31 Y103.355 E21.05183
G1 X79.586 Y103.355 E21.07917
G1 X103.355 Y79.586 E22.34812
G1 X103.355 Y78.862 E22.37546
G1 X78.862 Y103.355 E23.68307
G1 X78.137 Y103.355 E23.7104
G1 X103.355 Y78.137 E25.05667
G1 X103.355 Y77.413 E25.08401
G1 X77.413 Y103.355 E26.46895
G1 X76.689 Y103.355 E26.49629
G1 X103.355 Y76.689 E27.91988
G1 X103.355 Y76.645 E27.92152
G1 X102.674 Y76.645 E27.94722
G1 X76.645 Y102.674 E29.3368
G1 X76.645 Y101.95 E29.36414
G1 X101.95 Y76.645 E30.71506
G1 X101.226 Y76.645 E30.7424
G1 X76.645 Y101.226 E32.05465
G1 X76.645 Y100.501 E32.08199
G1 X100.501 Y76.645 E33.35559
G1 X99.777 Y76.645 E33.38292
G1 X76.645 Y99.777 E34.61786
G1 X76.645 Y99.053 E34.64519
G1 X99.053 Y76.645 E35.84146
G1 X98.329 Y76.645 E35.8688
G1 X76.645 Y98.329 E37.02641
G1 X76.645 Y97.605 E37.05375
G1 X97.605 Y76.645 E38.17269
G1 X96.88 Y76.645 E38.20003
G1 X76.645 Y96.88 E39.28031
G1 X76.645 Y96.156 E39.30765
G1 X96.156 Y76.645 E40.34927
G1 X95.432 Y76.645 E40.37661
G1 X76.645 Y95.432 E41.37957
G1 X76.645 Y94.708 E41.40691
G1 X94.708 Y76.645 E42.3712
G1 X93.984 Y76.645 E42.39854
G1 X76.645 Y93.984 E43.32418
G1 X76.645 Y93.259 E43.35151
G1 X93.259 Y76.645 E44.23848
G1 X92.535 Y76.645 E44.26582
G1 X76.645 Y92.535 E45.11413
G1 X76.645 Y91.811 E45.14147
G1 X91.811 Y76.645 E45.95112
G1 X91.087 Y76.645 E45.97845
G1 X76.645 Y91.087 E46.74944
G1 X76.645 Y90.363 E46.77678
G1 X90.363 Y76.645 E47.5091
G1 X89.638 Y76.645 E47.53644
G1 X76.645 Y89.638 E48.2301
G1 X76.645 Y88.914 E48.25744
G1 X88.914 Y76.645 E48.91243
G1 X88.19 Y76.645 E48.93977
G1 X76.645 Y88.19 E49.55611
G1 X76.645 Y87.466 E49.58344
G1 X87.466 Y76.645 E50.16112
G1 X86.742 Y76.645 E50.18846
G1 X76.645 Y86.742 E50.72747
G1 X76.645 Y86.018 E50.7548
G1 X86.018 Y76.645 E51.25515
G1 X85.293 Y76.645 E51.28249
G1 X76.645 Y85.293 E51.74418
G1 X76.645 Y84.569 E51.77151
G1 X84.569 Y76.645 E52.19454
G1 X83.845 Y76.645 E52.22188
G1 X76.645 Y83.845 E52.60624
G1 X76.645 Y83.121 E52.63358
G1 X83.121 Y76.645 E52.97927
G1 X82.397 Y76.645 E53.00661
G1 X76.645 Y82.397 E53.31365
G1 X76.645 Y81.672 E53.34099
G1 X81.672 Y76.645 E53.60936
G1 X80.948 Y76.645 E53.6367
G1 X76.645 Y80.948 E53.86641
G1 X76.645 Y80.224 E53.89375
G1 X80.224 Y76.645 E54.0848
G1 X79.5 Y76.645 E54.11214
G1 X76.645 Y79.5 E54.26452
G1 X76.645 Y78.776 E54.29186
G1 X78.776 Y76.645 E54.40559
G1 X78.051 Y76.645 E54.43293
G1 X76.645 Y78.051 E54.50799
G1 X76.645 Y77.327 E54.53533
G1 X77.547 Y76.425 E54.58348
M106 S147.9
;LAYER_CHANGE
;Z:0.775
;HEIGHT:0.2
; stop printing object EM_Cube-Unlabeled.stl id:0 copy 0
G1 Z0.775 F12000
; custom gcode: layer_gcode
M117 Layer 2
; custom gcode end: layer_gcode

G92 E0
G1 E-0.4 F2400
; printing object EM_Cube-Unlabeled.stl id:0 copy 0
G1 X76.272 Y76.272 F12000
G1 E0 F2400
;TYPE:Internal perimeter
;WIDTH:0.555
G1 F9000
G1 X103.728 Y76.272 E1.04049
G1 X103.728 Y103.728 E2.08099
G1 X76.272 Y103.728 E3.12148
G1 X76.272 Y76.347 E4.15913
G1 X75.76 Y75.76 F12000
G1 F9000
G1 X104.24 Y75.76 E5.23844
G1 X104.24 Y104.24 E6.31775
G1 X75.76 Y104.24 E7.39705
G1 X75.76 Y75.835 E8.47351
G1 X75.262 Y75.262 F12000
;TYPE:External perimeter
;WIDTH:0.525
G1 F4500
G1 X104.738 Y75.262 E9.52506
G1 X104.738 Y104.738 E10.5766
G1 X75.262 Y104.738 E11.62814
G1 X75.262 Y75.337 E12.67701
;WIPE_START
G1 X75.696 Y75.512 F12000
;WIPE_END
G92 E0
G1 E-0.4 F2400
G1 X76.425 Y102.453 F12000
G1 E0 F2400
;TYPE:Solid infill
;WIDTH:0.552869
G1 F4500
G1 X77.327 Y103.355 E0.04816
G1 X78.051 Y103.355 E0.07549
G1 X76.645 Y101.949 E0.15056
G1 X76.645 Y101.224 E0.17789
G1 X78.776 Y103.355 E0.29162
G1 X79.5 Y103.355 E0.31896
G1 X76.645 Y100.5 E0.47135
G1 X76.645 Y99.776 E0.49868
G1 X80.224 Y103.355 E0.68973
G1 X80.948 Y103.355 E0.71707
G1 X76.645 Y99.052 E0.94678
G1 X76.645 Y98.328 E0.97412
G1 X81.672 Y103.355 E1.2425
G1 X82.397 Y103.355 E1.26983
G1 X76.645 Y97.603 E1.57687
G1 X76.645 Y96.879 E1.60421
G1 X83.121 Y103.355 E1.94991
G1 X83.845 Y103.355 E1.97725
G1 X76.645 Y96.155 E2.36161
G1 X76.645 Y95.431 E2.38894
G1 X84.569 Y103.355 E2.81197
G1 X85.293 Y103.355 E2.83931
G1 X76.645 Y94.707 E3.30099
G1 X76.645 Y93.982 E3.32833
G1 X86.018 Y103.355 E3.82868
G1 X86.742 Y103.355 E3.85602
G1 X76.645 Y93.258 E4.39503
G1 X76.645 Y92.534 E4.42237
G1 X87.466 Y103.355 E5.00004
G1 X88.19 Y103.355 E5.02738
G1 X76.645 Y91.81 E5.64371
G1 X76.645 Y91.086 E5.67105
G1 X88.914 Y103.355 E6.32605
G1 X89.638 Y103.355 E6.35339
G1 X76.645 Y90.362 E7.04704
G1 X76.645 Y89.637 E7.07438
G1 X90.363 Y103.355 E7.8067
G1 X91.087 Y103.355 E7.83404
G1 X76.645 Y88.913 E8.60503
G1 X76.645 Y88.189 E8.63237
G1 X91.811 Y103.355 E9.44201
G1 X92.535 Y103.355 E9.46935
G1 X76.645 Y87.465 E10.31766
G1 X76.645 Y86.741 E10.345
G1 X93.259 Y103.355 E11.23197
G1 X93.984 Y103.355 E11.25931
G1 X76.645 Y86.016 E12.18494
G1 X76.645 Y85.292 E12.21228
G1 X94.708 Y103.355 E13.17657
G1 X95.432 Y103.355 E13.20391
G1 X76.645 Y84.568 E14.20687
G1 X76.645 Y83.844 E14.23421
G1 X96.156 Y103.355 E15.27583
G1 X96.88 Y103.355 E15.30317
G1 X76.645 Y83.12 E16.38345
G1 X76.645 Y82.395 E16.41079
G1 X97.605 Y103.355 E17.52973
G1 X98.329 Y103.355 E17.55707
G1 X76.645 Y81.671 E18.71468
G1 X76.645 Y80.947 E18.74202
G1 X99.053 Y103.355 E19.93829
G1 X99.777 Y103.355 E19.96563
G1 X76.645 Y80.223 E21.20056
G1 X76.645 Y79.499 E21.2279
G1 X100.501 Y103.355 E22.50149
G1 X101.226 Y103.355 E22.52883
G1 X76.645 Y78.774 E23.84109
G1 X76.645 Y78.05 E23.86842
G1 X101.95 Y103.355 E25.21934
G1 X102.674 Y103.355 E25.24668
G1 X76.645 Y77.326 E26.63626
G1 X76.645 Y76.645 E26.66196
G1 X76.689 Y76.645 E26.6636
G1 X103.355 Y103.311 E28.0872
G1 X103.355 Y102.587 E28.11454
G1 X77.413 Y76.645 E29.49947
G1 X78.137 Y76.645 E29.52681
G1 X103.355 Y101.863 E30.87308
G1 X103.355 Y101.138 E30.90042
G1 X78.862 Y76.645 E32.20803
G1 X79.586 Y76.645 E32.23536
