; generated by SuperSlicer 2.4 on 2023-04-01 at 19:08:54 UTC


;
;

;
;
; 

; external perimeters extrusion width = 0.52mm
; perimeters extrusion width = 0.46mm
; infill extrusion width = 0.60mm
; solid infill extrusion width = 0.48mm
; top infill extrusion width = 0.52mm
; first layer extrusion width = 0.70mm

; object:{"name":"EM_Cube-Unlabeled","id":"EM_Cube-Unlabeled.stl id:0 copy 0","object_center":[90.000000,90.000000,0.000000],"boundingbox_center":[90.000000,90.000000,1.500000],"boundingbox_size":[30.000000,30.000000,3.000000]}
; plater:{"center":[90.000000,90.000000,0.000000],"boundingbox_center":[90.000000,90.000000,1.500000],"boundingbox_size":[30.000000,30.000000,3.000000]}

;TYPE:Custom
; custom gcode: start_gcode
print_start EXTRUDER=260 BED=110 CHAMBER_TARGET=0
G21 ; set units to millimeters
G90 ; use absolute coordinates
M82 ; use absolute distances for extrusion
G92 E0
; custom gcode end: start_gcode
; custom gcode: start_filament_gcode
; Filament gcode
; custom gcode end: start_filament_gcode
;_TOOLCHANGE 0
;LAYER_CHANGE
;Z:0.375
;HEIGHT:0.375
G1 Z0.375 F12000
; custom gcode: layer_gcode
M117 Layer 0
; custom gcode end: layer_gcode

G1 E-0.4 F2400
G1 X69.123 Y70.464 F12000
G1 E0 F2400
;TYPE:Skirt
;WIDTH:0.65
G1 F1800
G1 X67.973 Y72.604 E0.19194
G1 X67.576 Y75 E0.38387
G1 X67.576 Y105 E2.75464
G1 X67.819 Y106.882 E2.90456
G1 X68.81 Y109.099 E3.09649
G1 X70.464 Y110.877 E3.28843
G1 X72.604 Y112.027 E3.48037
G1 X75 Y112.424 E3.6723
G1 X105 Y112.424 E6.04307
G1 X106.882 Y112.181 E6.19299
G1 X109.099 Y111.19 E6.38492
G1 X110.877 Y109.536 E6.57686
G1 X112.027 Y107.396 E6.7688
G1 X112.424 Y105 E6.96073
G1 X112.424 Y75 E9.3315
G1 X112.181 Y73.118 E9.48142
G1 X111.19 Y70.901 E9.67335
G1 X109.536 Y69.123 E9.86529
G1 X107.396 Y67.973 E10.05723
G1 X105 Y67.576 E10.24916
G1 X75 Y67.576 E12.61993
G1 X73.118 Y67.819 E12.76985
G1 X70.901 Y68.81 E12.96178
G1 X69.178 Y70.413 E13.14779
G1 X69.674 Y70.693 F12000
G1 F1800
G1 X68.543 Y72.701 E13.32993
G1 X68.146 Y75 E13.51431
G1 X68.146 Y105 E15.88508
G1 X68.286 Y106.379 E15.99462
G1 X69.137 Y108.551 E16.179
G1 X70.668 Y110.312 E16.36337
G1 X72.701 Y111.457 E16.54775
G1 X75 Y111.854 E16.73212
G1 X105 Y111.854 E19.10289
G1 X106.379 Y111.714 E19.21244
G1 X108.551 Y110.863 E19.39681
G1 X110.312 Y109.332 E19.58119
G1 X111.457 Y107.299 E19.76556
G1 X111.854 Y105 E19.94994
G1 X111.854 Y75 E22.3207
G1 X111.714 Y73.621 E22.43025
G1 X110.863 Y71.449 E22.61463
G1 X109.332 Y69.688 E22.799
G1 X107.299 Y68.543 E22.98338
G1 X105 Y68.146 E23.16775
G1 X75 Y68.146 E25.53852
G1 X73.621 Y68.286 E25.64806
G1 X71.449 Y69.137 E25.83244
G1 X69.723 Y70.638 E26.01312
G1 X70.222 Y70.934 F12000
G1 F1800
G1 X69.112 Y72.802 E26.18487
G1 X68.715 Y75 E26.36136
G1 X68.715 Y105 E28.73213
G1 X69.482 Y108.008 E28.97741
G1 X70.882 Y109.748 E29.1539
G1 X72.802 Y110.888 E29.33039
G1 X75 Y111.285 E29.50688
G1 X105 Y111.285 E31.87765
G1 X108.008 Y110.518 E32.12293
G1 X109.748 Y109.118 E32.29942
G1 X110.888 Y107.198 E32.47592
G1 X111.285 Y105 E32.65241
G1 X111.285 Y75 E35.02317
G1 X110.518 Y71.992 E35.26846
G1 X109.118 Y70.252 E35.44495
G1 X107.198 Y69.112 E35.62144
G1 X105 Y68.715 E35.79793
G1 X75 Y68.715 E38.1687
G1 X71.992 Y69.482 E38.41398
G1 X70.264 Y70.873 E38.58929
M104 S260 ; set temperature
G92 E0
G1 E-0.4 F2400
; printing object EM_Cube-Unlabeled.stl id:0 copy 0
G1 X76.589 Y76.589 F12000
G1 E0 F2400
;TYPE:Internal perimeter
;WIDTH:0.7
G1 F3600
G1 X103.411 Y76.589 E2.3057
G1 X103.411 Y103.411 E4.6114
G1 X76.589 Y103.411 E6.91711
G1 X76.589 Y76.664 E9.21636
G1 X75.97 Y75.97 F12000
G1 F3600
G1 X104.03 Y75.97 E11.62858
G1 X104.03 Y104.03 E14.04079
G1 X75.97 Y104.03 E16.45301
G1 X75.97 Y76.045 E18.85878
G1 X75.35 Y75.35 F12000
;TYPE:External perimeter
G1 F3600
G1 X104.65 Y75.35 E21.3775
G1 X104.65 Y104.65 E23.89623
G1 X75.35 Y104.65 E26.41496
G1 X75.35 Y75.425 E28.92724
;WIPE_START
G1 X75.783 Y75.6 F12000
;WIPE_END
G92 E0
G1 E-0.4 F2400
G1 X101.973 Y76.775 F12000
G1 E0 F2400
;TYPE:Solid infill
;WIDTH:0.694176
G1 F3600
G1 X102.959 Y77.761 E0.11886
G1 X102.959 Y78.637 E0.19355
G1 X101.363 Y77.041 E0.38593
G1 X100.487 Y77.041 E0.46062
G1 X102.959 Y79.513 E0.75862
G1 X102.959 Y80.389 E0.8333
G1 X99.611 Y77.041 E1.23693
G1 X98.735 Y77.041 E1.31162
G1 X102.959 Y81.265 E1.82087
G1 X102.959 Y82.142 E1.89556
G1 X97.858 Y77.041 E2.51044
G1 X96.982 Y77.041 E2.58513
G1 X102.959 Y83.018 E3.30564
G1 X102.959 Y83.894 E3.38033
G1 X96.106 Y77.041 E4.20646
G1 X95.23 Y77.041 E4.28115
G1 X102.959 Y84.77 E5.21291
G1 X102.959 Y85.646 E5.2876
G1 X94.354 Y77.041 E6.32499
G1 X93.478 Y77.041 E6.39968
G1 X102.959 Y86.522 E7.54269
G1 X102.959 Y87.398 E7.61738
G1 X92.602 Y77.041 E8.86602
G1 X91.726 Y77.041 E8.94071
G1 X102.959 Y88.274 E10.29497
G1 X102.959 Y89.151 E10.36966
G1 X90.849 Y77.041 E11.82956
G1 X89.973 Y77.041 E11.90424
G1 X102.959 Y90.027 E13.46976
G1 X102.959 Y90.903 E13.54445
G1 X89.097 Y77.041 E15.2156
G1 X88.221 Y77.041 E15.29029
G1 X102.959 Y91.779 E17.06706
G1 X102.959 Y92.655 E17.14175
G1 X87.345 Y77.041 E19.02415
G1 X86.469 Y77.041 E19.09884
G1 X102.959 Y93.531 E21.08687
G1 X102.959 Y94.407 E21.16155
G1 X85.593 Y77.041 E23.25521
G1 X84.716 Y77.041 E23.3299
G1 X102.959 Y95.284 E25.52918
G1 X102.959 Y96.16 E25.60386
G1 X83.84 Y77.041 E27.90877
G1 X82.964 Y77.041 E27.98346
G1 X102.959 Y97.036 E30.39399
G1 X102.959 Y97.912 E30.46868
G1 X82.088 Y77.041 E32.98484
G1 X81.212 Y77.041 E33.05953
G1 X102.959 Y98.788 E35.68132
G1 X102.959 Y99.664 E35.756
G1 X80.336 Y77.041 E38.48342
G1 X79.46 Y77.041 E38.55811
G1 X102.959 Y100.54 E41.39114
G1 X102.959 Y101.417 E41.46583
G1 X78.583 Y77.041 E44.4045
G1 X77.707 Y77.041 E44.47919
G1 X102.959 Y102.293 E47.52348
G1 X102.959 Y102.959 E47.58026
G1 X102.749 Y102.959 E47.59817
G1 X77.041 Y77.251 E50.69742
G1 X77.041 Y78.128 E50.77211
G1 X101.872 Y102.959 E53.76574
G1 X100.996 Y102.959 E53.84043
G1 X77.041 Y79.004 E56.72842
G1 X77.041 Y79.88 E56.80311
G1 X100.12 Y102.959 E59.58548
G1 X99.244 Y102.959 E59.66017
G1 X77.041 Y80.756 E62.33692
G1 X77.041 Y81.632 E62.41161
G1 X98.368 Y102.959 E64.98273
G1 X97.492 Y102.959 E65.05742
G1 X77.041 Y82.508 E67.52291
G1 X77.041 Y83.384 E67.5976
G1 X96.616 Y102.959 E69.95746
G1 X95.739 Y102.959 E70.03215
G1 X77.041 Y84.261 E72.28639
G1 X77.041 Y85.137 E72.36108
G1 X94.863 Y102.959 E74.50969
G1 X93.987 Y102.959 E74.58438
G1 X77.041 Y86.013 E76.62737
G1 X77.041 Y86.889 E76.70206
G1 X93.111 Y102.959 E78.63941
G1 X92.235 Y102.959 E78.7141
G1 X77.041 Y87.765 E80.54584
G1 X77.041 Y88.641 E80.62053
G1 X91.359 Y102.959 E82.34663
G1 X90.483 Y102.959 E82.42132
G1 X77.041 Y89.517 E84.0418
G1 X77.041 Y90.394 E84.11649
G1 X89.606 Y102.959 E85.63134
G1 X88.73 Y102.959 E85.70603
G1 X77.041 Y91.27 E87.11526
G1 X77.041 Y92.146 E87.18995
G1 X87.854 Y102.959 E88.49354
G1 X86.978 Y102.959 E88.56823
G1 X77.041 Y93.022 E89.76621
G1 X77.041 Y93.898 E89.8409
G1 X86.102 Y102.959 E90.93324
G1 X85.226 Y102.959 E91.00793
G1 X77.041 Y94.774 E91.99465
G1 X77.041 Y95.65 E92.06934
G1 X84.35 Y102.959 E92.95043
G1 X83.474 Y102.959 E93.02512
G1 X77.041 Y96.526 E93.80059
G1 X77.041 Y97.403 E93.87528
G1 X82.597 Y102.959 E94.54512
G1 X81.721 Y102.959 E94.61981
G1 X77.041 Y98.279 E95.18402
G1 X77.041 Y99.155 E95.25871
G1 X80.845 Y102.959 E95.71729
G1 X79.969 Y102.959 E95.79198
G1 X77.041 Y100.031 E96.14494
G1 X77.041 Y100.907 E96.21963
G1 X79.093 Y102.959 E96.46696
G1 X78.217 Y102.959 E96.54165
G1 X77.041 Y101.783 E96.68336
G1 X77.041 Y102.659 E96.75805
G1 X77.607 Y103.225 E96.82625
M106 S127.5
;LAYER_CHANGE
;Z:0.575
;HEIGHT:0.2
; stop printing object EM_Cube-Unlabeled.stl id:0 copy 0
G1 Z0.575 F12000
; custom gcode: layer_gcode
M117 Layer 1
; custom gcode end: layer_gcode

M140 S110 ; set bed temperature
G92 E0
G1 E-0.4 F2400
; printing object EM_Cube-Unlabeled.stl id:0 copy 0
G1 X76.129 Y103.871 F12000
G1 E0 F2400
;TYPE:Internal perimeter
;WIDTH:0.46
G1 F9000
G1 X76.129 Y76.129 E0.85626
G1 X103.871 Y76.129 E1.71252
G1 X103.871 Y103.871 E2.56878
G1 X76.204 Y103.871 E3.42273
G1 X75.712 Y104.288 F12000
G1 F9000
G1 X75.712 Y75.712 E4.30473
G1 X104.288 Y75.712 E5.18674
G1 X104.288 Y104.288 E6.06875
G1 X75.787 Y104.288 E6.94844
G1 X75.262 Y104.738 F12000
;TYPE:External perimeter
;WIDTH:0.525
G1 F4500
G1 X75.262 Y75.262 E7.99998
G1 X104.738 Y75.262 E9.05153
G1 X104.738 Y104.738 E10.10307
G1 X75.337 Y104.738 E11.15193
;WIPE_START
G1 X75.512 Y104.304 F12000
;WIPE_END
G92 E0
G1 E-0.4 F2400
G1 X102.864 Y103.747 F12000
G1 E0 F2400
;TYPE:Solid infill
;WIDTH:0.479654
G1 F4500
G1 X103.559 Y103.052 E0.0318
G1 X103.559 Y102.434 E0.05178
G1 X102.434 Y103.559 E0.10324
G1 X101.815 Y103.559 E0.12321
G1 X103.559 Y101.815 E0.20293
G1 X103.559 Y101.197 E0.22291
G1 X101.197 Y103.559 E0.33088
G1 X100.579 Y103.559 E0.35086
G1 X103.559 Y100.579 E0.48708
G1 X103.559 Y99.961 E0.50706
G1 X99.961 Y103.559 E0.67154
G1 X99.343 Y103.559 E0.69152
G1 X103.559 Y99.343 E0.88425
G1 X103.559 Y98.725 E0.90423
G1 X98.725 Y103.559 E1.12522
G1 X98.107 Y103.559 E1.1452
G1 X103.559 Y98.107 E1.39444
G1 X103.559 Y97.489 E1.41442
G1 X97.489 Y103.559 E1.69192
G1 X96.87 Y103.559 E1.7119
G1 X103.559 Y96.87 E2.01765
G1 X103.559 Y96.252 E2.03763
G1 X96.252 Y103.559 E2.37164
G1 X95.634 Y103.559 E2.39162
G1 X103.559 Y95.634 E2.75388
G1 X103.559 Y95.016 E2.77386
G1 X95.016 Y103.559 E3.16438
G1 X94.398 Y103.559 E3.18436
G1 X103.559 Y94.398 E3.60313
G1 X103.559 Y93.78 E3.62311
G1 X93.78 Y103.559 E4.07014
G1 X93.162 Y103.559 E4.09011
G1 X103.559 Y93.162 E4.5654
G1 X103.559 Y92.544 E4.58537
G1 X92.544 Y103.559 E5.08891
G1 X91.925 Y103.559 E5.10889
G1 X103.559 Y91.925 E5.64068
G1 X103.559 Y91.307 E5.66066
G1 X91.307 Y103.559 E6.22071
G1 X90.689 Y103.559 E6.24068
G1 X103.559 Y90.689 E6.82899
G1 X103.559 Y90.071 E6.84896
G1 X90.071 Y103.559 E7.46552
G1 X89.453 Y103.559 E7.4855
G1 X103.559 Y89.453 E8.13031
G1 X103.559 Y88.835 E8.15029
G1 X88.835 Y103.559 E8.82335
G1 X88.217 Y103.559 E8.84333
G1 X103.559 Y88.217 E9.54465
G1 X103.559 Y87.599 E9.56463
G1 X87.599 Y103.559 E10.2942
G1 X86.98 Y103.559 E10.31418
G1 X103.559 Y86.98 E11.07201
G1 X103.559 Y86.362 E11.09199
G1 X86.362 Y103.559 E11.87808
G1 X85.744 Y103.559 E11.89805
G1 X103.559 Y85.744 E12.71239
G1 X103.559 Y85.126 E12.73237
G1 X85.126 Y103.559 E13.57497
G1 X84.508 Y103.559 E13.59494
G1 X103.559 Y84.508 E14.46579
G1 X103.559 Y83.89 E14.48577
G1 X83.89 Y103.559 E15.38487
G1 X83.272 Y103.559 E15.40485
G1 X103.559 Y83.272 E16.33221
G1 X103.559 Y82.654 E16.35219
G1 X82.654 Y103.559 E17.3078
G1 X82.035 Y103.559 E17.32778
G1 X103.559 Y82.035 E18.31165
G1 X103.559 Y81.417 E18.33163
G1 X81.417 Y103.559 E19.34375
G1 X80.799 Y103.559 E19.36373
G1 X103.559 Y80.799 E20.4041
G1 X103.559 Y80.181 E20.42408
G1 X80.181 Y103.559 E21.49272
G1 X79.563 Y103.559 E21.51269
G1 X103.559 Y79.563 E22.60958
G1 X103.559 Y78.945 E22.62956
G1 X78.945 Y103.559 E23.7547
G1 X78.327 Y103.559 E23.77468
G1 X103.559 Y78.327 E24.92807
G1 X103.559 Y77.709 E24.94805
G1 X77.709 Y103.559 E26.1297
G1 X77.09 Y103.559 E26.14968
G1 X103.559 Y77.09 E27.35959
G1 X103.559 Y76.472 E27.37957
G1 X76.472 Y103.559 E28.61773
G1 X76.441 Y103.559 E28.61875
G1 X76.441 Y102.973 E28.63771
G1 X102.973 Y76.441 E29.8505
G1 X102.355 Y76.441 E29.87048
G1 X76.441 Y102.355 E31.05503
G1 X76.441 Y101.737 E31.07501
G1 X101.737 Y76.441 E32.23129
G1 X101.118 Y76.441 E32.25127
G1 X76.441 Y101.118 E33.37931
G1 X76.441 Y100.5 E33.39929
G1 X100.5 Y76.441 E34.49906
G1 X99.882 Y76.441 E34.51904
G1 X76.441 Y99.882 E35.59057
G1 X76.441 Y99.264 E35.61055
G1 X99.264 Y76.441 E36.65382
G1 X98.646 Y76.441 E36.67379
G1 X76.441 Y98.646 E37.68881
G1 X76.441 Y98.028 E37.70879
G1 X98.028 Y76.441 E38.69555
G1 X97.41 Y76.441 E38.71553
G1 X76.441 Y97.41 E39.67403
G1 X76.441 Y96.792 E39.69401
G1 X96.792 Y76.441 E40.62426
G1 X96.173 Y76.441 E40.64424
G1 X76.441 Y96.173 E41.54624
G1 X76.441 Y95.555 E41.56621
G1 X95.555 Y76.441 E42.43996
G1 X94.937 Y76.441 E42.45993
G1 X76.441 Y94.937 E43.30542
G1 X76.441 Y94.319 E43.3254
G1 X94.319 Y76.441 E44.14263
G1 X93.701 Y76.441 E44.16261
G1 X76.441 Y93.701 E44.95159
G1 X76.441 Y93.083 E44.97157
G1 X93.083 Y76.441 E45.73229
G1 X92.465 Y76.441 E45.75227
G1 X76.441 Y92.465 E46.48473
G1 X76.441 Y91.847 E46.50471
G1 X91.847 Y76.441 E47.20892
G1 X91.228 Y76.441 E47.2289
G1 X76.441 Y91.228 E47.90486
G1 X76.441 Y90.61 E47.92484
G1 X90.61 Y76.441 E48.57254
G1 X89.992 Y76.441 E48.59252
G1 X76.441 Y89.992 E49.21197
G1 X76.441 Y89.374 E49.23195
G1 X89.374 Y76.441 E49.82314
G1 X88.756 Y76.441 E49.84312
G1 X76.441 Y88.756 E50.40606
G1 X76.441 Y88.138 E50.42604
G1 X88.138 Y76.441 E50.96072
G1 X87.52 Y76.441 E50.9807
G1 X76.441 Y87.52 E51.48713
G1 X76.441 Y86.902 E51.50711
G1 X86.902 Y76.441 E51.98528
G1 X86.283 Y76.441 E52.00526
G1 X76.441 Y86.283 E52.45518
G1 X76.441 Y85.665 E52.47516
G1 X85.665 Y76.441 E52.89683
G1 X85.047 Y76.441 E52.9168
G1 X76.441 Y85.047 E53.31021
G1 X76.441 Y84.429 E53.33019
G1 X84.429 Y76.441 E53.69535
G1 X83.811 Y76.441 E53.71533
G1 X76.441 Y83.811 E54.05223
G1 X76.441 Y83.193 E54.07221
G1 X83.193 Y76.441 E54.38085
G1 X82.575 Y76.441 E54.40083
G1 X76.441 Y82.575 E54.68122
G1 X76.441 Y81.957 E54.7012
G1 X81.957 Y76.441 E54.95334
G1 X81.339 Y76.441 E54.97332
G1 X76.441 Y81.339 E55.1972
G1 X76.441 Y80.72 E55.21718
G1 X80.72 Y76.441 E55.41281
G1 X80.102 Y76.441 E55.43278
G1 X76.441 Y80.102 E55.60016
G1 X76.441 Y79.484 E55.62014
G1 X79.484 Y76.441 E55.75925
G1 X78.866 Y76.441 E55.77923
G1 X76.441 Y78.866 E55.89009
G1 X76.441 Y78.248 E55.91007
G1 X78.248 Y76.441 E55.99268
G1 X77.63 Y76.441 E56.01266
G1 X76.441 Y77.63 E56.06701
G1 X76.441 Y77.012 E56.08699
G1 X77.2 Y76.253 E56.12168
M106 S255
;LAYER_CHANGE
;Z:0.775
;HEIGHT:0.2
; stop printing object EM_Cube-Unlabeled.stl id:0 copy 0
G1 Z0.775 F12000
; custom gcode: layer_gcode
M117 Layer 2
; custom gcode end: layer_gcode

G92 E0
G1 E-0.4 F2400
; printing object EM_Cube-Unlabeled.stl id:0 copy 0
G1 X76.129 Y76.129 F12000
G1 E0 F2400
;TYPE:Internal perimeter
;WIDTH:0.46
G1 F9000
G1 X103.871 Y76.129 E0.85626
G1 X103.871 Y103.871 E1.71252
G1 X76.129 Y103.871 E2.56878
G1 X76.129 Y76.204 E3.42273
G1 X75.712 Y75.712 F12000
G1 F9000
G1 X104.288 Y75.712 E4.30473
G1 X104.288 Y104.288 E5.18674
G1 X75.712 Y104.288 E6.06875
G1 X75.712 Y75.787 E6.94844
G1 X75.262 Y75.262 F12000
;TYPE:External perimeter
;WIDTH:0.525
G1 F4500
G1 X104.738 Y75.262 E7.99998
G1 X104.738 Y104.738 E9.05153
G1 X75.262 Y104.738 E10.10307
G1 X75.262 Y75.337 E11.15193
;WIPE_START
G1 X75.696 Y75.512 F12000
;WIPE_END
G92 E0
G1 E-0.4 F2400
G1 X76.253 Y102.8 F12000
G1 E0 F2400
;TYPE:Solid infill
;WIDTH:0.479654
G1 F4500
G1 X77.012 Y103.559 E0.03469
G1 X77.63 Y103.559 E0.05467
G1 X76.441 Y102.37 E0.10902
G1 X76.441 Y101.752 E0.129
G1 X78.248 Y103.559 E0.21161
G1 X78.866 Y103.559 E0.23159
G1 X76.441 Y101.134 E0.34245
G1 X76.441 Y100.516 E0.36243
G1 X79.484 Y103.559 E0.50155
G1 X80.102 Y103.559 E0.52152
G1 X76.441 Y99.898 E0.6889
G1 X76.441 Y99.28 E0.70888
G1 X80.72 Y103.559 E0.9045
G1 X81.339 Y103.559 E0.92448
G1 X76.441 Y98.661 E1.14836
G1 X76.441 Y98.043 E1.16834
G1 X81.957 Y103.559 E1.42048
G1 X82.575 Y103.559 E1.44046
G1 X76.441 Y97.425 E1.72085
G1 X76.441 Y96.807 E1.74083
G1 X83.193 Y103.559 E2.04947
G1 X83.811 Y103.559 E2.06945
G1 X76.441 Y96.189 E2.40635
G1 X76.441 Y95.571 E2.42633
G1 X84.429 Y103.559 E2.79149
G1 X85.047 Y103.559 E2.81147
G1 X76.441 Y94.953 E3.20488
G1 X76.441 Y94.335 E3.22486
G1 X85.665 Y103.559 E3.64652
G1 X86.283 Y103.559 E3.6665
G1 X76.441 Y93.717 E4.11642
G1 X76.441 Y93.098 E4.1364
G1 X86.902 Y103.559 E4.61457
G1 X87.52 Y103.559 E4.63455
G1 X76.441 Y92.48 E5.14098
G1 X76.441 Y91.862 E5.16096
G1 X88.138 Y103.559 E5.69564
G1 X88.756 Y103.559 E5.71562
G1 X76.441 Y91.244 E6.27856
G1 X76.441 Y90.626 E6.29854
G1 X89.374 Y103.559 E6.88973
G1 X89.992 Y103.559 E6.90971
G1 X76.441 Y90.008 E7.52916
G1 X76.441 Y89.39 E7.54914
G1 X90.61 Y103.559 E8.19684
G1 X91.228 Y103.559 E8.21682
G1 X76.441 Y88.772 E8.89278
G1 X76.441 Y88.153 E8.91276
G1 X91.847 Y103.559 E9.61697
G1 X92.465 Y103.559 E9.63695
G1 X76.441 Y87.535 E10.36941
G1 X76.441 Y86.917 E10.38939
G1 X93.083 Y103.559 E11.15012
