
; ### Ellis' Pressure Advance / Linear Advance Calibration Tool ###
;
; Original Marlin linear advance calibration tool by Sineos [https://github.com/Sineos]
; Heavily modified/rewritten by Andrew Ellis [https://github.com/AndrewEllis93]
;
; -------------------------------------------
; Generated: Mon Apr 03 2023 14:51:20 GMT-0400 (Eastern Daylight Time)
; -------------------------------------------
;
; Advanced Mode: false
;
; Printer:
;  - Firmware: klipper
;  - Bed Shape: Rect
;  - Bed Size X: 180 mm
;  - Bed Size Y: 180 mm
;  - Origin Bed Center: false
;  - Travel Speed: 200 mm/s
;  - Nozzle Diameter: 0.5 mm
;  - Filament Diameter: 1.75 mm
;  - Extrusion Multiplier: 0.92
;
; Retraction / Z Hop:
;  - Retraction Distance: 0.5 mm
;  - Retract Speed: 35 mm/s
;  - Unretract Speed: 35 mm/s
;  - Z Hop Enable: true
;  - Z Hop Height: 0.1mm
;
; First Layer Settings:
;  - First Layer Height: 0.25 mm
;  - First Layer Printing Speed: 30 mm/s
;  - First Layer Fan Speed: 0%
;  - Anchor Option: anchor_frame
;
; Print Settings:
;  - Layer Height: 0.2 mm
;  - Print Speed: 200 mm/s
;  - Acceleration: 8000 mm/s^2
;  - Fan Speed: 100%
;
; Pressure Advance Stepping:
;  - PA Start Value: 0
;  - PA End Value: 0.08
;  - PA Increment: 0.005
;
; Start / End G-code:
;  - Hotend Temp: 260C
;  - Bed Temp: 110C
;  - Don't Add G28: false
;  - Don't Add Heating G-Codes: false
;
; Calculated Values:
;  - Print Size X: 92.4 mm
;  - Print Size Y: 54.13 mm
;  - Number of Patterns to Print: 17
;  - PA Values: 0, 0.005, 0.01, 0.015, 0.02, 0.025, 0.03, 0.035, 0.04, 0.045, 0.05, 0.055, 0.06, 0.065, 0.07, 0.075, 0.08
;
; Prepare printing
;
G28 ; Home all axes
M190 S110 ; Set & wait for bed temp
M109 S260 ; Set & wait for hotend temp
PRINT_START ; Start macro
; START_PRINT ; Start macro (alternate / official start macro name)
G21 ; Millimeter units
G90 ; Absolute XYZ
M83 ; Relative E
G92 E0 ; Reset extruder distance
;
;  Begin printing
;
M106 S0 ; Set fan speed
SET_VELOCITY_LIMIT ACCEL=8000 ; Set printing acceleration
G1 E-0.5 F2100 ; Retract
G0 Z5 F12000 ; Z raise
G0 X43.8015 Y62.9368 F12000 ; Move to start position
G0 Z0.25 F12000 ; Move to start layer height
G1 E0.5 F2100 ; Un-retract
SET_PRESSURE_ADVANCE ADVANCE=0 ; Set pressure advance to start value
M117 PA 0
G1 X43.8015 Y105.3632 E2.6222 F1800 ; Draw perimeter (up)
G1 X136.1985 Y105.3632 E5.71067 F1800 ; Draw perimeter (right)
G1 X136.1985 Y62.9368 E2.6222 F1800 ; Draw perimeter (down)
G1 X43.8015 Y62.9368 E5.71067 F1800 ; Draw perimeter (left)
G0 X44.4479 Y63.5831 F12000 ; Step inwards to print next perimeter
G1 X44.4479 Y104.7169 E2.5423 F1800 ; Draw perimeter (up)
G1 X135.5521 Y104.7169 E5.63077 F1800 ; Draw perimeter (right)
G1 X135.5521 Y63.5831 E2.5423 F1800 ; Draw perimeter (down)
G1 X44.4479 Y63.5831 E5.63077 F1800 ; Draw perimeter (left)
G0 X45.0942 Y64.2295 F12000 ; Step inwards to print next perimeter
G1 X45.0942 Y104.0705 E2.46241 F1800 ; Draw perimeter (up)
G1 X134.9058 Y104.0705 E5.55087 F1800 ; Draw perimeter (right)
G1 X134.9058 Y64.2295 E2.46241 F1800 ; Draw perimeter (down)
G1 X45.0942 Y64.2295 E5.55087 F1800 ; Draw perimeter (left)
G0 X45.7406 Y64.8758 F12000 ; Step inwards to print next perimeter
G1 X45.7406 Y103.4242 E2.38251 F1800 ; Draw perimeter (up)
G1 X134.2594 Y103.4242 E5.47098 F1800 ; Draw perimeter (right)
G1 X134.2594 Y64.8758 E2.38251 F1800 ; Draw perimeter (down)
G1 X45.7406 Y64.8758 E5.47098 F1800 ; Draw perimeter (left)
G1 E-0.5 F2100 ; Retract
G1 Z0.35 F12000 ; Z hop
G0 X43.8015 Y106.0096 F12000 ; Move to box start
G1 Z0.25 F12000 ; Z hop return
G1 E0.5 F2100 ; Un-retract
G1 X43.8015 Y117.6559 E0.71981 F1800 ; Draw perimeter (up)
G1 X114.9726 Y117.6559 E4.39879 F1800 ; Draw perimeter (right)
G1 X114.9726 Y106.0096 E0.71981 F1800 ; Draw perimeter (down)
G1 X43.8015 Y106.0096 E4.39879 F1800 ; Draw perimeter (left)
G0 X44.4479 Y106.6559 F12000 ; Step inwards to print next perimeter
G1 X44.4479 Y117.0096 E0.63992 F1800 ; Draw perimeter (up)
G1 X114.3263 Y117.0096 E4.31889 F1800 ; Draw perimeter (right)
G1 X114.3263 Y106.6559 E0.63992 F1800 ; Draw perimeter (down)
G1 X44.4479 Y106.6559 E4.31889 F1800 ; Draw perimeter (left)
G0 X45.0942 Y107.3023 F12000 ; Step inwards to print next perimeter
G1 X45.0942 Y116.3632 E0.56002 F1800 ; Draw perimeter (up)
G1 X113.6799 Y116.3632 E4.23899 F1800 ; Draw perimeter (right)
G1 X113.6799 Y107.3023 E0.56002 F1800 ; Draw perimeter (down)
G1 X45.0942 Y107.3023 E4.23899 F1800 ; Draw perimeter (left)
G0 X45.7406 Y107.9486 F12000 ; Step inwards to print next perimeter
G1 X45.7406 Y115.7169 E0.48012 F1800 ; Draw perimeter (up)
G1 X113.0336 Y115.7169 E4.1591 F1800 ; Draw perimeter (right)
G1 X113.0336 Y107.9486 E0.48012 F1800 ; Draw perimeter (down)
G1 X45.7406 Y107.9486 E4.1591 F1800 ; Draw perimeter (left)
G0 X46.2073 Y108.4153 F12000 ; Move to fill start
G0 X47.1213 Y108.4153 F12000 ; Move
G1 X46.2073 Y109.3293 E0.0799 F1800 ; Fill
G0 X46.2073 Y110.2434 F12000 ; Move
G1 X48.0354 Y108.4153 E0.15979 F1800 ; Fill
G0 X48.9495 Y108.4153 F12000 ; Move
G1 X46.2073 Y111.1575 E0.23969 F1800 ; Fill
G0 X46.2073 Y112.0716 F12000 ; Move
G1 X49.8636 Y108.4153 E0.31959 F1800 ; Fill
G0 X50.7776 Y108.4153 F12000 ; Move
G1 X46.2073 Y112.9857 E0.39948 F1800 ; Fill
G0 X46.2073 Y113.8997 F12000 ; Move
G1 X51.6917 Y108.4153 E0.47938 F1800 ; Fill
G0 X52.6058 Y108.4153 F12000 ; Move
G1 X46.2073 Y114.8138 E0.55927 F1800 ; Fill
G0 X46.685 Y115.2502 F12000 ; Move
G1 X53.5199 Y108.4153 E0.59742 F1800 ; Fill
G0 X54.434 Y108.4153 F12000 ; Move
G1 X47.599 Y115.2502 E0.59742 F1800 ; Fill
G0 X48.5131 Y115.2502 F12000 ; Move
G1 X55.348 Y108.4153 E0.59742 F1800 ; Fill
G0 X56.2621 Y108.4153 F12000 ; Move
G1 X49.4272 Y115.2502 E0.59742 F1800 ; Fill
G0 X50.3413 Y115.2502 F12000 ; Move
G1 X57.1762 Y108.4153 E0.59742 F1800 ; Fill
G0 X58.0903 Y108.4153 F12000 ; Move
G1 X51.2553 Y115.2502 E0.59742 F1800 ; Fill
G0 X52.1694 Y115.2502 F12000 ; Move
G1 X59.0043 Y108.4153 E0.59742 F1800 ; Fill
G0 X59.9184 Y108.4153 F12000 ; Move
G1 X53.0835 Y115.2502 E0.59742 F1800 ; Fill
G0 X53.9976 Y115.2502 F12000 ; Move
G1 X60.8325 Y108.4153 E0.59742 F1800 ; Fill
G0 X61.7466 Y108.4153 F12000 ; Move
G1 X54.9116 Y115.2502 E0.59742 F1800 ; Fill
G0 X55.8257 Y115.2502 F12000 ; Move
G1 X62.6606 Y108.4153 E0.59742 F1800 ; Fill
G0 X63.5747 Y108.4153 F12000 ; Move
G1 X56.7398 Y115.2502 E0.59742 F1800 ; Fill
G0 X57.6539 Y115.2502 F12000 ; Move
G1 X64.4888 Y108.4153 E0.59742 F1800 ; Fill
G0 X65.4029 Y108.4153 F12000 ; Move
G1 X58.5679 Y115.2502 E0.59742 F1800 ; Fill
G0 X59.482 Y115.2502 F12000 ; Move
G1 X66.3169 Y108.4153 E0.59742 F1800 ; Fill
G0 X67.231 Y108.4153 F12000 ; Move
G1 X60.3961 Y115.2502 E0.59742 F1800 ; Fill
G0 X61.3102 Y115.2502 F12000 ; Move
G1 X68.1451 Y108.4153 E0.59742 F1800 ; Fill
G0 X69.0592 Y108.4153 F12000 ; Move
G1 X62.2243 Y115.2502 E0.59742 F1800 ; Fill
G0 X63.1383 Y115.2502 F12000 ; Move
G1 X69.9732 Y108.4153 E0.59742 F1800 ; Fill
G0 X70.8873 Y108.4153 F12000 ; Move
G1 X64.0524 Y115.2502 E0.59742 F1800 ; Fill
G0 X64.9665 Y115.2502 F12000 ; Move
G1 X71.8014 Y108.4153 E0.59742 F1800 ; Fill
G0 X72.7155 Y108.4153 F12000 ; Move
G1 X65.8806 Y115.2502 E0.59742 F1800 ; Fill
G0 X66.7946 Y115.2502 F12000 ; Move
G1 X73.6296 Y108.4153 E0.59742 F1800 ; Fill
G0 X74.5436 Y108.4153 F12000 ; Move
G1 X67.7087 Y115.2502 E0.59742 F1800 ; Fill
G0 X68.6228 Y115.2502 F12000 ; Move
G1 X75.4577 Y108.4153 E0.59742 F1800 ; Fill
G0 X76.3718 Y108.4153 F12000 ; Move
G1 X69.5369 Y115.2502 E0.59742 F1800 ; Fill
G0 X70.4509 Y115.2502 F12000 ; Move
G1 X77.2859 Y108.4153 E0.59742 F1800 ; Fill
G0 X78.1999 Y108.4153 F12000 ; Move
G1 X71.365 Y115.2502 E0.59742 F1800 ; Fill
G0 X72.2791 Y115.2502 F12000 ; Move
G1 X79.114 Y108.4153 E0.59742 F1800 ; Fill
G0 X80.0281 Y108.4153 F12000 ; Move
G1 X73.1932 Y115.2502 E0.59742 F1800 ; Fill
G0 X74.1072 Y115.2502 F12000 ; Move
G1 X80.9422 Y108.4153 E0.59742 F1800 ; Fill
G0 X81.8562 Y108.4153 F12000 ; Move
G1 X75.0213 Y115.2502 E0.59742 F1800 ; Fill
G0 X75.9354 Y115.2502 F12000 ; Move
G1 X82.7703 Y108.4153 E0.59742 F1800 ; Fill
G0 X83.6844 Y108.4153 F12000 ; Move
G1 X76.8495 Y115.2502 E0.59742 F1800 ; Fill
G0 X77.7635 Y115.2502 F12000 ; Move
G1 X84.5985 Y108.4153 E0.59742 F1800 ; Fill
G0 X85.5125 Y108.4153 F12000 ; Move
G1 X78.6776 Y115.2502 E0.59742 F1800 ; Fill
G0 X79.5917 Y115.2502 F12000 ; Move
G1 X86.4266 Y108.4153 E0.59742 F1800 ; Fill
G0 X87.3407 Y108.4153 F12000 ; Move
G1 X80.5058 Y115.2502 E0.59742 F1800 ; Fill
G0 X81.4199 Y115.2502 F12000 ; Move
G1 X88.2548 Y108.4153 E0.59742 F1800 ; Fill
G0 X89.1688 Y108.4153 F12000 ; Move
G1 X82.3339 Y115.2502 E0.59742 F1800 ; Fill
G0 X83.248 Y115.2502 F12000 ; Move
G1 X90.0829 Y108.4153 E0.59742 F1800 ; Fill
G0 X90.997 Y108.4153 F12000 ; Move
G1 X84.1621 Y115.2502 E0.59742 F1800 ; Fill
G0 X85.0762 Y115.2502 F12000 ; Move
G1 X91.9111 Y108.4153 E0.59742 F1800 ; Fill
G0 X92.8252 Y108.4153 F12000 ; Move
G1 X85.9902 Y115.2502 E0.59742 F1800 ; Fill
G0 X86.9043 Y115.2502 F12000 ; Move
G1 X93.7392 Y108.4153 E0.59742 F1800 ; Fill
G0 X94.6533 Y108.4153 F12000 ; Move
G1 X87.8184 Y115.2502 E0.59742 F1800 ; Fill
G0 X88.7325 Y115.2502 F12000 ; Move
G1 X95.5674 Y108.4153 E0.59742 F1800 ; Fill
G0 X96.4815 Y108.4153 F12000 ; Move
G1 X89.6465 Y115.2502 E0.59742 F1800 ; Fill
G0 X90.5606 Y115.2502 F12000 ; Move
G1 X97.3955 Y108.4153 E0.59742 F1800 ; Fill
G0 X98.3096 Y108.4153 F12000 ; Move
G1 X91.4747 Y115.2502 E0.59742 F1800 ; Fill
G0 X92.3888 Y115.2502 F12000 ; Move
G1 X99.2237 Y108.4153 E0.59742 F1800 ; Fill
G0 X100.1378 Y108.4153 F12000 ; Move
G1 X93.3028 Y115.2502 E0.59742 F1800 ; Fill
G0 X94.2169 Y115.2502 F12000 ; Move
G1 X101.0518 Y108.4153 E0.59742 F1800 ; Fill
G0 X101.9659 Y108.4153 F12000 ; Move
G1 X95.131 Y115.2502 E0.59742 F1800 ; Fill
G0 X96.0451 Y115.2502 F12000 ; Move
G1 X102.88 Y108.4153 E0.59742 F1800 ; Fill
G0 X103.7941 Y108.4153 F12000 ; Move
G1 X96.9592 Y115.2502 E0.59742 F1800 ; Fill
G0 X97.8732 Y115.2502 F12000 ; Move
G1 X104.7081 Y108.4153 E0.59742 F1800 ; Fill
G0 X105.6222 Y108.4153 F12000 ; Move
G1 X98.7873 Y115.2502 E0.59742 F1800 ; Fill
G0 X99.7014 Y115.2502 F12000 ; Move
G1 X106.5363 Y108.4153 E0.59742 F1800 ; Fill
G0 X107.4504 Y108.4153 F12000 ; Move
G1 X100.6155 Y115.2502 E0.59742 F1800 ; Fill
G0 X101.5295 Y115.2502 F12000 ; Move
G1 X108.3645 Y108.4153 E0.59742 F1800 ; Fill
G0 X109.2785 Y108.4153 F12000 ; Move
G1 X102.4436 Y115.2502 E0.59742 F1800 ; Fill
G0 X103.3577 Y115.2502 F12000 ; Move
G1 X110.1926 Y108.4153 E0.59742 F1800 ; Fill
G0 X111.1067 Y108.4153 F12000 ; Move
G1 X104.2718 Y115.2502 E0.59742 F1800 ; Fill
G0 X105.1858 Y115.2502 F12000 ; Move
G1 X112.0208 Y108.4153 E0.59742 F1800 ; Fill
G0 X112.5669 Y108.7832 F12000 ; Move
G1 X106.0999 Y115.2502 E0.56526 F1800 ; Fill
G0 X107.014 Y115.2502 F12000 ; Move
G1 X112.5669 Y109.6973 E0.48536 F1800 ; Fill
G0 X112.5669 Y110.6113 F12000 ; Move
G1 X107.9281 Y115.2502 E0.40547 F1800 ; Fill
G0 X108.8421 Y115.2502 F12000 ; Move
G1 X112.5669 Y111.5254 E0.32557 F1800 ; Fill
G0 X112.5669 Y112.4395 F12000 ; Move
G1 X109.7562 Y115.2502 E0.24567 F1800 ; Fill
G0 X110.6703 Y115.2502 F12000 ; Move
G1 X112.5669 Y113.3536 E0.16578 F1800 ; Fill
G0 X112.5669 Y114.2676 F12000 ; Move
G1 X111.5844 Y115.2502 E0.08588 F1800 ; Fill
G0 Z0.25 F12000 ; Move to layer height
G1 E-0.5 F2100 ; Retract
G1 Z0.35 F12000 ; Z hop
G0 X48.8225 Y65.3425 F12000 ; Move to pattern start

G1 Z0.25 F12000 ; Z hop return
G1 E0.5 F2100 ; Un-retract
SET_PRESSURE_ADVANCE ADVANCE=0 ; Set pressure advance
M117 PA 0
G1 X67.63 Y84.15 E1.29419 F1800 ; Print pattern wall
G1 X48.8225 Y102.9575 E1.29419 F1800 ; Print pattern wall
G1 E-0.5 F2100 ; Retract
G1 Z0.35 F12000 ; Z hop
G0 X49.5573 Y65.3425 F12000 ; Move to start next pattern wall
G1 Z0.25 F12000 ; Z hop return
G1 E0.5 F2100 ; Un-retract
G1 X68.3648 Y84.15 E1.29419 F1800 ; Print pattern wall
G1 X49.5573 Y102.9575 E1.29419 F1800 ; Print pattern wall
G1 E-0.5 F2100 ; Retract
G1 Z0.35 F12000 ; Z hop
G0 X50.2921 Y65.3425 F12000 ; Move to start next pattern wall
G1 Z0.25 F12000 ; Z hop return
G1 E0.5 F2100 ; Un-retract
G1 X69.0995 Y84.15 E1.29419 F1800 ; Print pattern wall
G1 X50.2921 Y102.9575 E1.29419 F1800 ; Print pattern wall
G1 E-0.5 F2100 ; Retract
G1 Z0.35 F12000 ; Z hop
G0 X52.8546 Y65.3425 F12000 ; Move to next pattern
G1 Z0.25 F12000 ; Z hop return
G1 E0.5 F2100 ; Un-retract
SET_PRESSURE_ADVANCE ADVANCE=0.005 ; Set pressure advance
M117 PA 0.005
G1 X71.662 Y84.15 E1.29419 F1800 ; Print pattern wall
G1 X52.8546 Y102.9575 E1.29419 F1800 ; Print pattern wall
G1 E-0.5 F2100 ; Retract
G1 Z0.35 F12000 ; Z hop
G0 X53.5894 Y65.3425 F12000 ; Move to start next pattern wall
G1 Z0.25 F12000 ; Z hop return
G1 E0.5 F2100 ; Un-retract
G1 X72.3968 Y84.15 E1.29419 F1800 ; Print pattern wall
G1 X53.5894 Y102.9575 E1.29419 F1800 ; Print pattern wall
G1 E-0.5 F2100 ; Retract
G1 Z0.35 F12000 ; Z hop
G0 X54.3242 Y65.3425 F12000 ; Move to start next pattern wall
G1 Z0.25 F12000 ; Z hop return
G1 E0.5 F2100 ; Un-retract
G1 X73.1316 Y84.15 E1.29419 F1800 ; Print pattern wall
G1 X54.3242 Y102.9575 E1.29419 F1800 ; Print pattern wall
G1 E-0.5 F2100 ; Retract
G1 Z0.35 F12000 ; Z hop
G0 X56.8867 Y65.3425 F12000 ; Move to next pattern
G1 Z0.25 F12000 ; Z hop return
G1 E0.5 F2100 ; Un-retract
SET_PRESSURE_ADVANCE ADVANCE=0.01 ; Set pressure advance
M117 PA 0.01
G1 X75.6941 Y84.15 E1.29419 F1800 ; Print pattern wall
G1 X56.8867 Y102.9575 E1.29419 F1800 ; Print pattern wall
G1 E-0.5 F2100 ; Retract
G1 Z0.35 F12000 ; Z hop
G0 X57.6215 Y65.3425 F12000 ; Move to start next pattern wall
G1 Z0.25 F12000 ; Z hop return
G1 E0.5 F2100 ; Un-retract
G1 X76.4289 Y84.15 E1.29419 F1800 ; Print pattern wall
G1 X57.6215 Y102.9575 E1.29419 F1800 ; Print pattern wall
G1 E-0.5 F2100 ; Retract
G1 Z0.35 F12000 ; Z hop
G0 X58.3562 Y65.3425 F12000 ; Move to start next pattern wall
G1 Z0.25 F12000 ; Z hop return
G1 E0.5 F2100 ; Un-retract
G1 X77.1637 Y84.15 E1.29419 F1800 ; Print pattern wall
G1 X58.3562 Y102.9575 E1.29419 F1800 ; Print pattern wall
G1 E-0.5 F2100 ; Retract
G1 Z0.35 F12000 ; Z hop
G0 X60.9187 Y65.3425 F12000 ; Move to next pattern
G1 Z0.25 F12000 ; Z hop return
G1 E0.5 F2100 ; Un-retract
SET_PRESSURE_ADVANCE ADVANCE=0.015 ; Set pressure advance
M117 PA 0.015
G1 X79.7262 Y84.15 E1.29419 F1800 ; Print pattern wall
G1 X60.9187 Y102.9575 E1.29419 F1800 ; Print pattern wall
G1 E-0.5 F2100 ; Retract
G1 Z0.35 F12000 ; Z hop
G0 X61.6535 Y65.3425 F12000 ; Move to start next pattern wall
G1 Z0.25 F12000 ; Z hop return
G1 E0.5 F2100 ; Un-retract
G1 X80.461 Y84.15 E1.29419 F1800 ; Print pattern wall
G1 X61.6535 Y102.9575 E1.29419 F1800 ; Print pattern wall
G1 E-0.5 F2100 ; Retract
G1 Z0.35 F12000 ; Z hop
G0 X62.3883 Y65.3425 F12000 ; Move to start next pattern wall
G1 Z0.25 F12000 ; Z hop return
G1 E0.5 F2100 ; Un-retract
G1 X81.1958 Y84.15 E1.29419 F1800 ; Print pattern wall
G1 X62.3883 Y102.9575 E1.29419 F1800 ; Print pattern wall
G1 E-0.5 F2100 ; Retract
G1 Z0.35 F12000 ; Z hop
G0 X64.9508 Y65.3425 F12000 ; Move to next pattern
G1 Z0.25 F12000 ; Z hop return
G1 E0.5 F2100 ; Un-retract
SET_PRESSURE_ADVANCE ADVANCE=0.02 ; Set pressure advance
M117 PA 0.02
G1 X83.7583 Y84.15 E1.29419 F1800 ; Print pattern wall
G1 X64.9508 Y102.9575 E1.29419 F1800 ; Print pattern wall
G1 E-0.5 F2100 ; Retract
G1 Z0.35 F12000 ; Z hop
G0 X65.6856 Y65.3425 F12000 ; Move to start next pattern wall
G1 Z0.25 F12000 ; Z hop return
G1 E0.5 F2100 ; Un-retract
G1 X84.4931 Y84.15 E1.29419 F1800 ; Print pattern wall
G1 X65.6856 Y102.9575 E1.29419 F1800 ; Print pattern wall
G1 E-0.5 F2100 ; Retract
G1 Z0.35 F12000 ; Z hop
G0 X66.4204 Y65.3425 F12000 ; Move to start next pattern wall
G1 Z0.25 F12000 ; Z hop return
G1 E0.5 F2100 ; Un-retract
G1 X85.2279 Y84.15 E1.29419 F1800 ; Print pattern wall
G1 X66.4204 Y102.9575 E1.29419 F1800 ; Print pattern wall
G1 E-0.5 F2100 ; Retract
G1 Z0.35 F12000 ; Z hop
G0 X68.9829 Y65.3425 F12000 ; Move to next pattern
G1 Z0.25 F12000 ; Z hop return
G1 E0.5 F2100 ; Un-retract
SET_PRESSURE_ADVANCE ADVANCE=0.025 ; Set pressure advance
M117 PA 0.025
G1 X87.7904 Y84.15 E1.29419 F1800 ; Print pattern wall
G1 X68.9829 Y102.9575 E1.29419 F1800 ; Print pattern wall
G1 E-0.5 F2100 ; Retract
G1 Z0.35 F12000 ; Z hop
G0 X69.7177 Y65.3425 F12000 ; Move to start next pattern wall
G1 Z0.25 F12000 ; Z hop return
G1 E0.5 F2100 ; Un-retract
G1 X88.5252 Y84.15 E1.29419 F1800 ; Print pattern wall
G1 X69.7177 Y102.9575 E1.29419 F1800 ; Print pattern wall
G1 E-0.5 F2100 ; Retract
G1 Z0.35 F12000 ; Z hop
G0 X70.4525 Y65.3425 F12000 ; Move to start next pattern wall
G1 Z0.25 F12000 ; Z hop return
G1 E0.5 F2100 ; Un-retract
G1 X89.26 Y84.15 E1.29419 F1800 ; Print pattern wall
G1 X70.4525 Y102.9575 E1.29419 F1800 ; Print pattern wall
G1 E-0.5 F2100 ; Retract
G1 Z0.35 F12000 ; Z hop
G0 X73.015 Y65.3425 F12000 ; Move to next pattern
G1 Z0.25 F12000 ; Z hop return
G1 E0.5 F2100 ; Un-retract
SET_PRESSURE_ADVANCE ADVANCE=0.03 ; Set pressure advance
M117 PA 0.03
G1 X91.8225 Y84.15 E1.29419 F1800 ; Print pattern wall
G1 X73.015 Y102.9575 E1.29419 F1800 ; Print pattern wall
G1 E-0.5 F2100 ; Retract
G1 Z0.35 F12000 ; Z hop
G0 X73.7498 Y65.3425 F12000 ; Move to start next pattern wall
G1 Z0.25 F12000 ; Z hop return
G1 E0.5 F2100 ; Un-retract
G1 X92.5573 Y84.15 E1.29419 F1800 ; Print pattern wall
G1 X73.7498 Y102.9575 E1.29419 F1800 ; Print pattern wall
G1 E-0.5 F2100 ; Retract
G1 Z0.35 F12000 ; Z hop
G0 X74.4846 Y65.3425 F12000 ; Move to start next pattern wall
G1 Z0.25 F12000 ; Z hop return
G1 E0.5 F2100 ; Un-retract
G1 X93.2921 Y84.15 E1.29419 F1800 ; Print pattern wall
G1 X74.4846 Y102.9575 E1.29419 F1800 ; Print pattern wall
G1 E-0.5 F2100 ; Retract
G1 Z0.35 F12000 ; Z hop
G0 X77.0471 Y65.3425 F12000 ; Move to next pattern
G1 Z0.25 F12000 ; Z hop return
G1 E0.5 F2100 ; Un-retract
SET_PRESSURE_ADVANCE ADVANCE=0.035 ; Set pressure advance
M117 PA 0.035
G1 X95.8546 Y84.15 E1.29419 F1800 ; Print pattern wall
G1 X77.0471 Y102.9575 E1.29419 F1800 ; Print pattern wall
G1 E-0.5 F2100 ; Retract
G1 Z0.35 F12000 ; Z hop
G0 X77.7819 Y65.3425 F12000 ; Move to start next pattern wall
G1 Z0.25 F12000 ; Z hop return
G1 E0.5 F2100 ; Un-retract
G1 X96.5894 Y84.15 E1.29419 F1800 ; Print pattern wall
G1 X77.7819 Y102.9575 E1.29419 F1800 ; Print pattern wall
G1 E-0.5 F2100 ; Retract
G1 Z0.35 F12000 ; Z hop
G0 X78.5167 Y65.3425 F12000 ; Move to start next pattern wall
G1 Z0.25 F12000 ; Z hop return
G1 E0.5 F2100 ; Un-retract
G1 X97.3242 Y84.15 E1.29419 F1800 ; Print pattern wall
G1 X78.5167 Y102.9575 E1.29419 F1800 ; Print pattern wall
G1 E-0.5 F2100 ; Retract
G1 Z0.35 F12000 ; Z hop
G0 X81.0792 Y65.3425 F12000 ; Move to next pattern
G1 Z0.25 F12000 ; Z hop return
G1 E0.5 F2100 ; Un-retract
SET_PRESSURE_ADVANCE ADVANCE=0.04 ; Set pressure advance
M117 PA 0.04
G1 X99.8867 Y84.15 E1.29419 F1800 ; Print pattern wall
G1 X81.0792 Y102.9575 E1.29419 F1800 ; Print pattern wall
G1 E-0.5 F2100 ; Retract
G1 Z0.35 F12000 ; Z hop
G0 X81.814 Y65.3425 F12000 ; Move to start next pattern wall
G1 Z0.25 F12000 ; Z hop return
G1 E0.5 F2100 ; Un-retract
G1 X100.6215 Y84.15 E1.29419 F1800 ; Print pattern wall
G1 X81.814 Y102.9575 E1.29419 F1800 ; Print pattern wall
G1 E-0.5 F2100 ; Retract
G1 Z0.35 F12000 ; Z hop
G0 X82.5488 Y65.3425 F12000 ; Move to start next pattern wall
G1 Z0.25 F12000 ; Z hop return
G1 E0.5 F2100 ; Un-retract
G1 X101.3563 Y84.15 E1.29419 F1800 ; Print pattern wall
G1 X82.5488 Y102.9575 E1.29419 F1800 ; Print pattern wall
G1 E-0.5 F2100 ; Retract
G1 Z0.35 F12000 ; Z hop
G0 X85.1113 Y65.3425 F12000 ; Move to next pattern
G1 Z0.25 F12000 ; Z hop return
G1 E0.5 F2100 ; Un-retract
SET_PRESSURE_ADVANCE ADVANCE=0.045 ; Set pressure advance
M117 PA 0.045
G1 X103.9188 Y84.15 E1.29419 F1800 ; Print pattern wall
G1 X85.1113 Y102.9575 E1.29419 F1800 ; Print pattern wall
G1 E-0.5 F2100 ; Retract
G1 Z0.35 F12000 ; Z hop
G0 X85.8461 Y65.3425 F12000 ; Move to start next pattern wall
G1 Z0.25 F12000 ; Z hop return
G1 E0.5 F2100 ; Un-retract
G1 X104.6536 Y84.15 E1.29419 F1800 ; Print pattern wall
G1 X85.8461 Y102.9575 E1.29419 F1800 ; Print pattern wall
G1 E-0.5 F2100 ; Retract
G1 Z0.35 F12000 ; Z hop
G0 X86.5809 Y65.3425 F12000 ; Move to start next pattern wall
G1 Z0.25 F12000 ; Z hop return
G1 E0.5 F2100 ; Un-retract
G1 X105.3884 Y84.15 E1.29419 F1800 ; Print pattern wall
G1 X86.5809 Y102.9575 E1.29419 F1800 ; Print pattern wall
G1 E-0.5 F2100 ; Retract
G1 Z0.35 F12000 ; Z hop
G0 X89.1434 Y65.3425 F12000 ; Move to next pattern
G1 Z0.25 F12000 ; Z hop return
G1 E0.5 F2100 ; Un-retract
SET_PRESSURE_ADVANCE ADVANCE=0.05 ; Set pressure advance
M117 PA 0.05
G1 X107.9509 Y84.15 E1.29419 F1800 ; Print pattern wall
G1 X89.1434 Y102.9575 E1.29419 F1800 ; Print pattern wall
G1 E-0.5 F2100 ; Retract
G1 Z0.35 F12000 ; Z hop
G0 X89.8782 Y65.3425 F12000 ; Move to start next pattern wall
G1 Z0.25 F12000 ; Z hop return
G1 E0.5 F2100 ; Un-retract
G1 X108.6857 Y84.15 E1.29419 F1800 ; Print pattern wall
G1 X89.8782 Y102.9575 E1.29419 F1800 ; Print pattern wall
G1 E-0.5 F2100 ; Retract
G1 Z0.35 F12000 ; Z hop
G0 X90.613 Y65.3425 F12000 ; Move to start next pattern wall
G1 Z0.25 F12000 ; Z hop return
G1 E0.5 F2100 ; Un-retract
G1 X109.4205 Y84.15 E1.29419 F1800 ; Print pattern wall
G1 X90.613 Y102.9575 E1.29419 F1800 ; Print pattern wall
G1 E-0.5 F2100 ; Retract
G1 Z0.35 F12000 ; Z hop
G0 X93.1755 Y65.3425 F12000 ; Move to next pattern
G1 Z0.25 F12000 ; Z hop return
G1 E0.5 F2100 ; Un-retract
SET_PRESSURE_ADVANCE ADVANCE=0.055 ; Set pressure advance
M117 PA 0.055
G1 X111.983 Y84.15 E1.29419 F1800 ; Print pattern wall
G1 X93.1755 Y102.9575 E1.29419 F1800 ; Print pattern wall
G1 E-0.5 F2100 ; Retract
G1 Z0.35 F12000 ; Z hop
G0 X93.9103 Y65.3425 F12000 ; Move to start next pattern wall
G1 Z0.25 F12000 ; Z hop return
G1 E0.5 F2100 ; Un-retract
G1 X112.7178 Y84.15 E1.29419 F1800 ; Print pattern wall
G1 X93.9103 Y102.9575 E1.29419 F1800 ; Print pattern wall
G1 E-0.5 F2100 ; Retract
G1 Z0.35 F12000 ; Z hop
G0 X94.6451 Y65.3425 F12000 ; Move to start next pattern wall
G1 Z0.25 F12000 ; Z hop return
G1 E0.5 F2100 ; Un-retract
G1 X113.4526 Y84.15 E1.29419 F1800 ; Print pattern wall
G1 X94.6451 Y102.9575 E1.29419 F1800 ; Print pattern wall
G1 E-0.5 F2100 ; Retract
G1 Z0.35 F12000 ; Z hop
G0 X97.2076 Y65.3425 F12000 ; Move to next pattern
G1 Z0.25 F12000 ; Z hop return
G1 E0.5 F2100 ; Un-retract
SET_PRESSURE_ADVANCE ADVANCE=0.06 ; Set pressure advance
M117 PA 0.06
G1 X116.0151 Y84.15 E1.29419 F1800 ; Print pattern wall
G1 X97.2076 Y102.9575 E1.29419 F1800 ; Print pattern wall
G1 E-0.5 F2100 ; Retract
G1 Z0.35 F12000 ; Z hop
G0 X97.9424 Y65.3425 F12000 ; Move to start next pattern wall
G1 Z0.25 F12000 ; Z hop return
G1 E0.5 F2100 ; Un-retract
G1 X116.7499 Y84.15 E1.29419 F1800 ; Print pattern wall
G1 X97.9424 Y102.9575 E1.29419 F1800 ; Print pattern wall
G1 E-0.5 F2100 ; Retract
G1 Z0.35 F12000 ; Z hop
G0 X98.6772 Y65.3425 F12000 ; Move to start next pattern wall
G1 Z0.25 F12000 ; Z hop return
G1 E0.5 F2100 ; Un-retract
G1 X117.4847 Y84.15 E1.29419 F1800 ; Print pattern wall
G1 X98.6772 Y102.9575 E1.29419 F1800 ; Print pattern wall
G1 E-0.5 F2100 ; Retract
G1 Z0.35 F12000 ; Z hop
G0 X101.2397 Y65.3425 F12000 ; Move to next pattern
G1 Z0.25 F12000 ; Z hop return
G1 E0.5 F2100 ; Un-retract
SET_PRESSURE_ADVANCE ADVANCE=0.065 ; Set pressure advance
M117 PA 0.065
G1 X120.0472 Y84.15 E1.29419 F1800 ; Print pattern wall
G1 X101.2397 Y102.9575 E1.29419 F1800 ; Print pattern wall
G1 E-0.5 F2100 ; Retract
G1 Z0.35 F12000 ; Z hop
G0 X101.9745 Y65.3425 F12000 ; Move to start next pattern wall
G1 Z0.25 F12000 ; Z hop return
G1 E0.5 F2100 ; Un-retract
G1 X120.782 Y84.15 E1.29419 F1800 ; Print pattern wall
G1 X101.9745 Y102.9575 E1.29419 F1800 ; Print pattern wall
G1 E-0.5 F2100 ; Retract
G1 Z0.35 F12000 ; Z hop
G0 X102.7093 Y65.3425 F12000 ; Move to start next pattern wall
G1 Z0.25 F12000 ; Z hop return
G1 E0.5 F2100 ; Un-retract
G1 X121.5168 Y84.15 E1.29419 F1800 ; Print pattern wall
G1 X102.7093 Y102.9575 E1.29419 F1800 ; Print pattern wall
G1 E-0.5 F2100 ; Retract
G1 Z0.35 F12000 ; Z hop
G0 X105.2718 Y65.3425 F12000 ; Move to next pattern
G1 Z0.25 F12000 ; Z hop return
G1 E0.5 F2100 ; Un-retract
SET_PRESSURE_ADVANCE ADVANCE=0.07 ; Set pressure advance
M117 PA 0.07
G1 X124.0793 Y84.15 E1.29419 F1800 ; Print pattern wall
G1 X105.2718 Y102.9575 E1.29419 F1800 ; Print pattern wall
G1 E-0.5 F2100 ; Retract
G1 Z0.35 F12000 ; Z hop
G0 X106.0066 Y65.3425 F12000 ; Move to start next pattern wall
G1 Z0.25 F12000 ; Z hop return
G1 E0.5 F2100 ; Un-retract
G1 X124.8141 Y84.15 E1.29419 F1800 ; Print pattern wall
G1 X106.0066 Y102.9575 E1.29419 F1800 ; Print pattern wall
G1 E-0.5 F2100 ; Retract
G1 Z0.35 F12000 ; Z hop
G0 X106.7414 Y65.3425 F12000 ; Move to start next pattern wall
G1 Z0.25 F12000 ; Z hop return
G1 E0.5 F2100 ; Un-retract
G1 X125.5489 Y84.15 E1.29419 F1800 ; Print pattern wall
G1 X106.7414 Y102.9575 E1.29419 F1800 ; Print pattern wall
G1 E-0.5 F2100 ; Retract
G1 Z0.35 F12000 ; Z hop
G0 X109.3039 Y65.3425 F12000 ; Move to next pattern
G1 Z0.25 F12000 ; Z hop return
G1 E0.5 F2100 ; Un-retract
SET_PRESSURE_ADVANCE ADVANCE=0.075 ; Set pressure advance
M117 PA 0.075
G1 X128.1114 Y84.15 E1.29419 F1800 ; Print pattern wall
G1 X109.3039 Y102.9575 E1.29419 F1800 ; Print pattern wall
G1 E-0.5 F2100 ; Retract
G1 Z0.35 F12000 ; Z hop
G0 X110.0387 Y65.3425 F12000 ; Move to start next pattern wall
G1 Z0.25 F12000 ; Z hop return
G1 E0.5 F2100 ; Un-retract
G1 X128.8461 Y84.15 E1.29419 F1800 ; Print pattern wall
G1 X110.0387 Y102.9575 E1.29419 F1800 ; Print pattern wall
G1 E-0.5 F2100 ; Retract
G1 Z0.35 F12000 ; Z hop
G0 X110.7735 Y65.3425 F12000 ; Move to start next pattern wall
G1 Z0.25 F12000 ; Z hop return
G1 E0.5 F2100 ; Un-retract
G1 X129.5809 Y84.15 E1.29419 F1800 ; Print pattern wall
G1 X110.7735 Y102.9575 E1.29419 F1800 ; Print pattern wall
G1 E-0.5 F2100 ; Retract
G1 Z0.35 F12000 ; Z hop
G0 X113.336 Y65.3425 F12000 ; Move to next pattern
G1 Z0.25 F12000 ; Z hop return
G1 E0.5 F2100 ; Un-retract
SET_PRESSURE_ADVANCE ADVANCE=0.08 ; Set pressure advance
M117 PA 0.08
G1 X132.1434 Y84.15 E1.29419 F1800 ; Print pattern wall
G1 X113.336 Y102.9575 E1.29419 F1800 ; Print pattern wall
G1 E-0.5 F2100 ; Retract
G1 Z0.35 F12000 ; Z hop
G0 X114.0708 Y65.3425 F12000 ; Move to start next pattern wall
G1 Z0.25 F12000 ; Z hop return
G1 E0.5 F2100 ; Un-retract
G1 X132.8782 Y84.15 E1.29419 F1800 ; Print pattern wall
G1 X114.0708 Y102.9575 E1.29419 F1800 ; Print pattern wall
G1 E-0.5 F2100 ; Retract
G1 Z0.35 F12000 ; Z hop
G0 X114.8056 Y65.3425 F12000 ; Move to start next pattern wall
G1 Z0.25 F12000 ; Z hop return
G1 E0.5 F2100 ; Un-retract
G1 X133.613 Y84.15 E1.29419 F1800 ; Print pattern wall
G1 X114.8056 Y102.9575 E1.29419 F1800 ; Print pattern wall
G1 E-0.5 F2100 ; Retract
G1 Z0.35 F12000 ; Z hop
G0 X48.8225 Y65.3425 F12000 ; Move back to start position
G1 Z0.25 F12000 ; Z hop return
G1 E0.5 F2100 ; Un-retract
M106 S255 ; Set fan speed
G0 Z0.45 F12000 ; Move to layer height
SET_PRESSURE_ADVANCE ADVANCE=0 ; Set pressure advance to start value for numbering
M117 PA 0
G1 E-0.5 F2100 ; Retract
G1 Z0.55 F12000 ; Z hop
G0 X45.1515 Y106.9257 F12000 ; Move
G1 Z0.45 F12000 ; Z hop return
G1 E0.5 F2100 ; Un-retract
G1 X47.1515 Y106.9257 E0.07949 F1800 ; Glyph: 0
G1 X49.1515 Y106.9257 E0.07949 F1800 ; Glyph: 0
G1 X49.1515 Y108.9257 E0.07949 F1800 ; Glyph: 0
G1 X47.1515 Y108.9257 E0.07949 F1800 ; Glyph: 0
G1 X45.1515 Y108.9257 E0.07949 F1800 ; Glyph: 0
G1 X45.1515 Y106.9257 E0.07949 F1800 ; Glyph: 0
G1 E-0.5 F2100 ; Retract
G1 Z0.55 F12000 ; Z hop
G0 X53.2157 Y106.9257 F12000 ; Move
G1 Z0.45 F12000 ; Z hop return
G1 E0.5 F2100 ; Un-retract
G1 X55.2157 Y106.9257 E0.07949 F1800 ; Glyph: 0
G1 X57.2157 Y106.9257 E0.07949 F1800 ; Glyph: 0
G1 X57.2157 Y108.9257 E0.07949 F1800 ; Glyph: 0
G1 X55.2157 Y108.9257 E0.07949 F1800 ; Glyph: 0
G1 X53.2157 Y108.9257 E0.07949 F1800 ; Glyph: 0
G1 X53.2157 Y106.9257 E0.07949 F1800 ; Glyph: 0
G1 E-0.5 F2100 ; Retract
G1 Z0.55 F12000 ; Z hop
G0 X57.2157 Y109.9257 F12000 ; Move
G1 Z0.45 F12000 ; Z hop return
G1 E0.5 F2100 ; Un-retract
G1 X56.4657 Y109.9257 E0.02981 F1800 ; Glyph: .
G1 E-0.5 F2100 ; Retract
G1 Z0.55 F12000 ; Z hop
G0 X53.2157 Y110.9257 F12000 ; Move
G1 Z0.45 F12000 ; Z hop return
G1 E0.5 F2100 ; Un-retract
G1 X55.2157 Y110.9257 E0.07949 F1800 ; Glyph: 0
G1 X57.2157 Y110.9257 E0.07949 F1800 ; Glyph: 0
G1 X57.2157 Y112.9257 E0.07949 F1800 ; Glyph: 0
G1 X55.2157 Y112.9257 E0.07949 F1800 ; Glyph: 0
G1 X53.2157 Y112.9257 E0.07949 F1800 ; Glyph: 0
G1 X53.2157 Y110.9257 E0.07949 F1800 ; Glyph: 0
G1 E-0.5 F2100 ; Retract
G1 Z0.55 F12000 ; Z hop
G0 X53.2157 Y113.9257 F12000 ; Move
G1 Z0.45 F12000 ; Z hop return
G1 E0.5 F2100 ; Un-retract
G1 X55.2157 Y113.9257 E0.07949 F1800 ; Glyph: 1
G1 X57.2157 Y113.9257 E0.07949 F1800 ; Glyph: 1
G1 E-0.5 F2100 ; Retract
G1 Z0.55 F12000 ; Z hop
G0 X61.2799 Y106.9257 F12000 ; Move
G1 Z0.45 F12000 ; Z hop return
G1 E0.5 F2100 ; Un-retract
G1 X63.2799 Y106.9257 E0.07949 F1800 ; Glyph: 0
G1 X65.2799 Y106.9257 E0.07949 F1800 ; Glyph: 0
G1 X65.2799 Y108.9257 E0.07949 F1800 ; Glyph: 0
G1 X63.2799 Y108.9257 E0.07949 F1800 ; Glyph: 0
G1 X61.2799 Y108.9257 E0.07949 F1800 ; Glyph: 0
G1 X61.2799 Y106.9257 E0.07949 F1800 ; Glyph: 0
G1 E-0.5 F2100 ; Retract
G1 Z0.55 F12000 ; Z hop
G0 X65.2799 Y109.9257 F12000 ; Move
G1 Z0.45 F12000 ; Z hop return
G1 E0.5 F2100 ; Un-retract
G1 X64.5299 Y109.9257 E0.02981 F1800 ; Glyph: .
G1 E-0.5 F2100 ; Retract
G1 Z0.55 F12000 ; Z hop
G0 X61.2799 Y110.9257 F12000 ; Move
G1 Z0.45 F12000 ; Z hop return
G1 E0.5 F2100 ; Un-retract
G1 X63.2799 Y110.9257 E0.07949 F1800 ; Glyph: 0
G1 X65.2799 Y110.9257 E0.07949 F1800 ; Glyph: 0
G1 X65.2799 Y112.9257 E0.07949 F1800 ; Glyph: 0
G1 X63.2799 Y112.9257 E0.07949 F1800 ; Glyph: 0
G1 X61.2799 Y112.9257 E0.07949 F1800 ; Glyph: 0
G1 X61.2799 Y110.9257 E0.07949 F1800 ; Glyph: 0
G1 E-0.5 F2100 ; Retract
G1 Z0.55 F12000 ; Z hop
G0 X61.2799 Y113.9257 F12000 ; Move
G1 Z0.45 F12000 ; Z hop return
G1 E0.5 F2100 ; Un-retract
G1 X61.2799 Y115.9257 E0.07949 F1800 ; Glyph: 2
G1 X63.2799 Y115.9257 E0.07949 F1800 ; Glyph: 2
G1 X63.2799 Y113.9257 E0.07949 F1800 ; Glyph: 2
G1 X65.2799 Y113.9257 E0.07949 F1800 ; Glyph: 2
G1 X65.2799 Y115.9257 E0.07949 F1800 ; Glyph: 2
G1 E-0.5 F2100 ; Retract
G1 Z0.55 F12000 ; Z hop
G0 X69.3441 Y106.9257 F12000 ; Move
G1 Z0.45 F12000 ; Z hop return
G1 E0.5 F2100 ; Un-retract
G1 X71.3441 Y106.9257 E0.07949 F1800 ; Glyph: 0
G1 X73.3441 Y106.9257 E0.07949 F1800 ; Glyph: 0
G1 X73.3441 Y108.9257 E0.07949 F1800 ; Glyph: 0
G1 X71.3441 Y108.9257 E0.07949 F1800 ; Glyph: 0
G1 X69.3441 Y108.9257 E0.07949 F1800 ; Glyph: 0
G1 X69.3441 Y106.9257 E0.07949 F1800 ; Glyph: 0
G1 E-0.5 F2100 ; Retract
G1 Z0.55 F12000 ; Z hop
G0 X73.3441 Y109.9257 F12000 ; Move
G1 Z0.45 F12000 ; Z hop return
G1 E0.5 F2100 ; Un-retract
G1 X72.5941 Y109.9257 E0.02981 F1800 ; Glyph: .
G1 E-0.5 F2100 ; Retract
G1 Z0.55 F12000 ; Z hop
G0 X69.3441 Y110.9257 F12000 ; Move
G1 Z0.45 F12000 ; Z hop return
G1 E0.5 F2100 ; Un-retract
G1 X71.3441 Y110.9257 E0.07949 F1800 ; Glyph: 0
G1 X73.3441 Y110.9257 E0.07949 F1800 ; Glyph: 0
G1 X73.3441 Y112.9257 E0.07949 F1800 ; Glyph: 0
G1 X71.3441 Y112.9257 E0.07949 F1800 ; Glyph: 0
G1 X69.3441 Y112.9257 E0.07949 F1800 ; Glyph: 0
G1 X69.3441 Y110.9257 E0.07949 F1800 ; Glyph: 0
G1 E-0.5 F2100 ; Retract
G1 Z0.55 F12000 ; Z hop
G0 X69.3441 Y113.9257 F12000 ; Move
G1 Z0.45 F12000 ; Z hop return
G1 E0.5 F2100 ; Un-retract
G1 X69.3441 Y115.9257 E0.07949 F1800 ; Glyph: 3
G1 X71.3441 Y115.9257 E0.07949 F1800 ; Glyph: 3
G1 X71.3441 Y113.9257 E0.07949 F1800 ; Glyph: 3
G0 X71.3441 Y115.9257 F12000 ; Move
G1 X73.3441 Y115.9257 E0.07949 F1800 ; Glyph: 3
G1 X73.3441 Y113.9257 E0.07949 F1800 ; Glyph: 3
G1 E-0.5 F2100 ; Retract
G1 Z0.55 F12000 ; Z hop
G0 X77.4083 Y106.9257 F12000 ; Move
G1 Z0.45 F12000 ; Z hop return
G1 E0.5 F2100 ; Un-retract
G1 X79.4083 Y106.9257 E0.07949 F1800 ; Glyph: 0
G1 X81.4083 Y106.9257 E0.07949 F1800 ; Glyph: 0
G1 X81.4083 Y108.9257 E0.07949 F1800 ; Glyph: 0
G1 X79.4083 Y108.9257 E0.07949 F1800 ; Glyph: 0
G1 X77.4083 Y108.9257 E0.07949 F1800 ; Glyph: 0
G1 X77.4083 Y106.9257 E0.07949 F1800 ; Glyph: 0
G1 E-0.5 F2100 ; Retract
G1 Z0.55 F12000 ; Z hop
G0 X81.4083 Y109.9257 F12000 ; Move
G1 Z0.45 F12000 ; Z hop return
G1 E0.5 F2100 ; Un-retract
G1 X80.6583 Y109.9257 E0.02981 F1800 ; Glyph: .
G1 E-0.5 F2100 ; Retract
G1 Z0.55 F12000 ; Z hop
G0 X77.4083 Y110.9257 F12000 ; Move
G1 Z0.45 F12000 ; Z hop return
G1 E0.5 F2100 ; Un-retract
G1 X79.4083 Y110.9257 E0.07949 F1800 ; Glyph: 0
G1 X81.4083 Y110.9257 E0.07949 F1800 ; Glyph: 0
G1 X81.4083 Y112.9257 E0.07949 F1800 ; Glyph: 0
G1 X79.4083 Y112.9257 E0.07949 F1800 ; Glyph: 0
G1 X77.4083 Y112.9257 E0.07949 F1800 ; Glyph: 0
G1 X77.4083 Y110.9257 E0.07949 F1800 ; Glyph: 0
G1 E-0.5 F2100 ; Retract
G1 Z0.55 F12000 ; Z hop
G0 X77.4083 Y115.9257 F12000 ; Move
G1 Z0.45 F12000 ; Z hop return
G1 E0.5 F2100 ; Un-retract
G1 X79.4083 Y115.9257 E0.07949 F1800 ; Glyph: 4
G1 X81.4083 Y115.9257 E0.07949 F1800 ; Glyph: 4
G0 X79.4083 Y115.9257 F12000 ; Move
G1 X79.4083 Y113.9257 E0.07949 F1800 ; Glyph: 4
G1 X77.4083 Y113.9257 E0.07949 F1800 ; Glyph: 4
G1 E-0.5 F2100 ; Retract
G1 Z0.55 F12000 ; Z hop
G0 X85.4725 Y106.9257 F12000 ; Move
G1 Z0.45 F12000 ; Z hop return
G1 E0.5 F2100 ; Un-retract
G1 X87.4725 Y106.9257 E0.07949 F1800 ; Glyph: 0
G1 X89.4725 Y106.9257 E0.07949 F1800 ; Glyph: 0
G1 X89.4725 Y108.9257 E0.07949 F1800 ; Glyph: 0
G1 X87.4725 Y108.9257 E0.07949 F1800 ; Glyph: 0
G1 X85.4725 Y108.9257 E0.07949 F1800 ; Glyph: 0
G1 X85.4725 Y106.9257 E0.07949 F1800 ; Glyph: 0
G1 E-0.5 F2100 ; Retract
G1 Z0.55 F12000 ; Z hop
G0 X89.4725 Y109.9257 F12000 ; Move
G1 Z0.45 F12000 ; Z hop return
G1 E0.5 F2100 ; Un-retract
G1 X88.7225 Y109.9257 E0.02981 F1800 ; Glyph: .
G1 E-0.5 F2100 ; Retract
G1 Z0.55 F12000 ; Z hop
G0 X85.4725 Y110.9257 F12000 ; Move
G1 Z0.45 F12000 ; Z hop return
G1 E0.5 F2100 ; Un-retract
G1 X87.4725 Y110.9257 E0.07949 F1800 ; Glyph: 0
G1 X89.4725 Y110.9257 E0.07949 F1800 ; Glyph: 0
G1 X89.4725 Y112.9257 E0.07949 F1800 ; Glyph: 0
G1 X87.4725 Y112.9257 E0.07949 F1800 ; Glyph: 0
G1 X85.4725 Y112.9257 E0.07949 F1800 ; Glyph: 0
G1 X85.4725 Y110.9257 E0.07949 F1800 ; Glyph: 0
G1 E-0.5 F2100 ; Retract
G1 Z0.55 F12000 ; Z hop
G0 X85.4725 Y115.9257 F12000 ; Move
G1 Z0.45 F12000 ; Z hop return
G1 E0.5 F2100 ; Un-retract
G1 X85.4725 Y113.9257 E0.07949 F1800 ; Glyph: 5
G1 X87.4725 Y113.9257 E0.07949 F1800 ; Glyph: 5
G1 X87.4725 Y115.9257 E0.07949 F1800 ; Glyph: 5
G1 X89.4725 Y115.9257 E0.07949 F1800 ; Glyph: 5
G1 X89.4725 Y113.9257 E0.07949 F1800 ; Glyph: 5
G1 E-0.5 F2100 ; Retract
G1 Z0.55 F12000 ; Z hop
G0 X93.5367 Y106.9257 F12000 ; Move
G1 Z0.45 F12000 ; Z hop return
G1 E0.5 F2100 ; Un-retract
G1 X95.5367 Y106.9257 E0.07949 F1800 ; Glyph: 0
G1 X97.5367 Y106.9257 E0.07949 F1800 ; Glyph: 0
G1 X97.5367 Y108.9257 E0.07949 F1800 ; Glyph: 0
G1 X95.5367 Y108.9257 E0.07949 F1800 ; Glyph: 0
G1 X93.5367 Y108.9257 E0.07949 F1800 ; Glyph: 0
G1 X93.5367 Y106.9257 E0.07949 F1800 ; Glyph: 0
G1 E-0.5 F2100 ; Retract
G1 Z0.55 F12000 ; Z hop
G0 X97.5367 Y109.9257 F12000 ; Move
G1 Z0.45 F12000 ; Z hop return
G1 E0.5 F2100 ; Un-retract
G1 X96.7867 Y109.9257 E0.02981 F1800 ; Glyph: .
G1 E-0.5 F2100 ; Retract
G1 Z0.55 F12000 ; Z hop
G0 X93.5367 Y110.9257 F12000 ; Move
G1 Z0.45 F12000 ; Z hop return
G1 E0.5 F2100 ; Un-retract
G1 X95.5367 Y110.9257 E0.07949 F1800 ; Glyph: 0
G1 X97.5367 Y110.9257 E0.07949 F1800 ; Glyph: 0
G1 X97.5367 Y112.9257 E0.07949 F1800 ; Glyph: 0
G1 X95.5367 Y112.9257 E0.07949 F1800 ; Glyph: 0
G1 X93.5367 Y112.9257 E0.07949 F1800 ; Glyph: 0
G1 X93.5367 Y110.9257 E0.07949 F1800 ; Glyph: 0
G1 E-0.5 F2100 ; Retract
G1 Z0.55 F12000 ; Z hop
G0 X93.5367 Y115.9257 F12000 ; Move
G1 Z0.45 F12000 ; Z hop return
G1 E0.5 F2100 ; Un-retract
G1 X93.5367 Y113.9257 E0.07949 F1800 ; Glyph: 6
G1 X95.5367 Y113.9257 E0.07949 F1800 ; Glyph: 6
G1 X97.5367 Y113.9257 E0.07949 F1800 ; Glyph: 6
G1 X97.5367 Y115.9257 E0.07949 F1800 ; Glyph: 6
G1 X95.5367 Y115.9257 E0.07949 F1800 ; Glyph: 6
G1 X95.5367 Y113.9257 E0.07949 F1800 ; Glyph: 6
G1 E-0.5 F2100 ; Retract
G1 Z0.55 F12000 ; Z hop
G0 X101.6009 Y106.9257 F12000 ; Move
G1 Z0.45 F12000 ; Z hop return
G1 E0.5 F2100 ; Un-retract
G1 X103.6009 Y106.9257 E0.07949 F1800 ; Glyph: 0
G1 X105.6009 Y106.9257 E0.07949 F1800 ; Glyph: 0
G1 X105.6009 Y108.9257 E0.07949 F1800 ; Glyph: 0
G1 X103.6009 Y108.9257 E0.07949 F1800 ; Glyph: 0
G1 X101.6009 Y108.9257 E0.07949 F1800 ; Glyph: 0
G1 X101.6009 Y106.9257 E0.07949 F1800 ; Glyph: 0
G1 E-0.5 F2100 ; Retract
G1 Z0.55 F12000 ; Z hop
G0 X105.6009 Y109.9257 F12000 ; Move
G1 Z0.45 F12000 ; Z hop return
G1 E0.5 F2100 ; Un-retract
G1 X104.8509 Y109.9257 E0.02981 F1800 ; Glyph: .
G1 E-0.5 F2100 ; Retract
G1 Z0.55 F12000 ; Z hop
G0 X101.6009 Y110.9257 F12000 ; Move
G1 Z0.45 F12000 ; Z hop return
G1 E0.5 F2100 ; Un-retract
G1 X103.6009 Y110.9257 E0.07949 F1800 ; Glyph: 0
G1 X105.6009 Y110.9257 E0.07949 F1800 ; Glyph: 0
G1 X105.6009 Y112.9257 E0.07949 F1800 ; Glyph: 0
G1 X103.6009 Y112.9257 E0.07949 F1800 ; Glyph: 0
G1 X101.6009 Y112.9257 E0.07949 F1800 ; Glyph: 0
G1 X101.6009 Y110.9257 E0.07949 F1800 ; Glyph: 0
G1 E-0.5 F2100 ; Retract
G1 Z0.55 F12000 ; Z hop
G0 X101.6009 Y113.9257 F12000 ; Move
G1 Z0.45 F12000 ; Z hop return
G1 E0.5 F2100 ; Un-retract
G1 X101.6009 Y115.9257 E0.07949 F1800 ; Glyph: 7
G1 X103.6009 Y115.9257 E0.07949 F1800 ; Glyph: 7
G1 X105.6009 Y115.9257 E0.07949 F1800 ; Glyph: 7
G1 E-0.5 F2100 ; Retract
G1 Z0.55 F12000 ; Z hop
G0 X109.665 Y106.9257 F12000 ; Move
G1 Z0.45 F12000 ; Z hop return
G1 E0.5 F2100 ; Un-retract
G1 X111.665 Y106.9257 E0.07949 F1800 ; Glyph: 0
G1 X113.665 Y106.9257 E0.07949 F1800 ; Glyph: 0
G1 X113.665 Y108.9257 E0.07949 F1800 ; Glyph: 0
G1 X111.665 Y108.9257 E0.07949 F1800 ; Glyph: 0
G1 X109.665 Y108.9257 E0.07949 F1800 ; Glyph: 0
G1 X109.665 Y106.9257 E0.07949 F1800 ; Glyph: 0
G1 E-0.5 F2100 ; Retract
G1 Z0.55 F12000 ; Z hop
G0 X113.665 Y109.9257 F12000 ; Move
G1 Z0.45 F12000 ; Z hop return
G1 E0.5 F2100 ; Un-retract
G1 X112.915 Y109.9257 E0.02981 F1800 ; Glyph: .
G1 E-0.5 F2100 ; Retract
G1 Z0.55 F12000 ; Z hop
G0 X109.665 Y110.9257 F12000 ; Move
G1 Z0.45 F12000 ; Z hop return
G1 E0.5 F2100 ; Un-retract
G1 X111.665 Y110.9257 E0.07949 F1800 ; Glyph: 0
G1 X113.665 Y110.9257 E0.07949 F1800 ; Glyph: 0
G1 X113.665 Y112.9257 E0.07949 F1800 ; Glyph: 0
G1 X111.665 Y112.9257 E0.07949 F1800 ; Glyph: 0
G1 X109.665 Y112.9257 E0.07949 F1800 ; Glyph: 0
G1 X109.665 Y110.9257 E0.07949 F1800 ; Glyph: 0
G1 E-0.5 F2100 ; Retract
G1 Z0.55 F12000 ; Z hop
G0 X109.665 Y113.9257 F12000 ; Move
G1 Z0.45 F12000 ; Z hop return
G1 E0.5 F2100 ; Un-retract
G1 X111.665 Y113.9257 E0.07949 F1800 ; Glyph: 8
G1 X113.665 Y113.9257 E0.07949 F1800 ; Glyph: 8
G1 X113.665 Y115.9257 E0.07949 F1800 ; Glyph: 8
G1 X111.665 Y115.9257 E0.07949 F1800 ; Glyph: 8
G1 X109.665 Y115.9257 E0.07949 F1800 ; Glyph: 8
G1 X109.665 Y113.9257 E0.07949 F1800 ; Glyph: 8
G0 X111.665 Y113.9257 F12000 ; Move
G1 X111.665 Y115.9257 E0.07949 F1800 ; Glyph: 8
G1 E-0.5 F2100 ; Retract
G1 Z0.55 F12000 ; Z hop
G0 X46.4168 Y62.9368 F12000 ; Move to pattern start

G1 Z0.45 F12000 ; Z hop return
G1 E0.5 F2100 ; Un-retract
SET_PRESSURE_ADVANCE ADVANCE=0 ; Set pressure advance
M117 PA 0
G1 X67.63 Y84.15 E1.19241 F12000 ; Print pattern wall
G1 X46.4168 Y105.3632 E1.19241 F12000 ; Print pattern wall
G1 E-0.5 F2100 ; Retract
G1 Z0.55 F12000 ; Z hop
G0 X47.1515 Y62.9368 F12000 ; Move to start next pattern wall
G1 Z0.45 F12000 ; Z hop return
G1 E0.5 F2100 ; Un-retract
G1 X68.3648 Y84.15 E1.19241 F12000 ; Print pattern wall
G1 X47.1515 Y105.3632 E1.19241 F12000 ; Print pattern wall
G1 E-0.5 F2100 ; Retract
G1 Z0.55 F12000 ; Z hop
G0 X47.8863 Y62.9368 F12000 ; Move to start next pattern wall
G1 Z0.45 F12000 ; Z hop return
G1 E0.5 F2100 ; Un-retract
G1 X69.0995 Y84.15 E1.19241 F12000 ; Print pattern wall
G1 X47.8863 Y105.3632 E1.19241 F12000 ; Print pattern wall
G1 E-0.5 F2100 ; Retract
G1 Z0.55 F12000 ; Z hop
G0 X50.4488 Y62.9368 F12000 ; Move to next pattern
G1 Z0.45 F12000 ; Z hop return
G1 E0.5 F2100 ; Un-retract
SET_PRESSURE_ADVANCE ADVANCE=0.005 ; Set pressure advance
M117 PA 0.005
G1 X71.662 Y84.15 E1.19241 F12000 ; Print pattern wall
G1 X50.4488 Y105.3632 E1.19241 F12000 ; Print pattern wall
G1 E-0.5 F2100 ; Retract
G1 Z0.55 F12000 ; Z hop
G0 X51.1836 Y62.9368 F12000 ; Move to start next pattern wall
G1 Z0.45 F12000 ; Z hop return
G1 E0.5 F2100 ; Un-retract
G1 X72.3968 Y84.15 E1.19241 F12000 ; Print pattern wall
G1 X51.1836 Y105.3632 E1.19241 F12000 ; Print pattern wall
G1 E-0.5 F2100 ; Retract
G1 Z0.55 F12000 ; Z hop
G0 X51.9184 Y62.9368 F12000 ; Move to start next pattern wall
G1 Z0.45 F12000 ; Z hop return
G1 E0.5 F2100 ; Un-retract
G1 X73.1316 Y84.15 E1.19241 F12000 ; Print pattern wall
G1 X51.9184 Y105.3632 E1.19241 F12000 ; Print pattern wall
G1 E-0.5 F2100 ; Retract
G1 Z0.55 F12000 ; Z hop
G0 X54.4809 Y62.9368 F12000 ; Move to next pattern
G1 Z0.45 F12000 ; Z hop return
G1 E0.5 F2100 ; Un-retract
SET_PRESSURE_ADVANCE ADVANCE=0.01 ; Set pressure advance
M117 PA 0.01
G1 X75.6941 Y84.15 E1.19241 F12000 ; Print pattern wall
G1 X54.4809 Y105.3632 E1.19241 F12000 ; Print pattern wall
G1 E-0.5 F2100 ; Retract
G1 Z0.55 F12000 ; Z hop
G0 X55.2157 Y62.9368 F12000 ; Move to start next pattern wall
G1 Z0.45 F12000 ; Z hop return
G1 E0.5 F2100 ; Un-retract
G1 X76.4289 Y84.15 E1.19241 F12000 ; Print pattern wall
G1 X55.2157 Y105.3632 E1.19241 F12000 ; Print pattern wall
G1 E-0.5 F2100 ; Retract
G1 Z0.55 F12000 ; Z hop
G0 X55.9505 Y62.9368 F12000 ; Move to start next pattern wall
G1 Z0.45 F12000 ; Z hop return
G1 E0.5 F2100 ; Un-retract
G1 X77.1637 Y84.15 E1.19241 F12000 ; Print pattern wall
G1 X55.9505 Y105.3632 E1.19241 F12000 ; Print pattern wall
G1 E-0.5 F2100 ; Retract
G1 Z0.55 F12000 ; Z hop
G0 X58.513 Y62.9368 F12000 ; Move to next pattern
G1 Z0.45 F12000 ; Z hop return
G1 E0.5 F2100 ; Un-retract
SET_PRESSURE_ADVANCE ADVANCE=0.015 ; Set pressure advance
M117 PA 0.015
G1 X79.7262 Y84.15 E1.19241 F12000 ; Print pattern wall
G1 X58.513 Y105.3632 E1.19241 F12000 ; Print pattern wall
G1 E-0.5 F2100 ; Retract
G1 Z0.55 F12000 ; Z hop
G0 X59.2478 Y62.9368 F12000 ; Move to start next pattern wall
G1 Z0.45 F12000 ; Z hop return
G1 E0.5 F2100 ; Un-retract
G1 X80.461 Y84.15 E1.19241 F12000 ; Print pattern wall
G1 X59.2478 Y105.3632 E1.19241 F12000 ; Print pattern wall
G1 E-0.5 F2100 ; Retract
G1 Z0.55 F12000 ; Z hop
G0 X59.9826 Y62.9368 F12000 ; Move to start next pattern wall
G1 Z0.45 F12000 ; Z hop return
G1 E0.5 F2100 ; Un-retract
G1 X81.1958 Y84.15 E1.19241 F12000 ; Print pattern wall
G1 X59.9826 Y105.3632 E1.19241 F12000 ; Print pattern wall
G1 E-0.5 F2100 ; Retract
G1 Z0.55 F12000 ; Z hop
G0 X62.5451 Y62.9368 F12000 ; Move to next pattern
G1 Z0.45 F12000 ; Z hop return
G1 E0.5 F2100 ; Un-retract
SET_PRESSURE_ADVANCE ADVANCE=0.02 ; Set pressure advance
M117 PA 0.02
G1 X83.7583 Y84.15 E1.19241 F12000 ; Print pattern wall
G1 X62.5451 Y105.3632 E1.19241 F12000 ; Print pattern wall
G1 E-0.5 F2100 ; Retract
G1 Z0.55 F12000 ; Z hop
G0 X63.2799 Y62.9368 F12000 ; Move to start next pattern wall
G1 Z0.45 F12000 ; Z hop return
G1 E0.5 F2100 ; Un-retract
G1 X84.4931 Y84.15 E1.19241 F12000 ; Print pattern wall
G1 X63.2799 Y105.3632 E1.19241 F12000 ; Print pattern wall
G1 E-0.5 F2100 ; Retract
G1 Z0.55 F12000 ; Z hop
G0 X64.0147 Y62.9368 F12000 ; Move to start next pattern wall
G1 Z0.45 F12000 ; Z hop return
G1 E0.5 F2100 ; Un-retract
G1 X85.2279 Y84.15 E1.19241 F12000 ; Print pattern wall
G1 X64.0147 Y105.3632 E1.19241 F12000 ; Print pattern wall
G1 E-0.5 F2100 ; Retract
G1 Z0.55 F12000 ; Z hop
G0 X66.5772 Y62.9368 F12000 ; Move to next pattern
G1 Z0.45 F12000 ; Z hop return
G1 E0.5 F2100 ; Un-retract
SET_PRESSURE_ADVANCE ADVANCE=0.025 ; Set pressure advance
M117 PA 0.025
G1 X87.7904 Y84.15 E1.19241 F12000 ; Print pattern wall
G1 X66.5772 Y105.3632 E1.19241 F12000 ; Print pattern wall
G1 E-0.5 F2100 ; Retract
G1 Z0.55 F12000 ; Z hop
G0 X67.312 Y62.9368 F12000 ; Move to start next pattern wall
G1 Z0.45 F12000 ; Z hop return
G1 E0.5 F2100 ; Un-retract
G1 X88.5252 Y84.15 E1.19241 F12000 ; Print pattern wall
G1 X67.312 Y105.3632 E1.19241 F12000 ; Print pattern wall
G1 E-0.5 F2100 ; Retract
G1 Z0.55 F12000 ; Z hop
G0 X68.0468 Y62.9368 F12000 ; Move to start next pattern wall
G1 Z0.45 F12000 ; Z hop return
G1 E0.5 F2100 ; Un-retract
G1 X89.26 Y84.15 E1.19241 F12000 ; Print pattern wall
G1 X68.0468 Y105.3632 E1.19241 F12000 ; Print pattern wall
G1 E-0.5 F2100 ; Retract
G1 Z0.55 F12000 ; Z hop
G0 X70.6093 Y62.9368 F12000 ; Move to next pattern
G1 Z0.45 F12000 ; Z hop return
G1 E0.5 F2100 ; Un-retract
SET_PRESSURE_ADVANCE ADVANCE=0.03 ; Set pressure advance
M117 PA 0.03
G1 X91.8225 Y84.15 E1.19241 F12000 ; Print pattern wall
G1 X70.6093 Y105.3632 E1.19241 F12000 ; Print pattern wall
G1 E-0.5 F2100 ; Retract
G1 Z0.55 F12000 ; Z hop
G0 X71.3441 Y62.9368 F12000 ; Move to start next pattern wall
G1 Z0.45 F12000 ; Z hop return
G1 E0.5 F2100 ; Un-retract
G1 X92.5573 Y84.15 E1.19241 F12000 ; Print pattern wall
G1 X71.3441 Y105.3632 E1.19241 F12000 ; Print pattern wall
G1 E-0.5 F2100 ; Retract
G1 Z0.55 F12000 ; Z hop
G0 X72.0789 Y62.9368 F12000 ; Move to start next pattern wall
G1 Z0.45 F12000 ; Z hop return
G1 E0.5 F2100 ; Un-retract
G1 X93.2921 Y84.15 E1.19241 F12000 ; Print pattern wall
G1 X72.0789 Y105.3632 E1.19241 F12000 ; Print pattern wall
G1 E-0.5 F2100 ; Retract
G1 Z0.55 F12000 ; Z hop
G0 X74.6414 Y62.9368 F12000 ; Move to next pattern
G1 Z0.45 F12000 ; Z hop return
G1 E0.5 F2100 ; Un-retract
SET_PRESSURE_ADVANCE ADVANCE=0.035 ; Set pressure advance
M117 PA 0.035
G1 X95.8546 Y84.15 E1.19241 F12000 ; Print pattern wall
G1 X74.6414 Y105.3632 E1.19241 F12000 ; Print pattern wall
G1 E-0.5 F2100 ; Retract
G1 Z0.55 F12000 ; Z hop
G0 X75.3762 Y62.9368 F12000 ; Move to start next pattern wall
G1 Z0.45 F12000 ; Z hop return
G1 E0.5 F2100 ; Un-retract
G1 X96.5894 Y84.15 E1.19241 F12000 ; Print pattern wall
G1 X75.3762 Y105.3632 E1.19241 F12000 ; Print pattern wall
G1 E-0.5 F2100 ; Retract
G1 Z0.55 F12000 ; Z hop
G0 X76.111 Y62.9368 F12000 ; Move to start next pattern wall
G1 Z0.45 F12000 ; Z hop return
G1 E0.5 F2100 ; Un-retract
G1 X97.3242 Y84.15 E1.19241 F12000 ; Print pattern wall
G1 X76.111 Y105.3632 E1.19241 F12000 ; Print pattern wall
G1 E-0.5 F2100 ; Retract
G1 Z0.55 F12000 ; Z hop
G0 X78.6735 Y62.9368 F12000 ; Move to next pattern
G1 Z0.45 F12000 ; Z hop return
G1 E0.5 F2100 ; Un-retract
SET_PRESSURE_ADVANCE ADVANCE=0.04 ; Set pressure advance
M117 PA 0.04
G1 X99.8867 Y84.15 E1.19241 F12000 ; Print pattern wall
G1 X78.6735 Y105.3632 E1.19241 F12000 ; Print pattern wall
G1 E-0.5 F2100 ; Retract
G1 Z0.55 F12000 ; Z hop
G0 X79.4083 Y62.9368 F12000 ; Move to start next pattern wall
G1 Z0.45 F12000 ; Z hop return
G1 E0.5 F2100 ; Un-retract
G1 X100.6215 Y84.15 E1.19241 F12000 ; Print pattern wall
G1 X79.4083 Y105.3632 E1.19241 F12000 ; Print pattern wall
G1 E-0.5 F2100 ; Retract
G1 Z0.55 F12000 ; Z hop
G0 X80.1431 Y62.9368 F12000 ; Move to start next pattern wall
G1 Z0.45 F12000 ; Z hop return
G1 E0.5 F2100 ; Un-retract
G1 X101.3563 Y84.15 E1.19241 F12000 ; Print pattern wall
G1 X80.1431 Y105.3632 E1.19241 F12000 ; Print pattern wall
G1 E-0.5 F2100 ; Retract
G1 Z0.55 F12000 ; Z hop
G0 X82.7056 Y62.9368 F12000 ; Move to next pattern
G1 Z0.45 F12000 ; Z hop return
G1 E0.5 F2100 ; Un-retract
SET_PRESSURE_ADVANCE ADVANCE=0.045 ; Set pressure advance
M117 PA 0.045
G1 X103.9188 Y84.15 E1.19241 F12000 ; Print pattern wall
G1 X82.7056 Y105.3632 E1.19241 F12000 ; Print pattern wall
G1 E-0.5 F2100 ; Retract
G1 Z0.55 F12000 ; Z hop
G0 X83.4404 Y62.9368 F12000 ; Move to start next pattern wall
G1 Z0.45 F12000 ; Z hop return
G1 E0.5 F2100 ; Un-retract
G1 X104.6536 Y84.15 E1.19241 F12000 ; Print pattern wall
G1 X83.4404 Y105.3632 E1.19241 F12000 ; Print pattern wall
G1 E-0.5 F2100 ; Retract
G1 Z0.55 F12000 ; Z hop
G0 X84.1752 Y62.9368 F12000 ; Move to start next pattern wall
G1 Z0.45 F12000 ; Z hop return
G1 E0.5 F2100 ; Un-retract
G1 X105.3884 Y84.15 E1.19241 F12000 ; Print pattern wall
G1 X84.1752 Y105.3632 E1.19241 F12000 ; Print pattern wall
G1 E-0.5 F2100 ; Retract
G1 Z0.55 F12000 ; Z hop
G0 X86.7377 Y62.9368 F12000 ; Move to next pattern
G1 Z0.45 F12000 ; Z hop return
G1 E0.5 F2100 ; Un-retract
SET_PRESSURE_ADVANCE ADVANCE=0.05 ; Set pressure advance
M117 PA 0.05
G1 X107.9509 Y84.15 E1.19241 F12000 ; Print pattern wall
G1 X86.7377 Y105.3632 E1.19241 F12000 ; Print pattern wall
G1 E-0.5 F2100 ; Retract
G1 Z0.55 F12000 ; Z hop
G0 X87.4725 Y62.9368 F12000 ; Move to start next pattern wall
G1 Z0.45 F12000 ; Z hop return
G1 E0.5 F2100 ; Un-retract
G1 X108.6857 Y84.15 E1.19241 F12000 ; Print pattern wall
G1 X87.4725 Y105.3632 E1.19241 F12000 ; Print pattern wall
G1 E-0.5 F2100 ; Retract
G1 Z0.55 F12000 ; Z hop
G0 X88.2073 Y62.9368 F12000 ; Move to start next pattern wall
G1 Z0.45 F12000 ; Z hop return
G1 E0.5 F2100 ; Un-retract
G1 X109.4205 Y84.15 E1.19241 F12000 ; Print pattern wall
G1 X88.2073 Y105.3632 E1.19241 F12000 ; Print pattern wall
G1 E-0.5 F2100 ; Retract
G1 Z0.55 F12000 ; Z hop
G0 X90.7698 Y62.9368 F12000 ; Move to next pattern
G1 Z0.45 F12000 ; Z hop return
G1 E0.5 F2100 ; Un-retract
SET_PRESSURE_ADVANCE ADVANCE=0.055 ; Set pressure advance
M117 PA 0.055
G1 X111.983 Y84.15 E1.19241 F12000 ; Print pattern wall
G1 X90.7698 Y105.3632 E1.19241 F12000 ; Print pattern wall
G1 E-0.5 F2100 ; Retract
G1 Z0.55 F12000 ; Z hop
G0 X91.5046 Y62.9368 F12000 ; Move to start next pattern wall
G1 Z0.45 F12000 ; Z hop return
G1 E0.5 F2100 ; Un-retract
G1 X112.7178 Y84.15 E1.19241 F12000 ; Print pattern wall
G1 X91.5046 Y105.3632 E1.19241 F12000 ; Print pattern wall
G1 E-0.5 F2100 ; Retract
G1 Z0.55 F12000 ; Z hop
G0 X92.2394 Y62.9368 F12000 ; Move to start next pattern wall
G1 Z0.45 F12000 ; Z hop return
G1 E0.5 F2100 ; Un-retract
G1 X113.4526 Y84.15 E1.19241 F12000 ; Print pattern wall
G1 X92.2394 Y105.3632 E1.19241 F12000 ; Print pattern wall
G1 E-0.5 F2100 ; Retract
G1 Z0.55 F12000 ; Z hop
G0 X94.8019 Y62.9368 F12000 ; Move to next pattern
G1 Z0.45 F12000 ; Z hop return
G1 E0.5 F2100 ; Un-retract
SET_PRESSURE_ADVANCE ADVANCE=0.06 ; Set pressure advance
M117 PA 0.06
G1 X116.0151 Y84.15 E1.19241 F12000 ; Print pattern wall
G1 X94.8019 Y105.3632 E1.19241 F12000 ; Print pattern wall
G1 E-0.5 F2100 ; Retract
G1 Z0.55 F12000 ; Z hop
G0 X95.5367 Y62.9368 F12000 ; Move to start next pattern wall
G1 Z0.45 F12000 ; Z hop return
G1 E0.5 F2100 ; Un-retract
G1 X116.7499 Y84.15 E1.19241 F12000 ; Print pattern wall
G1 X95.5367 Y105.3632 E1.19241 F12000 ; Print pattern wall
G1 E-0.5 F2100 ; Retract
G1 Z0.55 F12000 ; Z hop
G0 X96.2715 Y62.9368 F12000 ; Move to start next pattern wall
G1 Z0.45 F12000 ; Z hop return
G1 E0.5 F2100 ; Un-retract
G1 X117.4847 Y84.15 E1.19241 F12000 ; Print pattern wall
G1 X96.2715 Y105.3632 E1.19241 F12000 ; Print pattern wall
G1 E-0.5 F2100 ; Retract
G1 Z0.55 F12000 ; Z hop
G0 X98.834 Y62.9368 F12000 ; Move to next pattern
G1 Z0.45 F12000 ; Z hop return
G1 E0.5 F2100 ; Un-retract
SET_PRESSURE_ADVANCE ADVANCE=0.065 ; Set pressure advance
M117 PA 0.065
G1 X120.0472 Y84.15 E1.19241 F12000 ; Print pattern wall
G1 X98.834 Y105.3632 E1.19241 F12000 ; Print pattern wall
G1 E-0.5 F2100 ; Retract
G1 Z0.55 F12000 ; Z hop
G0 X99.5688 Y62.9368 F12000 ; Move to start next pattern wall
G1 Z0.45 F12000 ; Z hop return
G1 E0.5 F2100 ; Un-retract
G1 X120.782 Y84.15 E1.19241 F12000 ; Print pattern wall
G1 X99.5688 Y105.3632 E1.19241 F12000 ; Print pattern wall
G1 E-0.5 F2100 ; Retract
G1 Z0.55 F12000 ; Z hop
G0 X100.3036 Y62.9368 F12000 ; Move to start next pattern wall
G1 Z0.45 F12000 ; Z hop return
G1 E0.5 F2100 ; Un-retract
G1 X121.5168 Y84.15 E1.19241 F12000 ; Print pattern wall
G1 X100.3036 Y105.3632 E1.19241 F12000 ; Print pattern wall
G1 E-0.5 F2100 ; Retract
G1 Z0.55 F12000 ; Z hop
G0 X102.8661 Y62.9368 F12000 ; Move to next pattern
G1 Z0.45 F12000 ; Z hop return
G1 E0.5 F2100 ; Un-retract
SET_PRESSURE_ADVANCE ADVANCE=0.07 ; Set pressure advance
M117 PA 0.07
G1 X124.0793 Y84.15 E1.19241 F12000 ; Print pattern wall
G1 X102.8661 Y105.3632 E1.19241 F12000 ; Print pattern wall
G1 E-0.5 F2100 ; Retract
G1 Z0.55 F12000 ; Z hop
G0 X103.6009 Y62.9368 F12000 ; Move to start next pattern wall
G1 Z0.45 F12000 ; Z hop return
G1 E0.5 F2100 ; Un-retract
G1 X124.8141 Y84.15 E1.19241 F12000 ; Print pattern wall
G1 X103.6009 Y105.3632 E1.19241 F12000 ; Print pattern wall
G1 E-0.5 F2100 ; Retract
G1 Z0.55 F12000 ; Z hop
G0 X104.3356 Y62.9368 F12000 ; Move to start next pattern wall
G1 Z0.45 F12000 ; Z hop return
G1 E0.5 F2100 ; Un-retract
G1 X125.5489 Y84.15 E1.19241 F12000 ; Print pattern wall
G1 X104.3356 Y105.3632 E1.19241 F12000 ; Print pattern wall
G1 E-0.5 F2100 ; Retract
G1 Z0.55 F12000 ; Z hop
G0 X106.8981 Y62.9368 F12000 ; Move to next pattern
G1 Z0.45 F12000 ; Z hop return
G1 E0.5 F2100 ; Un-retract
SET_PRESSURE_ADVANCE ADVANCE=0.075 ; Set pressure advance
M117 PA 0.075
G1 X128.1114 Y84.15 E1.19241 F12000 ; Print pattern wall
G1 X106.8981 Y105.3632 E1.19241 F12000 ; Print pattern wall
G1 E-0.5 F2100 ; Retract
G1 Z0.55 F12000 ; Z hop
G0 X107.6329 Y62.9368 F12000 ; Move to start next pattern wall
G1 Z0.45 F12000 ; Z hop return
G1 E0.5 F2100 ; Un-retract
G1 X128.8461 Y84.15 E1.19241 F12000 ; Print pattern wall
G1 X107.6329 Y105.3632 E1.19241 F12000 ; Print pattern wall
G1 E-0.5 F2100 ; Retract
G1 Z0.55 F12000 ; Z hop
G0 X108.3677 Y62.9368 F12000 ; Move to start next pattern wall
G1 Z0.45 F12000 ; Z hop return
G1 E0.5 F2100 ; Un-retract
G1 X129.5809 Y84.15 E1.19241 F12000 ; Print pattern wall
G1 X108.3677 Y105.3632 E1.19241 F12000 ; Print pattern wall
G1 E-0.5 F2100 ; Retract
G1 Z0.55 F12000 ; Z hop
G0 X110.9302 Y62.9368 F12000 ; Move to next pattern
G1 Z0.45 F12000 ; Z hop return
G1 E0.5 F2100 ; Un-retract
SET_PRESSURE_ADVANCE ADVANCE=0.08 ; Set pressure advance
M117 PA 0.08
G1 X132.1434 Y84.15 E1.19241 F12000 ; Print pattern wall
G1 X110.9302 Y105.3632 E1.19241 F12000 ; Print pattern wall
G1 E-0.5 F2100 ; Retract
G1 Z0.55 F12000 ; Z hop
G0 X111.665 Y62.9368 F12000 ; Move to start next pattern wall
G1 Z0.45 F12000 ; Z hop return
G1 E0.5 F2100 ; Un-retract
G1 X132.8782 Y84.15 E1.19241 F12000 ; Print pattern wall
G1 X111.665 Y105.3632 E1.19241 F12000 ; Print pattern wall
G1 E-0.5 F2100 ; Retract
G1 Z0.55 F12000 ; Z hop
G0 X112.3998 Y62.9368 F12000 ; Move to start next pattern wall
G1 Z0.45 F12000 ; Z hop return
G1 E0.5 F2100 ; Un-retract
G1 X133.613 Y84.15 E1.19241 F12000 ; Print pattern wall
G1 X112.3998 Y105.3632 E1.19241 F12000 ; Print pattern wall
G1 E-0.5 F2100 ; Retract
G1 Z0.55 F12000 ; Z hop
G0 X46.4168 Y62.9368 F12000 ; Move back to start position
G1 Z0.45 F12000 ; Z hop return
G1 E0.5 F2100 ; Un-retract
G0 Z0.65 F12000 ; Move to layer height
SET_PRESSURE_ADVANCE ADVANCE=0 ; Set pressure advance
M117 PA 0
G1 X67.63 Y84.15 E1.19241 F12000 ; Print pattern wall
G1 X46.4168 Y105.3632 E1.19241 F12000 ; Print pattern wall
G1 E-0.5 F2100 ; Retract
G1 Z0.75 F12000 ; Z hop
G0 X47.1515 Y62.9368 F12000 ; Move to start next pattern wall
G1 Z0.65 F12000 ; Z hop return
G1 E0.5 F2100 ; Un-retract
G1 X68.3648 Y84.15 E1.19241 F12000 ; Print pattern wall
G1 X47.1515 Y105.3632 E1.19241 F12000 ; Print pattern wall
G1 E-0.5 F2100 ; Retract
G1 Z0.75 F12000 ; Z hop
G0 X47.8863 Y62.9368 F12000 ; Move to start next pattern wall
G1 Z0.65 F12000 ; Z hop return
G1 E0.5 F2100 ; Un-retract
G1 X69.0995 Y84.15 E1.19241 F12000 ; Print pattern wall
G1 X47.8863 Y105.3632 E1.19241 F12000 ; Print pattern wall
G1 E-0.5 F2100 ; Retract
G1 Z0.75 F12000 ; Z hop
G0 X50.4488 Y62.9368 F12000 ; Move to next pattern
G1 Z0.65 F12000 ; Z hop return
G1 E0.5 F2100 ; Un-retract
SET_PRESSURE_ADVANCE ADVANCE=0.005 ; Set pressure advance
M117 PA 0.005
G1 X71.662 Y84.15 E1.19241 F12000 ; Print pattern wall
G1 X50.4488 Y105.3632 E1.19241 F12000 ; Print pattern wall
G1 E-0.5 F2100 ; Retract
G1 Z0.75 F12000 ; Z hop
G0 X51.1836 Y62.9368 F12000 ; Move to start next pattern wall
G1 Z0.65 F12000 ; Z hop return
G1 E0.5 F2100 ; Un-retract
G1 X72.3968 Y84.15 E1.19241 F12000 ; Print pattern wall
G1 X51.1836 Y105.3632 E1.19241 F12000 ; Print pattern wall
G1 E-0.5 F2100 ; Retract
G1 Z0.75 F12000 ; Z hop
G0 X51.9184 Y62.9368 F12000 ; Move to start next pattern wall
G1 Z0.65 F12000 ; Z hop return
G1 E0.5 F2100 ; Un-retract
G1 X73.1316 Y84.15 E1.19241 F12000 ; Print pattern wall
G1 X51.9184 Y105.3632 E1.19241 F12000 ; Print pattern wall
G1 E-0.5 F2100 ; Retract
G1 Z0.75 F12000 ; Z hop
G0 X54.4809 Y62.9368 F12000 ; Move to next pattern
G1 Z0.65 F12000 ; Z hop return
G1 E0.5 F2100 ; Un-retract
SET_PRESSURE_ADVANCE ADVANCE=0.01 ; Set pressure advance
M117 PA 0.01
G1 X75.6941 Y84.15 E1.19241 F12000 ; Print pattern wall
G1 X54.4809 Y105.3632 E1.19241 F12000 ; Print pattern wall
G1 E-0.5 F2100 ; Retract
G1 Z0.75 F12000 ; Z hop
G0 X55.2157 Y62.9368 F12000 ; Move to start next pattern wall
G1 Z0.65 F12000 ; Z hop return
G1 E0.5 F2100 ; Un-retract
G1 X76.4289 Y84.15 E1.19241 F12000 ; Print pattern wall
G1 X55.2157 Y105.3632 E1.19241 F12000 ; Print pattern wall
G1 E-0.5 F2100 ; Retract
G1 Z0.75 F12000 ; Z hop
G0 X55.9505 Y62.9368 F12000 ; Move to start next pattern wall
G1 Z0.65 F12000 ; Z hop return
G1 E0.5 F2100 ; Un-retract
G1 X77.1637 Y84.15 E1.19241 F12000 ; Print pattern wall
G1 X55.9505 Y105.3632 E1.19241 F12000 ; Print pattern wall
G1 E-0.5 F2100 ; Retract
G1 Z0.75 F12000 ; Z hop
G0 X58.513 Y62.9368 F12000 ; Move to next pattern
G1 Z0.65 F12000 ; Z hop return
G1 E0.5 F2100 ; Un-retract
SET_PRESSURE_ADVANCE ADVANCE=0.015 ; Set pressure advance
M117 PA 0.015
G1 X79.7262 Y84.15 E1.19241 F12000 ; Print pattern wall
G1 X58.513 Y105.3632 E1.19241 F12000 ; Print pattern wall
G1 E-0.5 F2100 ; Retract
G1 Z0.75 F12000 ; Z hop
G0 X59.2478 Y62.9368 F12000 ; Move to start next pattern wall
G1 Z0.65 F12000 ; Z hop return
G1 E0.5 F2100 ; Un-retract
G1 X80.461 Y84.15 E1.19241 F12000 ; Print pattern wall
G1 X59.2478 Y105.3632 E1.19241 F12000 ; Print pattern wall
G1 E-0.5 F2100 ; Retract
G1 Z0.75 F12000 ; Z hop
G0 X59.9826 Y62.9368 F12000 ; Move to start next pattern wall
G1 Z0.65 F12000 ; Z hop return
G1 E0.5 F2100 ; Un-retract
G1 X81.1958 Y84.15 E1.19241 F12000 ; Print pattern wall
G1 X59.9826 Y105.3632 E1.19241 F12000 ; Print pattern wall
G1 E-0.5 F2100 ; Retract
G1 Z0.75 F12000 ; Z hop
G0 X62.5451 Y62.9368 F12000 ; Move to next pattern
G1 Z0.65 F12000 ; Z hop return
G1 E0.5 F2100 ; Un-retract
SET_PRESSURE_ADVANCE ADVANCE=0.02 ; Set pressure advance
M117 PA 0.02
G1 X83.7583 Y84.15 E1.19241 F12000 ; Print pattern wall
G1 X62.5451 Y105.3632 E1.19241 F12000 ; Print pattern wall
G1 E-0.5 F2100 ; Retract
G1 Z0.75 F12000 ; Z hop
G0 X63.2799 Y62.9368 F12000 ; Move to start next pattern wall
G1 Z0.65 F12000 ; Z hop return
G1 E0.5 F2100 ; Un-retract
G1 X84.4931 Y84.15 E1.19241 F12000 ; Print pattern wall
G1 X63.2799 Y105.3632 E1.19241 F12000 ; Print pattern wall
G1 E-0.5 F2100 ; Retract
G1 Z0.75 F12000 ; Z hop
G0 X64.0147 Y62.9368 F12000 ; Move to start next pattern wall
G1 Z0.65 F12000 ; Z hop return
G1 E0.5 F2100 ; Un-retract
G1 X85.2279 Y84.15 E1.19241 F12000 ; Print pattern wall
G1 X64.0147 Y105.3632 E1.19241 F12000 ; Print pattern wall
G1 E-0.5 F2100 ; Retract
G1 Z0.75 F12000 ; Z hop
G0 X66.5772 Y62.9368 F12000 ; Move to next pattern
G1 Z0.65 F12000 ; Z hop return
G1 E0.5 F2100 ; Un-retract
SET_PRESSURE_ADVANCE ADVANCE=0.025 ; Set pressure advance
M117 PA 0.025
G1 X87.7904 Y84.15 E1.19241 F12000 ; Print pattern wall
G1 X66.5772 Y105.3632 E1.19241 F12000 ; Print pattern wall
G1 E-0.5 F2100 ; Retract
G1 Z0.75 F12000 ; Z hop
G0 X67.312 Y62.9368 F12000 ; Move to start next pattern wall
G1 Z0.65 F12000 ; Z hop return
G1 E0.5 F2100 ; Un-retract
G1 X88.5252 Y84.15 E1.19241 F12000 ; Print pattern wall
G1 X67.312 Y105.3632 E1.19241 F12000 ; Print pattern wall
G1 E-0.5 F2100 ; Retract
G1 Z0.75 F12000 ; Z hop
G0 X68.0468 Y62.9368 F12000 ; Move to start next pattern wall
G1 Z0.65 F12000 ; Z hop return
G1 E0.5 F2100 ; Un-retract
G1 X89.26 Y84.15 E1.19241 F12000 ; Print pattern wall
G1 X68.0468 Y105.3632 E1.19241 F12000 ; Print pattern wall
G1 E-0.5 F2100 ; Retract
G1 Z0.75 F12000 ; Z hop
G0 X70.6093 Y62.9368 F12000 ; Move to next pattern
G1 Z0.65 F12000 ; Z hop return
G1 E0.5 F2100 ; Un-retract
SET_PRESSURE_ADVANCE ADVANCE=0.03 ; Set pressure advance
M117 PA 0.03
G1 X91.8225 Y84.15 E1.19241 F12000 ; Print pattern wall
G1 X70.6093 Y105.3632 E1.19241 F12000 ; Print pattern wall
G1 E-0.5 F2100 ; Retract
G1 Z0.75 F12000 ; Z hop
G0 X71.3441 Y62.9368 F12000 ; Move to start next pattern wall
G1 Z0.65 F12000 ; Z hop return
G1 E0.5 F2100 ; Un-retract
G1 X92.5573 Y84.15 E1.19241 F12000 ; Print pattern wall
G1 X71.3441 Y105.3632 E1.19241 F12000 ; Print pattern wall
G1 E-0.5 F2100 ; Retract
G1 Z0.75 F12000 ; Z hop
G0 X72.0789 Y62.9368 F12000 ; Move to start next pattern wall
G1 Z0.65 F12000 ; Z hop return
G1 E0.5 F2100 ; Un-retract
G1 X93.2921 Y84.15 E1.19241 F12000 ; Print pattern wall
G1 X72.0789 Y105.3632 E1.19241 F12000 ; Print pattern wall
G1 E-0.5 F2100 ; Retract
G1 Z0.75 F12000 ; Z hop
G0 X74.6414 Y62.9368 F12000 ; Move to next pattern
G1 Z0.65 F12000 ; Z hop return
G1 E0.5 F2100 ; Un-retract
SET_PRESSURE_ADVANCE ADVANCE=0.035 ; Set pressure advance
M117 PA 0.035
G1 X95.8546 Y84.15 E1.19241 F12000 ; Print pattern wall
G1 X74.6414 Y105.3632 E1.19241 F12000 ; Print pattern wall
G1 E-0.5 F2100 ; Retract
G1 Z0.75 F12000 ; Z hop
G0 X75.3762 Y62.9368 F12000 ; Move to start next pattern wall
G1 Z0.65 F12000 ; Z hop return
G1 E0.5 F2100 ; Un-retract
G1 X96.5894 Y84.15 E1.19241 F12000 ; Print pattern wall
G1 X75.3762 Y105.3632 E1.19241 F12000 ; Print pattern wall
G1 E-0.5 F2100 ; Retract
G1 Z0.75 F12000 ; Z hop
G0 X76.111 Y62.9368 F12000 ; Move to start next pattern wall
G1 Z0.65 F12000 ; Z hop return
G1 E0.5 F2100 ; Un-retract
G1 X97.3242 Y84.15 E1.19241 F12000 ; Print pattern wall
G1 X76.111 Y105.3632 E1.19241 F12000 ; Print pattern wall
G1 E-0.5 F2100 ; Retract
G1 Z0.75 F12000 ; Z hop
G0 X78.6735 Y62.9368 F12000 ; Move to next pattern
G1 Z0.65 F12000 ; Z hop return
G1 E0.5 F2100 ; Un-retract
SET_PRESSURE_ADVANCE ADVANCE=0.04 ; Set pressure advance
M117 PA 0.04
G1 X99.8867 Y84.15 E1.19241 F12000 ; Print pattern wall
G1 X78.6735 Y105.3632 E1.19241 F12000 ; Print pattern wall
G1 E-0.5 F2100 ; Retract
G1 Z0.75 F12000 ; Z hop
G0 X79.4083 Y62.9368 F12000 ; Move to start next pattern wall
G1 Z0.65 F12000 ; Z hop return
G1 E0.5 F2100 ; Un-retract
G1 X100.6215 Y84.15 E1.19241 F12000 ; Print pattern wall
G1 X79.4083 Y105.3632 E1.19241 F12000 ; Print pattern wall
G1 E-0.5 F2100 ; Retract
G1 Z0.75 F12000 ; Z hop
G0 X80.1431 Y62.9368 F12000 ; Move to start next pattern wall
G1 Z0.65 F12000 ; Z hop return
G1 E0.5 F2100 ; Un-retract
G1 X101.3563 Y84.15 E1.19241 F12000 ; Print pattern wall
G1 X80.1431 Y105.3632 E1.19241 F12000 ; Print pattern wall
G1 E-0.5 F2100 ; Retract
G1 Z0.75 F12000 ; Z hop
G0 X82.7056 Y62.9368 F12000 ; Move to next pattern
G1 Z0.65 F12000 ; Z hop return
G1 E0.5 F2100 ; Un-retract
SET_PRESSURE_ADVANCE ADVANCE=0.045 ; Set pressure advance
M117 PA 0.045
G1 X103.9188 Y84.15 E1.19241 F12000 ; Print pattern wall
G1 X82.7056 Y105.3632 E1.19241 F12000 ; Print pattern wall
G1 E-0.5 F2100 ; Retract
G1 Z0.75 F12000 ; Z hop
G0 X83.4404 Y62.9368 F12000 ; Move to start next pattern wall
G1 Z0.65 F12000 ; Z hop return
G1 E0.5 F2100 ; Un-retract
G1 X104.6536 Y84.15 E1.19241 F12000 ; Print pattern wall
G1 X83.4404 Y105.3632 E1.19241 F12000 ; Print pattern wall
G1 E-0.5 F2100 ; Retract
G1 Z0.75 F12000 ; Z hop
G0 X84.1752 Y62.9368 F12000 ; Move to start next pattern wall
G1 Z0.65 F12000 ; Z hop return
G1 E0.5 F2100 ; Un-retract
G1 X105.3884 Y84.15 E1.19241 F12000 ; Print pattern wall
G1 X84.1752 Y105.3632 E1.19241 F12000 ; Print pattern wall
G1 E-0.5 F2100 ; Retract
G1 Z0.75 F12000 ; Z hop
G0 X86.7377 Y62.9368 F12000 ; Move to next pattern
G1 Z0.65 F12000 ; Z hop return
G1 E0.5 F2100 ; Un-retract
SET_PRESSURE_ADVANCE ADVANCE=0.05 ; Set pressure advance
M117 PA 0.05
G1 X107.9509 Y84.15 E1.19241 F12000 ; Print pattern wall
G1 X86.7377 Y105.3632 E1.19241 F12000 ; Print pattern wall
G1 E-0.5 F2100 ; Retract
G1 Z0.75 F12000 ; Z hop
G0 X87.4725 Y62.9368 F12000 ; Move to start next pattern wall
G1 Z0.65 F12000 ; Z hop return
G1 E0.5 F2100 ; Un-retract
G1 X108.6857 Y84.15 E1.19241 F12000 ; Print pattern wall
G1 X87.4725 Y105.3632 E1.19241 F12000 ; Print pattern wall
G1 E-0.5 F2100 ; Retract
G1 Z0.75 F12000 ; Z hop
G0 X88.2073 Y62.9368 F12000 ; Move to start next pattern wall
G1 Z0.65 F12000 ; Z hop return
G1 E0.5 F2100 ; Un-retract
G1 X109.4205 Y84.15 E1.19241 F12000 ; Print pattern wall
G1 X88.2073 Y105.3632 E1.19241 F12000 ; Print pattern wall
G1 E-0.5 F2100 ; Retract
G1 Z0.75 F12000 ; Z hop
G0 X90.7698 Y62.9368 F12000 ; Move to next pattern
G1 Z0.65 F12000 ; Z hop return
G1 E0.5 F2100 ; Un-retract
SET_PRESSURE_ADVANCE ADVANCE=0.055 ; Set pressure advance
M117 PA 0.055
G1 X111.983 Y84.15 E1.19241 F12000 ; Print pattern wall
G1 X90.7698 Y105.3632 E1.19241 F12000 ; Print pattern wall
G1 E-0.5 F2100 ; Retract
G1 Z0.75 F12000 ; Z hop
G0 X91.5046 Y62.9368 F12000 ; Move to start next pattern wall
G1 Z0.65 F12000 ; Z hop return
G1 E0.5 F2100 ; Un-retract
G1 X112.7178 Y84.15 E1.19241 F12000 ; Print pattern wall
G1 X91.5046 Y105.3632 E1.19241 F12000 ; Print pattern wall
G1 E-0.5 F2100 ; Retract
G1 Z0.75 F12000 ; Z hop
G0 X92.2394 Y62.9368 F12000 ; Move to start next pattern wall
G1 Z0.65 F12000 ; Z hop return
G1 E0.5 F2100 ; Un-retract
G1 X113.4526 Y84.15 E1.19241 F12000 ; Print pattern wall
G1 X92.2394 Y105.3632 E1.19241 F12000 ; Print pattern wall
G1 E-0.5 F2100 ; Retract
G1 Z0.75 F12000 ; Z hop
G0 X94.8019 Y62.9368 F12000 ; Move to next pattern
G1 Z0.65 F12000 ; Z hop return
G1 E0.5 F2100 ; Un-retract
SET_PRESSURE_ADVANCE ADVANCE=0.06 ; Set pressure advance
M117 PA 0.06
G1 X116.0151 Y84.15 E1.19241 F12000 ; Print pattern wall
G1 X94.8019 Y105.3632 E1.19241 F12000 ; Print pattern wall
G1 E-0.5 F2100 ; Retract
G1 Z0.75 F12000 ; Z hop
G0 X95.5367 Y62.9368 F12000 ; Move to start next pattern wall
G1 Z0.65 F12000 ; Z hop return
G1 E0.5 F2100 ; Un-retract
G1 X116.7499 Y84.15 E1.19241 F12000 ; Print pattern wall
G1 X95.5367 Y105.3632 E1.19241 F12000 ; Print pattern wall
G1 E-0.5 F2100 ; Retract
G1 Z0.75 F12000 ; Z hop
G0 X96.2715 Y62.9368 F12000 ; Move to start next pattern wall
G1 Z0.65 F12000 ; Z hop return
G1 E0.5 F2100 ; Un-retract
G1 X117.4847 Y84.15 E1.19241 F12000 ; Print pattern wall
G1 X96.2715 Y105.3632 E1.19241 F12000 ; Print pattern wall
G1 E-0.5 F2100 ; Retract
G1 Z0.75 F12000 ; Z hop
G0 X98.834 Y62.9368 F12000 ; Move to next pattern
G1 Z0.65 F12000 ; Z hop return
G1 E0.5 F2100 ; Un-retract
SET_PRESSURE_ADVANCE ADVANCE=0.065 ; Set pressure advance
M117 PA 0.065
G1 X120.0472 Y84.15 E1.19241 F12000 ; Print pattern wall
G1 X98.834 Y105.3632 E1.19241 F12000 ; Print pattern wall
G1 E-0.5 F2100 ; Retract
G1 Z0.75 F12000 ; Z hop
G0 X99.5688 Y62.9368 F12000 ; Move to start next pattern wall
G1 Z0.65 F12000 ; Z hop return
G1 E0.5 F2100 ; Un-retract
G1 X120.782 Y84.15 E1.19241 F12000 ; Print pattern wall
G1 X99.5688 Y105.3632 E1.19241 F12000 ; Print pattern wall
G1 E-0.5 F2100 ; Retract
G1 Z0.75 F12000 ; Z hop
G0 X100.3036 Y62.9368 F12000 ; Move to start next pattern wall
G1 Z0.65 F12000 ; Z hop return
G1 E0.5 F2100 ; Un-retract
G1 X121.5168 Y84.15 E1.19241 F12000 ; Print pattern wall
G1 X100.3036 Y105.3632 E1.19241 F12000 ; Print pattern wall
G1 E-0.5 F2100 ; Retract
G1 Z0.75 F12000 ; Z hop
G0 X102.8661 Y62.9368 F12000 ; Move to next pattern
G1 Z0.65 F12000 ; Z hop return
G1 E0.5 F2100 ; Un-retract
SET_PRESSURE_ADVANCE ADVANCE=0.07 ; Set pressure advance
M117 PA 0.07
G1 X124.0793 Y84.15 E1.19241 F12000 ; Print pattern wall
G1 X102.8661 Y105.3632 E1.19241 F12000 ; Print pattern wall
G1 E-0.5 F2100 ; Retract
G1 Z0.75 F12000 ; Z hop
G0 X103.6009 Y62.9368 F12000 ; Move to start next pattern wall
G1 Z0.65 F12000 ; Z hop return
G1 E0.5 F2100 ; Un-retract
G1 X124.8141 Y84.15 E1.19241 F12000 ; Print pattern wall
G1 X103.6009 Y105.3632 E1.19241 F12000 ; Print pattern wall
G1 E-0.5 F2100 ; Retract
G1 Z0.75 F12000 ; Z hop
G0 X104.3356 Y62.9368 F12000 ; Move to start next pattern wall
G1 Z0.65 F12000 ; Z hop return
G1 E0.5 F2100 ; Un-retract
G1 X125.5489 Y84.15 E1.19241 F12000 ; Print pattern wall
G1 X104.3356 Y105.3632 E1.19241 F12000 ; Print pattern wall
G1 E-0.5 F2100 ; Retract
G1 Z0.75 F12000 ; Z hop
G0 X106.8981 Y62.9368 F12000 ; Move to next pattern
G1 Z0.65 F12000 ; Z hop return
G1 E0.5 F2100 ; Un-retract
SET_PRESSURE_ADVANCE ADVANCE=0.075 ; Set pressure advance
M117 PA 0.075
G1 X128.1114 Y84.15 E1.19241 F12000 ; Print pattern wall
G1 X106.8981 Y105.3632 E1.19241 F12000 ; Print pattern wall
G1 E-0.5 F2100 ; Retract
G1 Z0.75 F12000 ; Z hop
G0 X107.6329 Y62.9368 F12000 ; Move to start next pattern wall
G1 Z0.65 F12000 ; Z hop return
G1 E0.5 F2100 ; Un-retract
G1 X128.8461 Y84.15 E1.19241 F12000 ; Print pattern wall
G1 X107.6329 Y105.3632 E1.19241 F12000 ; Print pattern wall
G1 E-0.5 F2100 ; Retract
G1 Z0.75 F12000 ; Z hop
G0 X108.3677 Y62.9368 F12000 ; Move to start next pattern wall
G1 Z0.65 F12000 ; Z hop return
G1 E0.5 F2100 ; Un-retract
G1 X129.5809 Y84.15 E1.19241 F12000 ; Print pattern wall
G1 X108.3677 Y105.3632 E1.19241 F12000 ; Print pattern wall
G1 E-0.5 F2100 ; Retract
G1 Z0.75 F12000 ; Z hop
G0 X110.9302 Y62.9368 F12000 ; Move to next pattern
G1 Z0.65 F12000 ; Z hop return
G1 E0.5 F2100 ; Un-retract
SET_PRESSURE_ADVANCE ADVANCE=0.08 ; Set pressure advance
M117 PA 0.08
G1 X132.1434 Y84.15 E1.19241 F12000 ; Print pattern wall
G1 X110.9302 Y105.3632 E1.19241 F12000 ; Print pattern wall
G1 E-0.5 F2100 ; Retract
G1 Z0.75 F12000 ; Z hop
G0 X111.665 Y62.9368 F12000 ; Move to start next pattern wall
G1 Z0.65 F12000 ; Z hop return
G1 E0.5 F2100 ; Un-retract
G1 X132.8782 Y84.15 E1.19241 F12000 ; Print pattern wall
G1 X111.665 Y105.3632 E1.19241 F12000 ; Print pattern wall
G1 E-0.5 F2100 ; Retract
G1 Z0.75 F12000 ; Z hop
G0 X112.3998 Y62.9368 F12000 ; Move to start next pattern wall
G1 Z0.65 F12000 ; Z hop return
G1 E0.5 F2100 ; Un-retract
G1 X133.613 Y84.15 E1.19241 F12000 ; Print pattern wall
G1 X112.3998 Y105.3632 E1.19241 F12000 ; Print pattern wall
G1 E-0.5 F2100 ; Retract
G1 Z0.75 F12000 ; Z hop
G0 X46.4168 Y62.9368 F12000 ; Move back to start position
G1 Z0.65 F12000 ; Z hop return
G1 E0.5 F2100 ; Un-retract
G0 Z0.85 F12000 ; Move to layer height
SET_PRESSURE_ADVANCE ADVANCE=0 ; Set pressure advance
M117 PA 0
G1 X67.63 Y84.15 E1.19241 F12000 ; Print pattern wall
G1 X46.4168 Y105.3632 E1.19241 F12000 ; Print pattern wall
G1 E-0.5 F2100 ; Retract
G1 Z0.95 F12000 ; Z hop
G0 X47.1515 Y62.9368 F12000 ; Move to start next pattern wall
G1 Z0.85 F12000 ; Z hop return
G1 E0.5 F2100 ; Un-retract
G1 X68.3648 Y84.15 E1.19241 F12000 ; Print pattern wall
G1 X47.1515 Y105.3632 E1.19241 F12000 ; Print pattern wall
G1 E-0.5 F2100 ; Retract
G1 Z0.95 F12000 ; Z hop
G0 X47.8863 Y62.9368 F12000 ; Move to start next pattern wall
G1 Z0.85 F12000 ; Z hop return
G1 E0.5 F2100 ; Un-retract
G1 X69.0995 Y84.15 E1.19241 F12000 ; Print pattern wall
G1 X47.8863 Y105.3632 E1.19241 F12000 ; Print pattern wall
G1 E-0.5 F2100 ; Retract
G1 Z0.95 F12000 ; Z hop
G0 X50.4488 Y62.9368 F12000 ; Move to next pattern
G1 Z0.85 F12000 ; Z hop return
G1 E0.5 F2100 ; Un-retract
SET_PRESSURE_ADVANCE ADVANCE=0.005 ; Set pressure advance
M117 PA 0.005
G1 X71.662 Y84.15 E1.19241 F12000 ; Print pattern wall
G1 X50.4488 Y105.3632 E1.19241 F12000 ; Print pattern wall
G1 E-0.5 F2100 ; Retract
G1 Z0.95 F12000 ; Z hop
G0 X51.1836 Y62.9368 F12000 ; Move to start next pattern wall
G1 Z0.85 F12000 ; Z hop return
G1 E0.5 F2100 ; Un-retract
G1 X72.3968 Y84.15 E1.19241 F12000 ; Print pattern wall
G1 X51.1836 Y105.3632 E1.19241 F12000 ; Print pattern wall
G1 E-0.5 F2100 ; Retract
G1 Z0.95 F12000 ; Z hop
G0 X51.9184 Y62.9368 F12000 ; Move to start next pattern wall
G1 Z0.85 F12000 ; Z hop return
G1 E0.5 F2100 ; Un-retract
G1 X73.1316 Y84.15 E1.19241 F12000 ; Print pattern wall
G1 X51.9184 Y105.3632 E1.19241 F12000 ; Print pattern wall
G1 E-0.5 F2100 ; Retract
G1 Z0.95 F12000 ; Z hop
G0 X54.4809 Y62.9368 F12000 ; Move to next pattern
G1 Z0.85 F12000 ; Z hop return
G1 E0.5 F2100 ; Un-retract
SET_PRESSURE_ADVANCE ADVANCE=0.01 ; Set pressure advance
M117 PA 0.01
G1 X75.6941 Y84.15 E1.19241 F12000 ; Print pattern wall
G1 X54.4809 Y105.3632 E1.19241 F12000 ; Print pattern wall
G1 E-0.5 F2100 ; Retract
G1 Z0.95 F12000 ; Z hop
G0 X55.2157 Y62.9368 F12000 ; Move to start next pattern wall
G1 Z0.85 F12000 ; Z hop return
G1 E0.5 F2100 ; Un-retract
G1 X76.4289 Y84.15 E1.19241 F12000 ; Print pattern wall
G1 X55.2157 Y105.3632 E1.19241 F12000 ; Print pattern wall
G1 E-0.5 F2100 ; Retract
G1 Z0.95 F12000 ; Z hop
G0 X55.9505 Y62.9368 F12000 ; Move to start next pattern wall
G1 Z0.85 F12000 ; Z hop return
G1 E0.5 F2100 ; Un-retract
G1 X77.1637 Y84.15 E1.19241 F12000 ; Print pattern wall
G1 X55.9505 Y105.3632 E1.19241 F12000 ; Print pattern wall
G1 E-0.5 F2100 ; Retract
G1 Z0.95 F12000 ; Z hop
G0 X58.513 Y62.9368 F12000 ; Move to next pattern
G1 Z0.85 F12000 ; Z hop return
G1 E0.5 F2100 ; Un-retract
SET_PRESSURE_ADVANCE ADVANCE=0.015 ; Set pressure advance
M117 PA 0.015
G1 X79.7262 Y84.15 E1.19241 F12000 ; Print pattern wall
G1 X58.513 Y105.3632 E1.19241 F12000 ; Print pattern wall
G1 E-0.5 F2100 ; Retract
G1 Z0.95 F12000 ; Z hop
G0 X59.2478 Y62.9368 F12000 ; Move to start next pattern wall
G1 Z0.85 F12000 ; Z hop return
G1 E0.5 F2100 ; Un-retract
G1 X80.461 Y84.15 E1.19241 F12000 ; Print pattern wall
G1 X59.2478 Y105.3632 E1.19241 F12000 ; Print pattern wall
G1 E-0.5 F2100 ; Retract
G1 Z0.95 F12000 ; Z hop
G0 X59.9826 Y62.9368 F12000 ; Move to start next pattern wall
G1 Z0.85 F12000 ; Z hop return
G1 E0.5 F2100 ; Un-retract
G1 X81.1958 Y84.15 E1.19241 F12000 ; Print pattern wall
G1 X59.9826 Y105.3632 E1.19241 F12000 ; Print pattern wall
G1 E-0.5 F2100 ; Retract
G1 Z0.95 F12000 ; Z hop
G0 X62.5451 Y62.9368 F12000 ; Move to next pattern
G1 Z0.85 F12000 ; Z hop return
G1 E0.5 F2100 ; Un-retract
SET_PRESSURE_ADVANCE ADVANCE=0.02 ; Set pressure advance
M117 PA 0.02
G1 X83.7583 Y84.15 E1.19241 F12000 ; Print pattern wall
G1 X62.5451 Y105.3632 E1.19241 F12000 ; Print pattern wall
G1 E-0.5 F2100 ; Retract
G1 Z0.95 F12000 ; Z hop
G0 X63.2799 Y62.9368 F12000 ; Move to start next pattern wall
G1 Z0.85 F12000 ; Z hop return
G1 E0.5 F2100 ; Un-retract
G1 X84.4931 Y84.15 E1.19241 F12000 ; Print pattern wall
G1 X63.2799 Y105.3632 E1.19241 F12000 ; Print pattern wall
G1 E-0.5 F2100 ; Retract
G1 Z0.95 F12000 ; Z hop
G0 X64.0147 Y62.9368 F12000 ; Move to start next pattern wall
G1 Z0.85 F12000 ; Z hop return
G1 E0.5 F2100 ; Un-retract
G1 X85.2279 Y84.15 E1.19241 F12000 ; Print pattern wall
G1 X64.0147 Y105.3632 E1.19241 F12000 ; Print pattern wall
G1 E-0.5 F2100 ; Retract
G1 Z0.95 F12000 ; Z hop
G0 X66.5772 Y62.9368 F12000 ; Move to next pattern
G1 Z0.85 F12000 ; Z hop return
G1 E0.5 F2100 ; Un-retract
SET_PRESSURE_ADVANCE ADVANCE=0.025 ; Set pressure advance
M117 PA 0.025
G1 X87.7904 Y84.15 E1.19241 F12000 ; Print pattern wall
G1 X66.5772 Y105.3632 E1.19241 F12000 ; Print pattern wall
G1 E-0.5 F2100 ; Retract
G1 Z0.95 F12000 ; Z hop
G0 X67.312 Y62.9368 F12000 ; Move to start next pattern wall
G1 Z0.85 F12000 ; Z hop return
G1 E0.5 F2100 ; Un-retract
G1 X88.5252 Y84.15 E1.19241 F12000 ; Print pattern wall
G1 X67.312 Y105.3632 E1.19241 F12000 ; Print pattern wall
G1 E-0.5 F2100 ; Retract
G1 Z0.95 F12000 ; Z hop
G0 X68.0468 Y62.9368 F12000 ; Move to start next pattern wall
G1 Z0.85 F12000 ; Z hop return
G1 E0.5 F2100 ; Un-retract
G1 X89.26 Y84.15 E1.19241 F12000 ; Print pattern wall
G1 X68.0468 Y105.3632 E1.19241 F12000 ; Print pattern wall
G1 E-0.5 F2100 ; Retract
G1 Z0.95 F12000 ; Z hop
G0 X70.6093 Y62.9368 F12000 ; Move to next pattern
G1 Z0.85 F12000 ; Z hop return
G1 E0.5 F2100 ; Un-retract
SET_PRESSURE_ADVANCE ADVANCE=0.03 ; Set pressure advance
M117 PA 0.03
G1 X91.8225 Y84.15 E1.19241 F12000 ; Print pattern wall
G1 X70.6093 Y105.3632 E1.19241 F12000 ; Print pattern wall
G1 E-0.5 F2100 ; Retract
G1 Z0.95 F12000 ; Z hop
G0 X71.3441 Y62.9368 F12000 ; Move to start next pattern wall
G1 Z0.85 F12000 ; Z hop return
G1 E0.5 F2100 ; Un-retract
G1 X92.5573 Y84.15 E1.19241 F12000 ; Print pattern wall
G1 X71.3441 Y105.3632 E1.19241 F12000 ; Print pattern wall
G1 E-0.5 F2100 ; Retract
G1 Z0.95 F12000 ; Z hop
G0 X72.0789 Y62.9368 F12000 ; Move to start next pattern wall
G1 Z0.85 F12000 ; Z hop return
G1 E0.5 F2100 ; Un-retract
G1 X93.2921 Y84.15 E1.19241 F12000 ; Print pattern wall
G1 X72.0789 Y105.3632 E1.19241 F12000 ; Print pattern wall
G1 E-0.5 F2100 ; Retract
G1 Z0.95 F12000 ; Z hop
G0 X74.6414 Y62.9368 F12000 ; Move to next pattern
G1 Z0.85 F12000 ; Z hop return
G1 E0.5 F2100 ; Un-retract
SET_PRESSURE_ADVANCE ADVANCE=0.035 ; Set pressure advance
M117 PA 0.035
G1 X95.8546 Y84.15 E1.19241 F12000 ; Print pattern wall
G1 X74.6414 Y105.3632 E1.19241 F12000 ; Print pattern wall
G1 E-0.5 F2100 ; Retract
G1 Z0.95 F12000 ; Z hop
G0 X75.3762 Y62.9368 F12000 ; Move to start next pattern wall
G1 Z0.85 F12000 ; Z hop return
G1 E0.5 F2100 ; Un-retract
G1 X96.5894 Y84.15 E1.19241 F12000 ; Print pattern wall
G1 X75.3762 Y105.3632 E1.19241 F12000 ; Print pattern wall
G1 E-0.5 F2100 ; Retract
G1 Z0.95 F12000 ; Z hop
G0 X76.111 Y62.9368 F12000 ; Move to start next pattern wall
G1 Z0.85 F12000 ; Z hop return
G1 E0.5 F2100 ; Un-retract
G1 X97.3242 Y84.15 E1.19241 F12000 ; Print pattern wall
G1 X76.111 Y105.3632 E1.19241 F12000 ; Print pattern wall
G1 E-0.5 F2100 ; Retract
G1 Z0.95 F12000 ; Z hop
G0 X78.6735 Y62.9368 F12000 ; Move to next pattern
G1 Z0.85 F12000 ; Z hop return
G1 E0.5 F2100 ; Un-retract
SET_PRESSURE_ADVANCE ADVANCE=0.04 ; Set pressure advance
M117 PA 0.04
G1 X99.8867 Y84.15 E1.19241 F12000 ; Print pattern wall
G1 X78.6735 Y105.3632 E1.19241 F12000 ; Print pattern wall
G1 E-0.5 F2100 ; Retract
G1 Z0.95 F12000 ; Z hop
G0 X79.4083 Y62.9368 F12000 ; Move to start next pattern wall
G1 Z0.85 F12000 ; Z hop return
G1 E0.5 F2100 ; Un-retract
G1 X100.6215 Y84.15 E1.19241 F12000 ; Print pattern wall
G1 X79.4083 Y105.3632 E1.19241 F12000 ; Print pattern wall
G1 E-0.5 F2100 ; Retract
G1 Z0.95 F12000 ; Z hop
G0 X80.1431 Y62.9368 F12000 ; Move to start next pattern wall
G1 Z0.85 F12000 ; Z hop return
G1 E0.5 F2100 ; Un-retract
G1 X101.3563 Y84.15 E1.19241 F12000 ; Print pattern wall
G1 X80.1431 Y105.3632 E1.19241 F12000 ; Print pattern wall
G1 E-0.5 F2100 ; Retract
G1 Z0.95 F12000 ; Z hop
G0 X82.7056 Y62.9368 F12000 ; Move to next pattern
G1 Z0.85 F12000 ; Z hop return
G1 E0.5 F2100 ; Un-retract
SET_PRESSURE_ADVANCE ADVANCE=0.045 ; Set pressure advance
M117 PA 0.045
G1 X103.9188 Y84.15 E1.19241 F12000 ; Print pattern wall
G1 X82.7056 Y105.3632 E1.19241 F12000 ; Print pattern wall
G1 E-0.5 F2100 ; Retract
G1 Z0.95 F12000 ; Z hop
G0 X83.4404 Y62.9368 F12000 ; Move to start next pattern wall
G1 Z0.85 F12000 ; Z hop return
G1 E0.5 F2100 ; Un-retract
G1 X104.6536 Y84.15 E1.19241 F12000 ; Print pattern wall
G1 X83.4404 Y105.3632 E1.19241 F12000 ; Print pattern wall
G1 E-0.5 F2100 ; Retract
G1 Z0.95 F12000 ; Z hop
G0 X84.1752 Y62.9368 F12000 ; Move to start next pattern wall
G1 Z0.85 F12000 ; Z hop return
G1 E0.5 F2100 ; Un-retract
G1 X105.3884 Y84.15 E1.19241 F12000 ; Print pattern wall
G1 X84.1752 Y105.3632 E1.19241 F12000 ; Print pattern wall
G1 E-0.5 F2100 ; Retract
G1 Z0.95 F12000 ; Z hop
G0 X86.7377 Y62.9368 F12000 ; Move to next pattern
G1 Z0.85 F12000 ; Z hop return
G1 E0.5 F2100 ; Un-retract
SET_PRESSURE_ADVANCE ADVANCE=0.05 ; Set pressure advance
M117 PA 0.05
G1 X107.9509 Y84.15 E1.19241 F12000 ; Print pattern wall
G1 X86.7377 Y105.3632 E1.19241 F12000 ; Print pattern wall
G1 E-0.5 F2100 ; Retract
G1 Z0.95 F12000 ; Z hop
G0 X87.4725 Y62.9368 F12000 ; Move to start next pattern wall
G1 Z0.85 F12000 ; Z hop return
G1 E0.5 F2100 ; Un-retract
G1 X108.6857 Y84.15 E1.19241 F12000 ; Print pattern wall
G1 X87.4725 Y105.3632 E1.19241 F12000 ; Print pattern wall
G1 E-0.5 F2100 ; Retract
G1 Z0.95 F12000 ; Z hop
G0 X88.2073 Y62.9368 F12000 ; Move to start next pattern wall
G1 Z0.85 F12000 ; Z hop return
G1 E0.5 F2100 ; Un-retract
G1 X109.4205 Y84.15 E1.19241 F12000 ; Print pattern wall
G1 X88.2073 Y105.3632 E1.19241 F12000 ; Print pattern wall
G1 E-0.5 F2100 ; Retract
G1 Z0.95 F12000 ; Z hop
G0 X90.7698 Y62.9368 F12000 ; Move to next pattern
G1 Z0.85 F12000 ; Z hop return
G1 E0.5 F2100 ; Un-retract
SET_PRESSURE_ADVANCE ADVANCE=0.055 ; Set pressure advance
M117 PA 0.055
G1 X111.983 Y84.15 E1.19241 F12000 ; Print pattern wall
G1 X90.7698 Y105.3632 E1.19241 F12000 ; Print pattern wall
G1 E-0.5 F2100 ; Retract
G1 Z0.95 F12000 ; Z hop
G0 X91.5046 Y62.9368 F12000 ; Move to start next pattern wall
G1 Z0.85 F12000 ; Z hop return
G1 E0.5 F2100 ; Un-retract
G1 X112.7178 Y84.15 E1.19241 F12000 ; Print pattern wall
G1 X91.5046 Y105.3632 E1.19241 F12000 ; Print pattern wall
G1 E-0.5 F2100 ; Retract
G1 Z0.95 F12000 ; Z hop
G0 X92.2394 Y62.9368 F12000 ; Move to start next pattern wall
G1 Z0.85 F12000 ; Z hop return
G1 E0.5 F2100 ; Un-retract
G1 X113.4526 Y84.15 E1.19241 F12000 ; Print pattern wall
G1 X92.2394 Y105.3632 E1.19241 F12000 ; Print pattern wall
G1 E-0.5 F2100 ; Retract
G1 Z0.95 F12000 ; Z hop
G0 X94.8019 Y62.9368 F12000 ; Move to next pattern
G1 Z0.85 F12000 ; Z hop return
G1 E0.5 F2100 ; Un-retract
SET_PRESSURE_ADVANCE ADVANCE=0.06 ; Set pressure advance
M117 PA 0.06
G1 X116.0151 Y84.15 E1.19241 F12000 ; Print pattern wall
G1 X94.8019 Y105.3632 E1.19241 F12000 ; Print pattern wall
G1 E-0.5 F2100 ; Retract
G1 Z0.95 F12000 ; Z hop
G0 X95.5367 Y62.9368 F12000 ; Move to start next pattern wall
G1 Z0.85 F12000 ; Z hop return
G1 E0.5 F2100 ; Un-retract
G1 X116.7499 Y84.15 E1.19241 F12000 ; Print pattern wall
G1 X95.5367 Y105.3632 E1.19241 F12000 ; Print pattern wall
G1 E-0.5 F2100 ; Retract
G1 Z0.95 F12000 ; Z hop
G0 X96.2715 Y62.9368 F12000 ; Move to start next pattern wall
G1 Z0.85 F12000 ; Z hop return
G1 E0.5 F2100 ; Un-retract
G1 X117.4847 Y84.15 E1.19241 F12000 ; Print pattern wall
G1 X96.2715 Y105.3632 E1.19241 F12000 ; Print pattern wall
G1 E-0.5 F2100 ; Retract
G1 Z0.95 F12000 ; Z hop
G0 X98.834 Y62.9368 F12000 ; Move to next pattern
G1 Z0.85 F12000 ; Z hop return
G1 E0.5 F2100 ; Un-retract
SET_PRESSURE_ADVANCE ADVANCE=0.065 ; Set pressure advance
M117 PA 0.065
G1 X120.0472 Y84.15 E1.19241 F12000 ; Print pattern wall
G1 X98.834 Y105.3632 E1.19241 F12000 ; Print pattern wall
G1 E-0.5 F2100 ; Retract
G1 Z0.95 F12000 ; Z hop
G0 X99.5688 Y62.9368 F12000 ; Move to start next pattern wall
G1 Z0.85 F12000 ; Z hop return
G1 E0.5 F2100 ; Un-retract
G1 X120.782 Y84.15 E1.19241 F12000 ; Print pattern wall
G1 X99.5688 Y105.3632 E1.19241 F12000 ; Print pattern wall
G1 E-0.5 F2100 ; Retract
G1 Z0.95 F12000 ; Z hop
G0 X100.3036 Y62.9368 F12000 ; Move to start next pattern wall
G1 Z0.85 F12000 ; Z hop return
G1 E0.5 F2100 ; Un-retract
G1 X121.5168 Y84.15 E1.19241 F12000 ; Print pattern wall
G1 X100.3036 Y105.3632 E1.19241 F12000 ; Print pattern wall
G1 E-0.5 F2100 ; Retract
G1 Z0.95 F12000 ; Z hop
G0 X102.8661 Y62.9368 F12000 ; Move to next pattern
G1 Z0.85 F12000 ; Z hop return
G1 E0.5 F2100 ; Un-retract
SET_PRESSURE_ADVANCE ADVANCE=0.07 ; Set pressure advance
M117 PA 0.07
G1 X124.0793 Y84.15 E1.19241 F12000 ; Print pattern wall
G1 X102.8661 Y105.3632 E1.19241 F12000 ; Print pattern wall
G1 E-0.5 F2100 ; Retract
G1 Z0.95 F12000 ; Z hop
G0 X103.6009 Y62.9368 F12000 ; Move to start next pattern wall
G1 Z0.85 F12000 ; Z hop return
G1 E0.5 F2100 ; Un-retract
G1 X124.8141 Y84.15 E1.19241 F12000 ; Print pattern wall
G1 X103.6009 Y105.3632 E1.19241 F12000 ; Print pattern wall
G1 E-0.5 F2100 ; Retract
G1 Z0.95 F12000 ; Z hop
G0 X104.3356 Y62.9368 F12000 ; Move to start next pattern wall
G1 Z0.85 F12000 ; Z hop return
G1 E0.5 F2100 ; Un-retract
G1 X125.5489 Y84.15 E1.19241 F12000 ; Print pattern wall
G1 X104.3356 Y105.3632 E1.19241 F12000 ; Print pattern wall
G1 E-0.5 F2100 ; Retract
G1 Z0.95 F12000 ; Z hop
G0 X106.8981 Y62.9368 F12000 ; Move to next pattern
G1 Z0.85 F12000 ; Z hop return
G1 E0.5 F2100 ; Un-retract
SET_PRESSURE_ADVANCE ADVANCE=0.075 ; Set pressure advance
M117 PA 0.075
G1 X128.1114 Y84.15 E1.19241 F12000 ; Print pattern wall
G1 X106.8981 Y105.3632 E1.19241 F12000 ; Print pattern wall
G1 E-0.5 F2100 ; Retract
G1 Z0.95 F12000 ; Z hop
G0 X107.6329 Y62.9368 F12000 ; Move to start next pattern wall
G1 Z0.85 F12000 ; Z hop return
G1 E0.5 F2100 ; Un-retract
G1 X128.8461 Y84.15 E1.19241 F12000 ; Print pattern wall
G1 X107.6329 Y105.3632 E1.19241 F12000 ; Print pattern wall
G1 E-0.5 F2100 ; Retract
G1 Z0.95 F12000 ; Z hop
G0 X108.3677 Y62.9368 F12000 ; Move to start next pattern wall
G1 Z0.85 F12000 ; Z hop return
G1 E0.5 F2100 ; Un-retract
G1 X129.5809 Y84.15 E1.19241 F12000 ; Print pattern wall
G1 X108.3677 Y105.3632 E1.19241 F12000 ; Print pattern wall
G1 E-0.5 F2100 ; Retract
G1 Z0.95 F12000 ; Z hop
G0 X110.9302 Y62.9368 F12000 ; Move to next pattern
G1 Z0.85 F12000 ; Z hop return
G1 E0.5 F2100 ; Un-retract
SET_PRESSURE_ADVANCE ADVANCE=0.08 ; Set pressure advance
M117 PA 0.08
G1 X132.1434 Y84.15 E1.19241 F12000 ; Print pattern wall
G1 X110.9302 Y105.3632 E1.19241 F12000 ; Print pattern wall
G1 E-0.5 F2100 ; Retract
G1 Z0.95 F12000 ; Z hop
G0 X111.665 Y62.9368 F12000 ; Move to start next pattern wall
G1 Z0.85 F12000 ; Z hop return
G1 E0.5 F2100 ; Un-retract
G1 X132.8782 Y84.15 E1.19241 F12000 ; Print pattern wall
G1 X111.665 Y105.3632 E1.19241 F12000 ; Print pattern wall
G1 E-0.5 F2100 ; Retract
G1 Z0.95 F12000 ; Z hop
G0 X112.3998 Y62.9368 F12000 ; Move to start next pattern wall
G1 Z0.85 F12000 ; Z hop return
G1 E0.5 F2100 ; Un-retract
G1 X133.613 Y84.15 E1.19241 F12000 ; Print pattern wall
G1 X112.3998 Y105.3632 E1.19241 F12000 ; Print pattern wall
SET_PRESSURE_ADVANCE ADVANCE=0 ; Set pressure advance back to start value
M117 PA 0
G1 E-0.5 F2100 ; Retract
G1 Z0.95 F12000 ; Z hop
G0 Z5.85 F12000 ; Z raise
M104 S0 ; Turn off hotend
M140 S0 ; Turn off bed
M107    ; Turn off fan
;
; End G-code
;
PRINT_END ; End macro. Change name to match yours
;
; FINISH
;
