; generated by SuperSlicer 2.4 on 2023-04-03 at 21:17:40 UTC


;
;

;
;
; 

; external perimeters extrusion width = 0.52mm
; perimeters extrusion width = 0.46mm
; infill extrusion width = 0.60mm
; solid infill extrusion width = 0.48mm
; top infill extrusion width = 0.52mm
; first layer extrusion width = 0.70mm

; external perimeters extrusion width = 0.52mm
; perimeters extrusion width = 0.46mm
; infill extrusion width = 0.60mm
; solid infill extrusion width = 0.48mm
; top infill extrusion width = 0.52mm
; first layer extrusion width = 0.70mm

; external perimeters extrusion width = 0.52mm
; perimeters extrusion width = 0.46mm
; infill extrusion width = 0.60mm
; solid infill extrusion width = 0.48mm
; top infill extrusion width = 0.52mm
; first layer extrusion width = 0.70mm

; object:{"name":"cap_left","id":"cap_left.stl id:0 copy 0","object_center":[114.587491,52.932633,0.000000],"boundingbox_center":[114.587491,52.932633,13.000000],"boundingbox_size":[116.017502,96.000000,26.000000]}
; object:{"name":"cap_rear","id":"cap_rear.stl id:1 copy 0","object_center":[96.433810,112.110797,0.000000],"boundingbox_center":[96.433810,112.110797,12.500000],"boundingbox_size":[81.000000,121.000000,25.000000]}
; object:{"name":"cap_right","id":"cap_right.stl id:2 copy 0","object_center":[52.738144,120.576525,0.000000],"boundingbox_center":[52.738144,120.576525,13.000000],"boundingbox_size":[96.127874,109.551233,26.000000]}
; plater:{"center":[88.635224,90.142387,0.000000],"boundingbox_center":[88.635224,90.142387,13.000000],"boundingbox_size":[167.922035,170.419509,26.000000]}

;TYPE:Custom
; custom gcode: start_gcode
G28
Z_TILT_ADJUST
print_start EXTRUDER=260 BED=110 CHAMBER_TARGET=0
G21 ; set units to millimeters
G90 ; use absolute coordinates
M82 ; use absolute distances for extrusion
G92 E0
; custom gcode end: start_gcode
; custom gcode: start_filament_gcode
; Filament gcode
; custom gcode end: start_filament_gcode
;_TOOLCHANGE 0
;LAYER_CHANGE
;Z:0.375
;HEIGHT:0.375
G1 Z0.375 F12000
; custom gcode: layer_gcode
M117 Layer 0
; custom gcode end: layer_gcode

G1 E-0.4 F2400
; printing object cap_left.stl id:0 copy 0
G1 X80.233 Y15.643 F12000
G1 E0 F2400
;TYPE:Internal perimeter
;WIDTH:0.7
G1 F1800
G1 X80.068 Y16.683 E0.09356
G1 X80.233 Y17.722 E0.18711
G1 X80.711 Y18.659 E0.2805
G1 X81.454 Y19.402 E0.37391
G1 X82.392 Y19.88 E0.46743
G1 X83.43 Y20.043 E0.56086
G1 X84.467 Y19.88 E0.65413
G1 X85.406 Y19.402 E0.74771
G1 X86.149 Y18.659 E0.84117
G1 X86.628 Y17.721 E0.9347
G1 X86.791 Y16.683 E1.02811
G1 X86.628 Y15.644 E1.12152
G1 X86.149 Y14.707 E1.21504
G1 X85.406 Y13.963 E1.30851
G1 X84.469 Y13.486 E1.40196
G1 X83.43 Y13.321 E1.49537
G1 X82.39 Y13.486 E1.58894
G1 X81.454 Y13.963 E1.68234
G1 X80.711 Y14.707 E1.77574
G1 X80.267 Y15.576 E1.86247
G1 X80.814 Y15.934 F12000
G1 F1800
G1 X80.696 Y16.683 E1.92983
G1 X80.83 Y17.528 E2.00593
G1 X81.218 Y18.29 E2.08189
G1 X81.823 Y18.895 E2.15789
G1 X82.585 Y19.283 E2.23393
G1 X83.43 Y19.416 E2.30994
G1 X84.274 Y19.283 E2.38582
G1 X85.037 Y18.895 E2.46192
G1 X85.642 Y18.29 E2.53796
G1 X86.031 Y17.528 E2.614
G1 X86.164 Y16.683 E2.69
G1 X86.031 Y15.838 E2.766
G1 X85.642 Y15.075 E2.84204
G1 X85.037 Y14.47 E2.91808
G1 X84.275 Y14.082 E2.99411
G1 X83.43 Y13.948 E3.07007
G1 X82.585 Y14.082 E3.14618
G1 X81.823 Y14.471 E3.22214
G1 X81.218 Y15.075 E3.29814
G1 X80.83 Y15.837 E3.3741
G1 X80.826 Y15.86 E3.37616
G1 X81.426 Y16.031 F12000
;TYPE:External perimeter
G1 F1800
G1 X81.323 Y16.683 E3.4348
G1 X81.426 Y17.334 E3.49343
G1 X81.726 Y17.921 E3.55196
G1 X82.192 Y18.387 E3.61055
G1 X82.779 Y18.687 E3.66911
G1 X83.43 Y18.789 E3.7277
G1 X84.08 Y18.687 E3.78619
G1 X84.668 Y18.387 E3.84482
G1 X85.135 Y17.921 E3.90343
G1 X85.434 Y17.334 E3.96199
G1 X85.537 Y16.683 E4.02058
G1 X85.434 Y16.031 E4.07916
G1 X85.135 Y15.444 E4.13772
G1 X84.668 Y14.978 E4.19633
G1 X84.081 Y14.679 E4.25493
G1 X83.43 Y14.575 E4.31346
G1 X82.779 Y14.679 E4.3721
G1 X82.192 Y14.978 E4.43063
G1 X81.726 Y15.444 E4.48922
G1 X81.46 Y15.964 E4.54109
;WIPE_START
G1 X80.943 Y16.16 F12000
;WIPE_END
G92 E0
G1 E-0.4 F2400
G1 X72.906 Y26.213 F12000
G1 E0 F2400
;TYPE:Internal perimeter
G1 F1800
G1 X71.969 Y25.736 E0.09345
G1 X70.93 Y25.571 E0.18686
G1 X69.89 Y25.736 E0.28044
G1 X68.954 Y26.213 E0.37383
G1 X68.211 Y26.957 E0.46723
G1 X67.733 Y27.893 E0.56062
G1 X67.568 Y28.933 E0.65418
G1 X67.733 Y29.972 E0.74774
G1 X68.211 Y30.909 E0.84113
G1 X68.954 Y31.652 E0.93453
G1 X69.892 Y32.13 E1.02806
G1 X70.93 Y32.293 E1.12149
G1 X71.967 Y32.13 E1.21475
G1 X72.906 Y31.652 E1.30833
G1 X73.649 Y30.909 E1.4018
G1 X74.128 Y29.971 E1.49532
G1 X74.291 Y28.933 E1.58873
G1 X74.128 Y27.894 E1.68215
G1 X73.649 Y26.957 E1.77567
G1 X72.959 Y26.266 E1.86247
G1 X72.45 Y26.676 F12000
G1 F1800
G1 X71.775 Y26.332 E1.92977
G1 X70.93 Y26.198 E2.00574
G1 X70.085 Y26.332 E2.08184
G1 X69.323 Y26.721 E2.15781
G1 X68.718 Y27.325 E2.2338
G1 X68.33 Y28.087 E2.30977
G1 X68.196 Y28.933 E2.38586
G1 X68.33 Y29.778 E2.46195
G1 X68.718 Y30.54 E2.53791
G1 X69.323 Y31.145 E2.61391
G1 X70.085 Y31.533 E2.68995
G1 X70.93 Y31.666 E2.76597
G1 X71.774 Y31.533 E2.84184
G1 X72.537 Y31.145 E2.91795
G1 X73.142 Y30.54 E2.99398
G1 X73.531 Y29.778 E3.07003
G1 X73.664 Y28.933 E3.14603
G1 X73.531 Y28.088 E3.22203
G1 X73.142 Y27.325 E3.29807
G1 X72.537 Y26.72 E3.3741
G1 X72.516 Y26.71 E3.37616
G1 X72.168 Y27.228 F12000
;TYPE:External perimeter
G1 F1800
G1 X71.581 Y26.929 E3.43477
G1 X70.93 Y26.825 E3.4933
G1 X70.279 Y26.929 E3.55193
G1 X69.692 Y27.228 E3.61046
G1 X69.226 Y27.694 E3.66906
G1 X68.926 Y28.281 E3.72759
G1 X68.823 Y28.933 E3.78622
G1 X68.926 Y29.584 E3.84485
G1 X69.226 Y30.171 E3.90338
G1 X69.692 Y30.637 E3.96197
G1 X70.279 Y30.937 E4.02053
G1 X70.93 Y31.039 E4.07912
G1 X71.581 Y30.937 E4.13761
G1 X72.168 Y30.637 E4.19624
G1 X72.635 Y30.171 E4.25485
G1 X72.934 Y29.584 E4.31341
G1 X73.037 Y28.933 E4.372
G1 X72.934 Y28.281 E4.43059
G1 X72.635 Y27.694 E4.48915
G1 X72.222 Y27.281 E4.54109
;WIPE_START
G1 X72.195 Y26.729 F12000
;WIPE_END
G92 E0
G1 E-0.4 F2400
G1 X58.826 Y29.831 F12000
G1 E0 F2400
;TYPE:Internal perimeter
G1 F1800
G1 X82.135 Y6.522 E2.92926
G1 X141.005 Y6.522 E8.16049
G1 X141.005 Y45.344 E11.61025
G1 X74.338 Y45.344 E17.53432
G1 X58.879 Y29.884 E19.47709
G1 X57.95 Y29.831 F12000
G1 F1800
G1 X81.879 Y5.902 E22.48421
G1 X141.625 Y5.902 E27.79329
G1 X141.625 Y45.963 E31.35315
G1 X74.082 Y45.963 E37.35508
G1 X58.003 Y29.884 E39.3757
G92 E0
G1 E-0.4 F2400
G1 X142.185 Y61.514 F12000
G1 E0 F2400
G1 F1800
G1 X171.007 Y61.514 E2.56115
G1 X171.007 Y99.344 E5.92273
G1 X142.185 Y99.344 E8.48388
G1 X142.185 Y61.589 E11.8388
G1 X141.566 Y60.894 F12000
G1 F1800
G1 X171.627 Y60.894 E14.51005
G1 X171.627 Y99.963 E17.98175
G1 X141.566 Y99.963 E20.65299
G1 X141.566 Y60.969 E24.11802
G92 E0
G1 E-0.4 F2400
G1 X140.946 Y46.583 F12000
G1 E0 F2400
;TYPE:External perimeter
G1 F1800
G1 X73.825 Y46.583 E5.96444
G1 X57.074 Y29.831 E8.06958
G1 X81.622 Y5.283 E11.15455
G1 X160.892 Y5.283 E18.19857
G1 X162.199 Y6.59 E18.36281
G1 X142.244 Y6.59 E20.13603
G1 X142.244 Y60.275 E24.90656
G1 X170.949 Y60.275 E27.45731
G1 X170.949 Y15.34 E31.4503
G1 X172.246 Y16.637 E31.6133
G1 X172.246 Y100.583 E39.07283
G1 X140.946 Y100.583 E41.85418
G1 X140.946 Y46.658 E46.64601
;WIPE_START
G1 X140.946 Y46.083 F12000
;WIPE_END
G1 X141.595 Y46.248
;TYPE:Gap fill
;WIDTH:0.809356
G1 F1800
G1 X141.595 Y60.61 E48.14751
G92 E0
G1 E-0.4 F2400
G1 X169.569 Y61.7 F12000
G1 E0 F2400
;TYPE:Solid infill
;WIDTH:0.69509
G1 F1800
G1 X170.555 Y62.686 E0.12303
G1 X170.555 Y63.562 E0.20034
G1 X168.959 Y61.966 E0.39946
G1 X168.083 Y61.966 E0.47677
G1 X170.555 Y64.438 E0.78522
G1 X170.555 Y65.314 E0.86253
G1 X167.207 Y61.966 E1.28031
G1 X166.331 Y61.966 E1.35762
G1 X170.555 Y66.19 E1.88473
G1 X170.555 Y67.066 E1.96204
G1 X165.455 Y61.966 E2.59848
G1 X164.579 Y61.966 E2.67579
G1 X170.555 Y67.942 E3.42156
G1 X170.555 Y68.819 E3.49887
G1 X163.702 Y61.966 E4.35398
G1 X162.826 Y61.966 E4.43129
G1 X170.555 Y69.695 E5.39572
G1 X170.555 Y70.571 E5.47303
G1 X161.95 Y61.966 E6.5468
G1 X161.074 Y61.966 E6.6241
G1 X170.555 Y71.447 E7.8072
G1 X170.555 Y72.323 E7.88451
G1 X160.198 Y61.966 E9.17694
G1 X159.322 Y61.966 E9.25425
G1 X170.555 Y73.199 E10.656
G1 X170.555 Y74.075 E10.73331
G1 X158.446 Y61.966 E12.2444
G1 X157.569 Y61.966 E12.32171
G1 X170.555 Y74.952 E13.94213
G1 X170.555 Y75.828 E14.01944
G1 X156.693 Y61.966 E15.74919
G1 X155.817 Y61.966 E15.8265
G1 X170.555 Y76.704 E17.66558
G1 X170.555 Y77.58 E17.74289
G1 X154.941 Y61.966 E19.6913
G1 X154.065 Y61.966 E19.76861
G1 X170.555 Y78.456 E21.82635
G1 X170.555 Y79.332 E21.90366
G1 X153.189 Y61.966 E24.07074
G1 X152.313 Y61.966 E24.14804
G1 X170.555 Y80.208 E26.42445
G1 X170.555 Y81.085 E26.50176
G1 X151.437 Y61.966 E28.88749
G1 X150.56 Y61.966 E28.9648
G1 X170.555 Y81.961 E31.45987
G1 X170.555 Y82.837 E31.53718
G1 X149.684 Y61.966 E34.14157
G1 X148.808 Y61.966 E34.21888
G1 X170.555 Y83.713 E36.93261
G1 X170.555 Y84.589 E37.00992
G1 X147.932 Y61.966 E39.83298
G1 X147.056 Y61.966 E39.91029
G1 X170.555 Y85.465 E42.84268
G1 X170.555 Y86.341 E42.91999
G1 X146.18 Y61.966 E45.96171
G1 X145.304 Y61.966 E46.03901
G1 X170.555 Y87.218 E49.19007
G1 X170.555 Y88.094 E49.26737
G1 X144.427 Y61.966 E52.52776
G1 X143.551 Y61.966 E52.60507
G1 X170.555 Y88.97 E55.97478
G1 X170.555 Y89.846 E56.05209
G1 X142.675 Y61.966 E59.53113
G1 X142.638 Y61.966 E59.53445
G1 X142.638 Y62.805 E59.60844
G1 X170.555 Y90.722 E63.09218
G1 X170.555 Y91.598 E63.16948
G1 X142.638 Y63.681 E66.65322
G1 X142.638 Y64.557 E66.73053
G1 X170.555 Y92.474 E70.21427
G1 X170.555 Y93.35 E70.29158
G1 X142.638 Y65.433 E73.77531
G1 X142.638 Y66.309 E73.85262
G1 X170.555 Y94.227 E77.33636
G1 X170.555 Y95.103 E77.41367
G1 X142.638 Y67.185 E80.8974
G1 X142.638 Y68.061 E80.97471
G1 X170.555 Y95.979 E84.45845
G1 X170.555 Y96.855 E84.53576
G1 X142.638 Y68.938 E88.01949
G1 X142.638 Y69.814 E88.0968
G1 X170.555 Y97.731 E91.58054
G1 X170.555 Y98.607 E91.65785
G1 X142.638 Y70.69 E95.14158
G1 X142.638 Y71.566 E95.21889
G1 X169.963 Y98.891 E98.62874
G1 X169.087 Y98.891 E98.70605
G1 X142.638 Y72.442 E102.00657
G1 X142.638 Y73.318 E102.08388
G1 X168.211 Y98.891 E105.27507
G1 X167.334 Y98.891 E105.35238
G1 X142.638 Y74.194 E108.43424
G1 X142.638 Y75.071 E108.51154
G1 X166.458 Y98.891 E111.48407
G1 X165.582 Y98.891 E111.56138
G1 X142.638 Y75.947 E114.42458
G1 X142.638 Y76.823 E114.50188
G1 X164.706 Y98.891 E117.25575
G1 X163.83 Y98.891 E117.33306
G1 X142.638 Y77.699 E119.97759
G1 X142.638 Y78.575 E120.0549
G1 X162.954 Y98.891 E122.59011
G1 X162.078 Y98.891 E122.66741
G1 X142.638 Y79.451 E125.09329
G1 X142.638 Y80.327 E125.1706
G1 X161.201 Y98.891 E127.48714
G1 X160.325 Y98.891 E127.56445
G1 X142.638 Y81.204 E129.77166
G1 X142.638 Y82.08 E129.84897
G1 X159.449 Y98.891 E131.94685
G1 X158.573 Y98.891 E132.02416
G1 X142.638 Y82.956 E134.01271
G1 X142.638 Y83.832 E134.09002
G1 X157.697 Y98.891 E135.96923
G1 X156.821 Y98.891 E136.04654
G1 X142.638 Y84.708 E137.81643
G1 X142.638 Y85.584 E137.89374
G1 X155.945 Y98.891 E139.5543
G1 X155.069 Y98.891 E139.63161
G1 X142.638 Y86.46 E141.18283
G1 X142.638 Y87.337 E141.26014
G1 X154.192 Y98.891 E142.70204
G1 X153.316 Y98.891 E142.77935
G1 X142.638 Y88.213 E144.11191
G1 X142.638 Y89.089 E144.18922
G1 X152.44 Y98.891 E145.41245
G1 X151.564 Y98.891 E145.48976
G1 X142.638 Y89.965 E146.60367
G1 X142.638 Y90.841 E146.68097
G1 X150.688 Y98.891 E147.68555
G1 X149.812 Y98.891 E147.76286
G1 X142.638 Y91.717 E148.6581
G1 X142.638 Y92.593 E148.73541
G1 X148.936 Y98.891 E149.52132
G1 X148.059 Y98.891 E149.59863
G1 X142.638 Y93.469 E150.27521
G1 X142.638 Y94.346 E150.35252
G1 X147.183 Y98.891 E150.91976
G1 X146.307 Y98.891 E150.99707
G1 X142.638 Y95.222 E151.45499
G1 X142.638 Y96.098 E151.5323
G1 X145.431 Y98.891 E151.88089
G1 X144.555 Y98.891 E151.9582
G1 X142.638 Y96.974 E152.19745
G1 X142.638 Y97.85 E152.27476
G1 X143.679 Y98.891 E152.40469
G1 X142.803 Y98.891 E152.482
G1 X142.371 Y98.46 E152.53584
G92 E0
G1 E-0.4 F2400
G1 X171.598 Y60.61 F12000
G1 E0 F2400
;TYPE:Gap fill
;WIDTH:0.80835
G1 F1800
G1 X171.598 Y60.246 E0.038
G1 X171.598 Y16.905 E4.56285
G1 X171.579 Y16.758 E4.57837
;WIDTH:0.740821
G1 X171.56 Y16.61 E4.59246
;WIDTH:0.673292
G1 X171.541 Y16.463 E4.6051
;WIDTH:0.605764
G1 X171.522 Y16.315 E4.61631
G92 E0
G1 E-0.4 F2400
G1 X161.22 Y6.012 F12000
G1 E0 F2400
;WIDTH:0.612908
G1 F1800
G1 X161.07 Y5.993 E0.01151
;WIDTH:0.681355
G1 X160.921 Y5.974 E0.0245
;WIDTH:0.749802
G1 X160.771 Y5.955 E0.03897
;WIDTH:0.81825
G1 X160.622 Y5.936 E0.05493
G1 X141.909 Y5.936 E2.0351
G92 E0
G1 E-0.4 F2400
G1 X140.819 Y7.96 F12000
G1 E0 F2400
;TYPE:Solid infill
;WIDTH:0.698172
G1 F1800
G1 X139.833 Y6.974 E0.12358
G1 X138.957 Y6.974 E0.20123
G1 X140.553 Y8.57 E0.40123
G1 X140.553 Y9.446 E0.47888
G1 X138.081 Y6.974 E0.7887
G1 X137.205 Y6.974 E0.86635
G1 X140.553 Y10.322 E1.28599
G1 X140.553 Y11.198 E1.36364
G1 X136.329 Y6.974 E1.89309
G1 X135.453 Y6.974 E1.97074
G1 X140.553 Y12.074 E2.61
G1 X140.553 Y12.95 E2.68766
G1 X134.577 Y6.974 E3.43674
G1 X133.7 Y6.974 E3.51439
G1 X140.553 Y13.826 E4.37329
G1 X140.553 Y14.703 E4.45094
G1 X132.824 Y6.974 E5.41965
G1 X131.948 Y6.974 E5.4973
G1 X140.553 Y15.579 E6.57583
G1 X140.553 Y16.455 E6.65348
G1 X131.072 Y6.974 E7.84182
G1 X130.196 Y6.974 E7.91947
G1 X140.553 Y17.331 E9.21763
G1 X140.553 Y18.207 E9.29529
G1 X129.32 Y6.974 E10.70326
G1 X128.444 Y6.974 E10.78091
G1 X140.553 Y19.083 E12.2987
G1 X140.553 Y19.959 E12.37635
G1 X127.567 Y6.974 E14.00396
G1 X126.691 Y6.974 E14.08161
G1 X140.553 Y20.836 E15.81903
G1 X140.553 Y21.712 E15.89668
G1 X125.815 Y6.974 E17.74392
G1 X124.939 Y6.974 E17.82157
G1 X140.553 Y22.588 E19.77863
G1 X140.553 Y23.464 E19.85628
G1 X124.063 Y6.974 E21.92315
G1 X123.187 Y6.974 E22.0008
G1 X140.553 Y24.34 E24.17748
G1 X140.553 Y25.216 E24.25513
G1 X122.311 Y6.974 E26.54163
G1 X121.435 Y6.974 E26.61929
G1 X140.553 Y26.092 E29.0156
G1 X140.553 Y26.969 E29.09325
G1 X120.558 Y6.974 E31.59938
G1 X119.682 Y6.974 E31.67704
G1 X140.553 Y27.845 E34.29298
G1 X140.553 Y28.721 E34.37063
G1 X118.806 Y6.974 E37.0964
G1 X117.93 Y6.974 E37.17405
G1 X140.553 Y29.597 E40.00963
G1 X140.553 Y30.473 E40.08728
G1 X117.054 Y6.974 E43.03267
G1 X116.178 Y6.974 E43.11032
G1 X140.553 Y31.349 E46.16553
G1 X140.553 Y32.225 E46.24319
G1 X115.302 Y6.974 E49.40821
G1 X114.425 Y6.974 E49.48586
G1 X140.553 Y33.101 E52.7607
G1 X140.553 Y33.978 E52.83835
G1 X113.549 Y6.974 E56.22301
G1 X112.673 Y6.974 E56.30066
G1 X140.553 Y34.854 E59.79514
G1 X140.553 Y35.73 E59.87279
G1 X111.797 Y6.974 E63.47707
G1 X110.921 Y6.974 E63.55473
G1 X140.553 Y36.606 E67.26883
G1 X140.553 Y37.482 E67.34648
G1 X110.045 Y6.974 E71.1704
G1 X109.169 Y6.974 E71.24805
G1 X140.553 Y38.358 E75.18179
G1 X140.553 Y39.234 E75.25944
G1 X108.292 Y6.974 E79.30299
G1 X107.416 Y6.974 E79.38064
G1 X140.553 Y40.111 E83.53401
G1 X140.553 Y40.987 E83.61166
G1 X106.54 Y6.974 E87.87484
G1 X105.664 Y6.974 E87.95249
G1 X140.553 Y41.863 E92.32549
G1 X140.553 Y42.739 E92.40314
G1 X104.788 Y6.974 E96.88595
G1 X103.912 Y6.974 E96.9636
G1 X140.553 Y43.615 E101.55623
G1 X140.553 Y44.491 E101.63389
G1 X103.036 Y6.974 E106.33633
G1 X102.159 Y6.974 E106.41398
G1 X140.077 Y44.891 E111.16657
G1 X139.201 Y44.891 E111.24422
G1 X101.283 Y6.974 E115.99681
G1 X100.407 Y6.974 E116.07446
G1 X138.325 Y44.891 E120.82705
G1 X137.448 Y44.891 E120.90471
G1 X99.531 Y6.974 E125.6573
G1 X98.655 Y6.974 E125.73495
G1 X136.572 Y44.891 E130.48754
G1 X135.696 Y44.891 E130.56519
G1 X97.779 Y6.974 E135.31778
G1 X96.903 Y6.974 E135.39543
G1 X134.82 Y44.891 E140.14802
G1 X133.944 Y44.891 E140.22567
G1 X96.026 Y6.974 E144.97826
G1 X95.15 Y6.974 E145.05591
G1 X133.068 Y44.891 E149.8085
G1 X132.192 Y44.891 E149.88616
G1 X94.274 Y6.974 E154.63875
G1 X93.398 Y6.974 E154.7164
G1 X131.316 Y44.891 E159.46899
G1 X130.439 Y44.891 E159.54664
G1 X92.522 Y6.974 E164.29923
G1 X91.646 Y6.974 E164.37688
G1 X129.563 Y44.891 E169.12947
G1 X128.687 Y44.891 E169.20712
G1 X90.77 Y6.974 E173.95971
G1 X89.893 Y6.974 E174.03736
G1 X127.811 Y44.891 E178.78995
G1 X126.935 Y44.891 E178.8676
G1 X89.017 Y6.974 E183.62019
